#define font_fat_width 32
#define font_fat_height 4096
static char font_fat_bits[] = {
  0xFF, 0xFF, 0xFF, 0xFF, 0xFF, 0xFF, 0xFF, 0xFF, 0xFF, 0xFF, 0xFF, 0xFF, 
  0xFF, 0xFF, 0xFF, 0xFF, 0xFF, 0xFF, 0xFF, 0xFF, 0xFF, 0xFF, 0xFF, 0xFF, 
  0xFF, 0xFF, 0xFF, 0xFF, 0xFF, 0xFF, 0xFF, 0xFF, 0xFF, 0xFF, 0xFF, 0xFF, 
  0xFF, 0xFF, 0xFF, 0xFF, 0xFF, 0xFF, 0xFF, 0xFF, 0xFF, 0xFF, 0xFF, 0xFF, 
  0xFF, 0xFF, 0xFF, 0xFF, 0xFF, 0xFF, 0xFF, 0xFF, 0xFF, 0xFF, 0xFF, 0xFF, 
  0xFF, 0xFF, 0xFF, 0xFF, 0xFF, 0xFF, 0xFF, 0xFF, 0xFF, 0xFF, 0xFF, 0xFF, 
  0xFF, 0xFF, 0xFF, 0xFF, 0xFF, 0xFF, 0xFF, 0xFF, 0xFF, 0xFF, 0xFF, 0xFF, 
  0xFF, 0xFF, 0xFF, 0xFF, 0xFF, 0xFF, 0xFF, 0xFF, 0xFF, 0xFF, 0xFF, 0xFF, 
  0xFF, 0xFF, 0xFF, 0xFF, 0xFF, 0xFF, 0xFF, 0xFF, 0xFF, 0xFF, 0xFF, 0xFF, 
  0xFF, 0xFF, 0xFF, 0xFF, 0xFF, 0xFF, 0xFF, 0xFF, 0xFF, 0xFF, 0xFF, 0xFF, 
  0xFF, 0xFF, 0xFF, 0xFF, 0xFF, 0xFF, 0xFF, 0xFF, 0xFF, 0xFF, 0xFF, 0xFF, 
  0xFF, 0xFF, 0xFF, 0xFF, 0xFF, 0xFF, 0xFF, 0xFF, 0xFF, 0xFF, 0xFF, 0xFF, 
  0xFF, 0xFF, 0xFF, 0xFF, 0xFF, 0xFF, 0xFF, 0xFF, 0xFF, 0xFF, 0xFF, 0xFF, 
  0xFF, 0xFF, 0xFF, 0xFF, 0xFF, 0xFF, 0xFF, 0xFF, 0xFF, 0xFF, 0xFF, 0xFF, 
  0xFF, 0xFF, 0xFF, 0xFF, 0xFF, 0xFF, 0xFF, 0xFF, 0xFF, 0xFF, 0xFF, 0xFF, 
  0xFF, 0xFF, 0xFF, 0xFF, 0xFF, 0xFF, 0xFF, 0xFF, 0xFF, 0xFF, 0xFF, 0xFF, 
  0xFF, 0xFF, 0xFF, 0xFF, 0xFF, 0xFF, 0xFF, 0xFF, 0xFF, 0xFF, 0xFF, 0xFF, 
  0xFF, 0xFF, 0xFF, 0xFF, 0xFF, 0xFF, 0xFF, 0xFF, 0xFF, 0xFF, 0xFF, 0xFF, 
  0xFF, 0xFF, 0xFF, 0xFF, 0xFF, 0xFF, 0xFF, 0xFF, 0xFF, 0xFF, 0xFF, 0xFF, 
  0xFF, 0xFF, 0xFF, 0xFF, 0xFF, 0xFF, 0xFF, 0xFF, 0xFF, 0xFF, 0xFF, 0xFF, 
  0xFF, 0xFF, 0xFF, 0xFF, 0xFF, 0xFF, 0xFF, 0xFF, 0xFF, 0xFF, 0xFF, 0xFF, 
  0xFF, 0xFF, 0xFF, 0xFF, 0xFF, 0xFF, 0xFF, 0xFF, 0xFF, 0xFF, 0xFF, 0xFF, 
  0xFF, 0xFF, 0xFF, 0xFF, 0xFF, 0xFF, 0xFF, 0xFF, 0xFF, 0xFF, 0xFF, 0xFF, 
  0xFF, 0xFF, 0xFF, 0xFF, 0xFF, 0xFF, 0xFF, 0xFF, 0xFF, 0xFF, 0xFF, 0xFF, 
  0xFF, 0xFF, 0xFF, 0xFF, 0xFF, 0xFF, 0xFF, 0xFF, 0xFF, 0xFF, 0xFF, 0xFF, 
  0xFF, 0xFF, 0xFF, 0xFF, 0xFF, 0xFF, 0xFF, 0xFF, 0xFF, 0xFF, 0xFF, 0xFF, 
  0xFF, 0xFF, 0xFF, 0xFF, 0xFF, 0xFF, 0xFF, 0xFF, 0xFF, 0xFF, 0xFF, 0xFF, 
  0xFF, 0xFF, 0xFF, 0xFF, 0xFF, 0xFF, 0xFF, 0xFF, 0xFF, 0xFF, 0xFF, 0xFF, 
  0xFF, 0xFF, 0xFF, 0xFF, 0xFF, 0xFF, 0xFF, 0xFF, 0xFF, 0xFF, 0xFF, 0xFF, 
  0xFF, 0xFF, 0xFF, 0xFF, 0xFF, 0xFF, 0xFF, 0xFF, 0xFF, 0xFF, 0xFF, 0xFF, 
  0xFF, 0xFF, 0xFF, 0xFF, 0xFF, 0xFF, 0xFF, 0xFF, 0xFF, 0xFF, 0xFF, 0xFF, 
  0xFF, 0xFF, 0xFF, 0xFF, 0xFF, 0xFF, 0xFF, 0xFF, 0xFF, 0xFF, 0xFF, 0xFF, 
  0xFF, 0xFF, 0xFF, 0xFF, 0xFF, 0xFF, 0xFF, 0xFF, 0xFF, 0xFF, 0xFF, 0xFF, 
  0xFF, 0xFF, 0xFF, 0xFF, 0xFF, 0xFF, 0xFF, 0xFF, 0xFF, 0xFF, 0xFF, 0xFF, 
  0xFF, 0xFF, 0xFF, 0xFF, 0xFF, 0xFF, 0xFF, 0xFF, 0xFF, 0xFF, 0xFF, 0xFF, 
  0xFF, 0xFF, 0xFF, 0xFF, 0xFF, 0xFF, 0xFF, 0xFF, 0xFF, 0xFF, 0xFF, 0xFF, 
  0xFF, 0xFF, 0xFF, 0xFF, 0xFF, 0xFF, 0xFF, 0xFF, 0xFF, 0xFF, 0xFF, 0xFF, 
  0xFF, 0xFF, 0xFF, 0xFF, 0xFF, 0xFF, 0xFF, 0xFF, 0xFF, 0xFF, 0xFF, 0xFF, 
  0xFF, 0xFF, 0xFF, 0xFF, 0xFF, 0xFF, 0xFF, 0xFF, 0xFF, 0xFF, 0xFF, 0xFF, 
  0xFF, 0xFF, 0xFF, 0xFF, 0xFF, 0xFF, 0xFF, 0xFF, 0xFF, 0xFF, 0xFF, 0xFF, 
  0xFF, 0xFF, 0xFF, 0xFF, 0xFF, 0xFF, 0xFF, 0xFF, 0xFF, 0xFF, 0xFF, 0xFF, 
  0xFF, 0xFF, 0xFF, 0xFF, 0xFF, 0xFF, 0xFF, 0xFF, 0xFF, 0xFF, 0xFF, 0xFF, 
  0xFF, 0xFF, 0xFF, 0xFF, 0xFF, 0xFF, 0xFF, 0xFF, 0xFF, 0xFF, 0xFF, 0xFF, 
  0xFF, 0xFF, 0xFF, 0xFF, 0xFF, 0xFF, 0xFF, 0xFF, 0xFF, 0xFF, 0xFF, 0xFF, 
  0xFF, 0xFF, 0xFF, 0xFF, 0xFF, 0xFF, 0xFF, 0xFF, 0xFF, 0xFF, 0xFF, 0xFF, 
  0xFF, 0xFF, 0xFF, 0xFF, 0xFF, 0xFF, 0xFF, 0xFF, 0xFF, 0xFF, 0xFF, 0xFF, 
  0xFF, 0xFF, 0xFF, 0xFF, 0xFF, 0xFF, 0xFF, 0xFF, 0xFF, 0xFF, 0xFF, 0xFF, 
  0xFF, 0xFF, 0xFF, 0xFF, 0xFF, 0xFF, 0xFF, 0xFF, 0xFF, 0xFF, 0xFF, 0xFF, 
  0xFF, 0xFF, 0xFF, 0xFF, 0xFF, 0xFF, 0xFF, 0xFF, 0xFF, 0xFF, 0xFF, 0xFF, 
  0xFF, 0xFF, 0xFF, 0xFF, 0xFF, 0xFF, 0xFF, 0xFF, 0xFF, 0xFF, 0xFF, 0xFF, 
  0xFF, 0xFF, 0xFF, 0xFF, 0xFF, 0xFF, 0xFF, 0xFF, 0xFF, 0xFF, 0xFF, 0xFF, 
  0xFF, 0xFF, 0xFF, 0xFF, 0xFF, 0xFF, 0xFF, 0xFF, 0xFF, 0xFF, 0xFF, 0xFF, 
  0xFF, 0xFF, 0xFF, 0xFF, 0xFF, 0xFF, 0xFF, 0xFF, 0xFF, 0xFF, 0xFF, 0xFF, 
  0xFF, 0xFF, 0xFF, 0xFF, 0xFF, 0xFF, 0xFF, 0xFF, 0xFF, 0xFF, 0xFF, 0xFF, 
  0xFF, 0xFF, 0xFF, 0xFF, 0xFF, 0xFF, 0xFF, 0xFF, 0xFF, 0xFF, 0xFF, 0xFF, 
  0xFF, 0xFF, 0xFF, 0xFF, 0xFF, 0xFF, 0xFF, 0xFF, 0xFF, 0xFF, 0xFF, 0xFF, 
  0xFF, 0xFF, 0xFF, 0xFF, 0xFF, 0xFF, 0xFF, 0xFF, 0xFF, 0xFF, 0xFF, 0xFF, 
  0xFF, 0xFF, 0xFF, 0xFF, 0xFF, 0xFF, 0xFF, 0xFF, 0xFF, 0xFF, 0xFF, 0xFF, 
  0xFF, 0xFF, 0xFF, 0xFF, 0xFF, 0xFF, 0xFF, 0xFF, 0xFF, 0xFF, 0xFF, 0xFF, 
  0xFF, 0xFF, 0xFF, 0xFF, 0xFF, 0xFF, 0xFF, 0xFF, 0xFF, 0xFF, 0xFF, 0xFF, 
  0xFF, 0xFF, 0xFF, 0xFF, 0xFF, 0xFF, 0xFF, 0xFF, 0xFF, 0xFF, 0xFF, 0xFF, 
  0xFF, 0xFF, 0xFF, 0xFF, 0xFF, 0xFF, 0xFF, 0xFF, 0xFF, 0xFF, 0xFF, 0xFF, 
  0xFF, 0xFF, 0xFF, 0xFF, 0xFF, 0xFF, 0xFF, 0xFF, 0xFF, 0xFF, 0xFF, 0xFF, 
  0xFF, 0xFF, 0xFF, 0xFF, 0xFF, 0xFF, 0xFF, 0xFF, 0xFF, 0xFF, 0xFF, 0xFF, 
  0xFF, 0xFF, 0xFF, 0xFF, 0xFF, 0xFF, 0xFF, 0xFF, 0xFF, 0xFF, 0xFF, 0xFF, 
  0xFF, 0xFF, 0xFF, 0xFF, 0xFF, 0xFF, 0xFF, 0xFF, 0xFF, 0xFF, 0xFF, 0xFF, 
  0xFF, 0xFF, 0xFF, 0xFF, 0xFF, 0xFF, 0xFF, 0xFF, 0xFF, 0xFF, 0xFF, 0xFF, 
  0xFF, 0xFF, 0xFF, 0xFF, 0xFF, 0xFF, 0xFF, 0xFF, 0xFF, 0xFF, 0xFF, 0xFF, 
  0xFF, 0xFF, 0xFF, 0xFF, 0xFF, 0xFF, 0xFF, 0xFF, 0xFF, 0xFF, 0xFF, 0xFF, 
  0xFF, 0xFF, 0xFF, 0xFF, 0xFF, 0xFF, 0xFF, 0xFF, 0xFF, 0xFF, 0xFF, 0xFF, 
  0xFF, 0xFF, 0xFF, 0xFF, 0xFF, 0xFF, 0xFF, 0xFF, 0xFF, 0xFF, 0xFF, 0xFF, 
  0xFF, 0xFF, 0xFF, 0xFF, 0xFF, 0xFF, 0xFF, 0xFF, 0xFF, 0xFF, 0xFF, 0xFF, 
  0xFF, 0xFF, 0xFF, 0xFF, 0xFF, 0xFF, 0xFF, 0xFF, 0xFF, 0xFF, 0xFF, 0xFF, 
  0xFF, 0xFF, 0xFF, 0xFF, 0xFF, 0xFF, 0xFF, 0xFF, 0xFF, 0xFF, 0xFF, 0xFF, 
  0xFF, 0xFF, 0xFF, 0xFF, 0xFF, 0xFF, 0xFF, 0xFF, 0xFF, 0xFF, 0xFF, 0xFF, 
  0xFF, 0xFF, 0xFF, 0xFF, 0xFF, 0xFF, 0xFF, 0xFF, 0xFF, 0xFF, 0xFF, 0xFF, 
  0xFF, 0xFF, 0xFF, 0xFF, 0xFF, 0xFF, 0xFF, 0xFF, 0xFF, 0xFF, 0xFF, 0xFF, 
  0xFF, 0xFF, 0xFF, 0xFF, 0xFF, 0xFF, 0xFF, 0xFF, 0xFF, 0xFF, 0xFF, 0xFF, 
  0xFF, 0xFF, 0xFF, 0xFF, 0xFF, 0xFF, 0xFF, 0xFF, 0xFF, 0xFF, 0xFF, 0xFF, 
  0xFF, 0xFF, 0xFF, 0xFF, 0xFF, 0xFF, 0xFF, 0xFF, 0xFF, 0xFF, 0xFF, 0xFF, 
  0xFF, 0xFF, 0xFF, 0xFF, 0xFF, 0xFF, 0xFF, 0xFF, 0xFF, 0xFF, 0xFF, 0xFF, 
  0xFF, 0xFF, 0xFF, 0xFF, 0xFF, 0xFF, 0xFF, 0xFF, 0xFF, 0xFF, 0xFF, 0xFF, 
  0xFF, 0xFF, 0xFF, 0xFF, 0xFF, 0xFF, 0xFF, 0xFF, 0xFF, 0xFF, 0xFF, 0xFF, 
  0xFF, 0xFF, 0xFF, 0xFF, 0xFF, 0xFF, 0xFF, 0xFF, 0xFF, 0xFF, 0xFF, 0xFF, 
  0xFF, 0xFF, 0xFF, 0xFF, 0xFF, 0xFF, 0xFF, 0xFF, 0xFF, 0xFF, 0xFF, 0xFF, 
  0xFF, 0xFF, 0xFF, 0xFF, 0xFF, 0xFF, 0xFF, 0xFF, 0xFF, 0xFF, 0xFF, 0xFF, 
  0xFF, 0xFF, 0xFF, 0xFF, 0xFF, 0xFF, 0xFF, 0xFF, 0xFF, 0xFF, 0xFF, 0xFF, 
  0xFF, 0xFF, 0xFF, 0xFF, 0xFF, 0xFF, 0xFF, 0xFF, 0xFF, 0xFF, 0xFF, 0xFF, 
  0xFF, 0xFF, 0xFF, 0xFF, 0xFF, 0xFF, 0xFF, 0xFF, 0xFF, 0xFF, 0xFF, 0xFF, 
  0xFF, 0xFF, 0xFF, 0xFF, 0xFF, 0xFF, 0xFF, 0xFF, 0xFF, 0xFF, 0xFF, 0xFF, 
  0xFF, 0xFF, 0xFF, 0xFF, 0xFF, 0xFF, 0xFF, 0xFF, 0xFF, 0xFF, 0xFF, 0xFF, 
  0xFF, 0xFF, 0xFF, 0xFF, 0xFF, 0xFF, 0xFF, 0xFF, 0xFF, 0xFF, 0xFF, 0xFF, 
  0xFF, 0xFF, 0xFF, 0xFF, 0xFF, 0xFF, 0xFF, 0xFF, 0xFF, 0xFF, 0xFF, 0xFF, 
  0xFF, 0xFF, 0xFF, 0xFF, 0xFF, 0xFF, 0xFF, 0xFF, 0xFF, 0xFF, 0xFF, 0xFF, 
  0xFF, 0xFF, 0xFF, 0xFF, 0xFF, 0xFF, 0xFF, 0xFF, 0xFF, 0xFF, 0xFF, 0xFF, 
  0xFF, 0xFF, 0xFF, 0xFF, 0xFF, 0xFF, 0xFF, 0xFF, 0xFF, 0xFF, 0xFF, 0xFF, 
  0xFF, 0xFF, 0xFF, 0xFF, 0xFF, 0xFF, 0xFF, 0xFF, 0xFF, 0xFF, 0xFF, 0xFF, 
  0xFF, 0xFF, 0xFF, 0xFF, 0xFF, 0xFF, 0xFF, 0xFF, 0xFF, 0xFF, 0xFF, 0xFF, 
  0xFF, 0xFF, 0xFF, 0xFF, 0xFF, 0xFF, 0xFF, 0xFF, 0xFF, 0xFF, 0xFF, 0xFF, 
  0xFF, 0xFF, 0xFF, 0xFF, 0xFF, 0xFF, 0xFF, 0xFF, 0xFF, 0xFF, 0xFF, 0xFF, 
  0xFF, 0xFF, 0xFF, 0xFF, 0xFF, 0xFF, 0xFF, 0xFF, 0xFF, 0xFF, 0xFF, 0xFF, 
  0xFF, 0xFF, 0xFF, 0xFF, 0xFF, 0xFF, 0xFF, 0xFF, 0xFF, 0xFF, 0xFF, 0xFF, 
  0xFF, 0xFF, 0xFF, 0xFF, 0xFF, 0xFF, 0xFF, 0xFF, 0xFF, 0xFF, 0xFF, 0xFF, 
  0xFF, 0xFF, 0xFF, 0xFF, 0xFF, 0xFF, 0xFF, 0xFF, 0xFF, 0xFF, 0xFF, 0xFF, 
  0xFF, 0xFF, 0xFF, 0xFF, 0xFF, 0xFF, 0xFF, 0xFF, 0xFF, 0xFF, 0xFF, 0xFF, 
  0xFF, 0xFF, 0xFF, 0xFF, 0xFF, 0xFF, 0xFF, 0xFF, 0xFF, 0xFF, 0xFF, 0xFF, 
  0xFF, 0xFF, 0xFF, 0xFF, 0xFF, 0xFF, 0xFF, 0xFF, 0xFF, 0xFF, 0xFF, 0xFF, 
  0xFF, 0xFF, 0xFF, 0xFF, 0xFF, 0xFF, 0xFF, 0xFF, 0xFF, 0xFF, 0xFF, 0xFF, 
  0xFF, 0xFF, 0xFF, 0xFF, 0xFF, 0xFF, 0xFF, 0xFF, 0xFF, 0xFF, 0xFF, 0xFF, 
  0xFF, 0xFF, 0xFF, 0xFF, 0xFF, 0xFF, 0xFF, 0xFF, 0xFF, 0xFF, 0xFF, 0xFF, 
  0xFF, 0xFF, 0xFF, 0xFF, 0xFF, 0xFF, 0xFF, 0xFF, 0xFF, 0xFF, 0xFF, 0xFF, 
  0xFF, 0xFF, 0xFF, 0xFF, 0xFF, 0xFF, 0xFF, 0xFF, 0xFF, 0xFF, 0xFF, 0xFF, 
  0xFF, 0xFF, 0xFF, 0xFF, 0xFF, 0xFF, 0xFF, 0xFF, 0xFF, 0xFF, 0xFF, 0xFF, 
  0xFF, 0xFF, 0xFF, 0xFF, 0xFF, 0xFF, 0xFF, 0xFF, 0xFF, 0xFF, 0xFF, 0xFF, 
  0xFF, 0xFF, 0xFF, 0xFF, 0xFF, 0xFF, 0xFF, 0xFF, 0xFF, 0xFF, 0xFF, 0xFF, 
  0xFF, 0xFF, 0xFF, 0xFF, 0xFF, 0xFF, 0xFF, 0xFF, 0xFF, 0xFF, 0xFF, 0xFF, 
  0xFF, 0xFF, 0xFF, 0xFF, 0xFF, 0xFF, 0xFF, 0xFF, 0xFF, 0xFF, 0xFF, 0xFF, 
  0xFF, 0xFF, 0xFF, 0xFF, 0xFF, 0xFF, 0xFF, 0xFF, 0xFF, 0xFF, 0xFF, 0xFF, 
  0xFF, 0xFF, 0xFF, 0xFF, 0xFF, 0xFF, 0xFF, 0xFF, 0xFF, 0xFF, 0xFF, 0xFF, 
  0xFF, 0xFF, 0xFF, 0xFF, 0xFF, 0xFF, 0xFF, 0xFF, 0xFF, 0xFF, 0xFF, 0xFF, 
  0xFF, 0xFF, 0xFF, 0xFF, 0xFF, 0xFF, 0xFF, 0xFF, 0xFF, 0xFF, 0xFF, 0xFF, 
  0xFF, 0xFF, 0xFF, 0xFF, 0xFF, 0xFF, 0xFF, 0xFF, 0xFF, 0xFF, 0xFF, 0xFF, 
  0xFF, 0xFF, 0xFF, 0xFF, 0xFF, 0xFF, 0xFF, 0xFF, 0xFF, 0xFF, 0xFF, 0xFF, 
  0xFF, 0xFF, 0xFF, 0xFF, 0xFF, 0xFF, 0xFF, 0xFF, 0xFF, 0xFF, 0xFF, 0xFF, 
  0xFF, 0xFF, 0xFF, 0xFF, 0xFF, 0xFF, 0xFF, 0xFF, 0xFF, 0xFF, 0xFF, 0xFF, 
  0xFF, 0xFF, 0xFF, 0xFF, 0xFF, 0xFF, 0xFF, 0xFF, 0xFF, 0xFF, 0xFF, 0xFF, 
  0xFF, 0xFF, 0xFF, 0xFF, 0xFF, 0xFF, 0xFF, 0xFF, 0xFF, 0xFF, 0xFF, 0xFF, 
  0xFF, 0xFF, 0xFF, 0xFF, 0xFF, 0xFF, 0xFF, 0xFF, 0xFF, 0xFF, 0xFF, 0xFF, 
  0xFF, 0xFF, 0xFF, 0xFF, 0xFF, 0xFF, 0xFF, 0xFF, 0xFF, 0xFF, 0xFF, 0xFF, 
  0xFF, 0xFF, 0xFF, 0xFF, 0xFF, 0xFF, 0xFF, 0xFF, 0xFF, 0xFF, 0xFF, 0xFF, 
  0xFF, 0xFF, 0xFF, 0xFF, 0xFF, 0xFF, 0xFF, 0xFF, 0xFF, 0xFF, 0xFF, 0xFF, 
  0xFF, 0xFF, 0xFF, 0xFF, 0xFF, 0xFF, 0xFF, 0xFF, 0xFF, 0xFF, 0xFF, 0xFF, 
  0xFF, 0xFF, 0xFF, 0xFF, 0xFF, 0xFF, 0xFF, 0xFF, 0xFF, 0xFF, 0xFF, 0xFF, 
  0xFF, 0xFF, 0xFF, 0xFF, 0xFF, 0xFF, 0xFF, 0xFF, 0xFF, 0xFF, 0xFF, 0xFF, 
  0xFF, 0xFF, 0xFF, 0xFF, 0xFF, 0xFF, 0xFF, 0xFF, 0xFF, 0xFF, 0xFF, 0xFF, 
  0xFF, 0xFF, 0xFF, 0xFF, 0xFF, 0xFF, 0xFF, 0xFF, 0xFF, 0xFF, 0xFF, 0xFF, 
  0xFF, 0xFF, 0xFF, 0xFF, 0xFF, 0xFF, 0xFF, 0xFF, 0xFF, 0xFF, 0xFF, 0xFF, 
  0xFF, 0xFF, 0xFF, 0xFF, 0xFF, 0xFF, 0xFF, 0xFF, 0xFF, 0xFF, 0xFF, 0xFF, 
  0xFF, 0xFF, 0xFF, 0xFF, 0xFF, 0xFF, 0xFF, 0xFF, 0xFF, 0xFF, 0xFF, 0xFF, 
  0xFF, 0xFF, 0xFF, 0xFF, 0xFF, 0xFF, 0xFF, 0xFF, 0xFF, 0xFF, 0xFF, 0xFF, 
  0xFF, 0xFF, 0xFF, 0xFF, 0xFF, 0xFF, 0xFF, 0xFF, 0xFF, 0xFF, 0xFF, 0xFF, 
  0xFF, 0xFF, 0xFF, 0xFF, 0xFF, 0xFF, 0xFF, 0xFF, 0xFF, 0xFF, 0xFF, 0xFF, 
  0xFF, 0xFF, 0xFF, 0xFF, 0xFF, 0xFF, 0xFF, 0xFF, 0xFF, 0xFF, 0xFF, 0xFF, 
  0xFF, 0xFF, 0xFF, 0xFF, 0xFF, 0xFF, 0xFF, 0xFF, 0xFF, 0xFF, 0xFF, 0xFF, 
  0xFF, 0xFF, 0xFF, 0xFF, 0xFF, 0xFF, 0xFF, 0xFF, 0xFF, 0xFF, 0xFF, 0xFF, 
  0xFF, 0xFF, 0xFF, 0xFF, 0xFF, 0xFF, 0xFF, 0xFF, 0xFF, 0xFF, 0xFF, 0xFF, 
  0xFF, 0xFF, 0xFF, 0xFF, 0xFF, 0xFF, 0xFF, 0xFF, 0xFF, 0xFF, 0xFF, 0xFF, 
  0xFF, 0xFF, 0xFF, 0xFF, 0xFF, 0xFF, 0xFF, 0xFF, 0xFF, 0xFF, 0xFF, 0xFF, 
  0xFF, 0xFF, 0xFF, 0xFF, 0xFF, 0xFF, 0xFF, 0xFF, 0xFF, 0xFF, 0xFF, 0xFF, 
  0xFF, 0xFF, 0xFF, 0xFF, 0xFF, 0xFF, 0xFF, 0xFF, 0xFF, 0xFF, 0xFF, 0xFF, 
  0xFF, 0xFF, 0xFF, 0xFF, 0xFF, 0xFF, 0xFF, 0xFF, 0xFF, 0xFF, 0xFF, 0xFF, 
  0xFF, 0xFF, 0xFF, 0xFF, 0xFF, 0xFF, 0xFF, 0xFF, 0xFF, 0xFF, 0xFF, 0xFF, 
  0xFF, 0xFF, 0xFF, 0xFF, 0xFF, 0xFF, 0xFF, 0xFF, 0xFF, 0xFF, 0xFF, 0xFF, 
  0xFF, 0xFF, 0xFF, 0xFF, 0xFF, 0xFF, 0xFF, 0xFF, 0xFF, 0xFF, 0xFF, 0xFF, 
  0xFF, 0xFF, 0xFF, 0xFF, 0xFF, 0xFF, 0xFF, 0xFF, 0xFF, 0xFF, 0xFF, 0xFF, 
  0xFF, 0xFF, 0xFF, 0xFF, 0xFF, 0xFF, 0xFF, 0xFF, 0xFF, 0xFF, 0xFF, 0xFF, 
  0xFF, 0xFF, 0xFF, 0xFF, 0xFF, 0xFF, 0xFF, 0xFF, 0xFF, 0xFF, 0xFF, 0xFF, 
  0xFF, 0xFF, 0xFF, 0xFF, 0xFF, 0xFF, 0xFF, 0xFF, 0xFF, 0xFF, 0xFF, 0xFF, 
  0xFF, 0xFF, 0xFF, 0xFF, 0xFF, 0xFF, 0xFF, 0xFF, 0xFF, 0xFF, 0xFF, 0xFF, 
  0xFF, 0xFF, 0xFF, 0xFF, 0xFF, 0xFF, 0xFF, 0xFF, 0xFF, 0xFF, 0xFF, 0xFF, 
  0xFF, 0xFF, 0xFF, 0xFF, 0xFF, 0xFF, 0xFF, 0xFF, 0xFF, 0xFF, 0xFF, 0xFF, 
  0xFF, 0xFF, 0xFF, 0xFF, 0xFF, 0xFF, 0xFF, 0xFF, 0xFF, 0xFF, 0xFF, 0xFF, 
  0xFF, 0xFF, 0xFF, 0xFF, 0xFF, 0xFF, 0xFF, 0xFF, 0xFF, 0xFF, 0xFF, 0xFF, 
  0xFF, 0xFF, 0xFF, 0xFF, 0xFF, 0xFF, 0xFF, 0xFF, 0xFF, 0xFF, 0xFF, 0xFF, 
  0xFF, 0xFF, 0xFF, 0xFF, 0xFF, 0xFF, 0xFF, 0xFF, 0xFF, 0xFF, 0xFF, 0xFF, 
  0xFF, 0xFF, 0xFF, 0xFF, 0xFF, 0xFF, 0xFF, 0xFF, 0xFF, 0xFF, 0xFF, 0xFF, 
  0xFF, 0xFF, 0xFF, 0xFF, 0xFF, 0xFF, 0xFF, 0xFF, 0xFF, 0xFF, 0xFF, 0xFF, 
  0xFF, 0xFF, 0xFF, 0xFF, 0xFF, 0xFF, 0xFF, 0xFF, 0xFF, 0xFF, 0xFF, 0xFF, 
  0xFF, 0xFF, 0xFF, 0xFF, 0xFF, 0xFF, 0xFF, 0xFF, 0xFF, 0xFF, 0xFF, 0xFF, 
  0xFF, 0xFF, 0xFF, 0xFF, 0xFF, 0xFF, 0xFF, 0xFF, 0xFF, 0xFF, 0xFF, 0xFF, 
  0xFF, 0xFF, 0xFF, 0xFF, 0xFF, 0xFF, 0xFF, 0xFF, 0xFF, 0xFF, 0xFF, 0xFF, 
  0xFF, 0xFF, 0xFF, 0xFF, 0xFF, 0xFF, 0xFF, 0xFF, 0xFF, 0xFF, 0xFF, 0xFF, 
  0xFF, 0xFF, 0xFF, 0xFF, 0xFF, 0xFF, 0xFF, 0xFF, 0xFF, 0xFF, 0xFF, 0xFF, 
  0xFF, 0xFF, 0xFF, 0xFF, 0xFF, 0xFF, 0xFF, 0xFF, 0xFF, 0xFF, 0xFF, 0xFF, 
  0xFF, 0xFF, 0xFF, 0xFF, 0xFF, 0xFF, 0xFF, 0xFF, 0xFF, 0xFF, 0xFF, 0xFF, 
  0xFF, 0xFF, 0xFF, 0xFF, 0xFF, 0xFF, 0xFF, 0xFF, 0xFF, 0xFF, 0xFF, 0xFF, 
  0xFF, 0xFF, 0xFF, 0xFF, 0xFF, 0xFF, 0xFF, 0xFF, 0xFF, 0xFF, 0xFF, 0xFF, 
  0xFF, 0xFF, 0xFF, 0xFF, 0xFF, 0xFF, 0xFF, 0xFF, 0xFF, 0xFF, 0xFF, 0xFF, 
  0xFF, 0xFF, 0xFF, 0xFF, 0xFF, 0xFF, 0xFF, 0xFF, 0xFF, 0xFF, 0xFF, 0xFF, 
  0xFF, 0xFF, 0xFF, 0xFF, 0xFF, 0xFF, 0xFF, 0xFF, 0xFF, 0xFF, 0xFF, 0xFF, 
  0xFF, 0xFF, 0xFF, 0xFF, 0xFF, 0xFF, 0xFF, 0xFF, 0xFF, 0xFF, 0xFF, 0xFF, 
  0xFF, 0xFF, 0xFF, 0xFF, 0xFF, 0xFF, 0xFF, 0xFF, 0xFF, 0xFF, 0xFF, 0xFF, 
  0xFF, 0xFF, 0xFF, 0xFF, 0xFF, 0xFF, 0xFF, 0xFF, 0xFF, 0xFF, 0xFF, 0xFF, 
  0xFF, 0xFF, 0xFF, 0xFF, 0xFF, 0xFF, 0xFF, 0xFF, 0xFF, 0xFF, 0xFF, 0xFF, 
  0xFF, 0xFF, 0xFF, 0xFF, 0xFF, 0xFF, 0xFF, 0xFF, 0xFF, 0xFF, 0xFF, 0xFF, 
  0xFF, 0xFF, 0xFF, 0xFF, 0xFF, 0xFF, 0xFF, 0xFF, 0xFF, 0xFF, 0xFF, 0xFF, 
  0xFF, 0xFF, 0xFF, 0xFF, 0xFF, 0xFF, 0xFF, 0xFF, 0xFF, 0xFF, 0xFF, 0xFF, 
  0xFF, 0xFF, 0xFF, 0xFF, 0xFF, 0xFF, 0xFF, 0xFF, 0xFF, 0xFF, 0xFF, 0xFF, 
  0xFF, 0xFF, 0xFF, 0xFF, 0xFF, 0xFF, 0xFF, 0xFF, 0xFF, 0xFF, 0xFF, 0xFF, 
  0xFF, 0xFF, 0xFF, 0xFF, 0xFF, 0xFF, 0xFF, 0xFF, 0xFF, 0xFF, 0xFF, 0xFF, 
  0xFF, 0xFF, 0xFF, 0xFF, 0xFF, 0xFF, 0xFF, 0xFF, 0xFF, 0xFF, 0xFF, 0xFF, 
  0xFF, 0xFF, 0xFF, 0xFF, 0xFF, 0xFF, 0xFF, 0xFF, 0xFF, 0xFF, 0xFF, 0xFF, 
  0xFF, 0xFF, 0xFF, 0xFF, 0xFF, 0xFF, 0xFF, 0xFF, 0xFF, 0xFF, 0xFF, 0xFF, 
  0xFF, 0xFF, 0xFF, 0xFF, 0xFF, 0xFF, 0xFF, 0xFF, 0xFF, 0xFF, 0xFF, 0xFF, 
  0xFF, 0xFF, 0xFF, 0xFF, 0xFF, 0xFF, 0xFF, 0xFF, 0xFF, 0xFF, 0xFF, 0xFF, 
  0xFF, 0xFF, 0xFF, 0xFF, 0xFF, 0xFF, 0xFF, 0xFF, 0xFF, 0xFF, 0xFF, 0xFF, 
  0xFF, 0xFF, 0xFF, 0xFF, 0xFF, 0xFF, 0xFF, 0xFF, 0xFF, 0xFF, 0xFF, 0xFF, 
  0xFF, 0xFF, 0xFF, 0xFF, 0xFF, 0xFF, 0xFF, 0xFF, 0xFF, 0xFF, 0xFF, 0xFF, 
  0xFF, 0xFF, 0xFF, 0xFF, 0xFF, 0xFF, 0xFF, 0xFF, 0xFF, 0xFF, 0xFF, 0xFF, 
  0xFF, 0xFF, 0xFF, 0xFF, 0xFF, 0xFF, 0xFF, 0xFF, 0xFF, 0xFF, 0xFF, 0xFF, 
  0xFF, 0xFF, 0xFF, 0xFF, 0xFF, 0xFF, 0xFF, 0xFF, 0xFF, 0xFF, 0xFF, 0xFF, 
  0xFF, 0xFF, 0xFF, 0xFF, 0xFF, 0xFF, 0xFF, 0xFF, 0xFF, 0xFF, 0xFF, 0xFF, 
  0xFF, 0xFF, 0xFF, 0xFF, 0xFF, 0xFF, 0xFF, 0xFF, 0xFF, 0xFF, 0xFF, 0xFF, 
  0xFF, 0xFF, 0xFF, 0xFF, 0xFF, 0xFF, 0xFF, 0xFF, 0xFF, 0xFF, 0xFF, 0xFF, 
  0xFF, 0xFF, 0xFF, 0xFF, 0xFF, 0xFF, 0xFF, 0xFF, 0xFF, 0xFF, 0xFF, 0xFF, 
  0xFF, 0xFF, 0xFF, 0xFF, 0xFF, 0xFF, 0xFF, 0xFF, 0xFF, 0xFF, 0xFF, 0xFF, 
  0xFF, 0xFF, 0xFF, 0xFF, 0xFF, 0xFF, 0xFF, 0xFF, 0xFF, 0xFF, 0xFF, 0xFF, 
  0xFF, 0xFF, 0xFF, 0xFF, 0xFF, 0xFF, 0xFF, 0xFF, 0xFF, 0xFF, 0xFF, 0xFF, 
  0xFF, 0xFF, 0xFF, 0xFF, 0xFF, 0xFF, 0xFF, 0xFF, 0xFF, 0xFF, 0xFF, 0xFF, 
  0xFF, 0xFF, 0xFF, 0xFF, 0xFF, 0xFF, 0xFF, 0xFF, 0xFF, 0xFF, 0xFF, 0xFF, 
  0xFF, 0xFF, 0xFF, 0xFF, 0xFF, 0xFF, 0xFF, 0xFF, 0xFF, 0xFF, 0xFF, 0xFF, 
  0xFF, 0xFF, 0xFF, 0xFF, 0xFF, 0xFF, 0xFF, 0xFF, 0xFF, 0xFF, 0xFF, 0xFF, 
  0xFF, 0xFF, 0xFF, 0xFF, 0xFF, 0xFF, 0xFF, 0xFF, 0xFF, 0xFF, 0xFF, 0xFF, 
  0xFF, 0xFF, 0xFF, 0xFF, 0xFF, 0xFF, 0xFF, 0xFF, 0xFF, 0xFF, 0xFF, 0xFF, 
  0xFF, 0xFF, 0xFF, 0xFF, 0xFF, 0xFF, 0xFF, 0xFF, 0xFF, 0xFF, 0xFF, 0xFF, 
  0xFF, 0xFF, 0xFF, 0xFF, 0xFF, 0xFF, 0xFF, 0xFF, 0xFF, 0xFF, 0xFF, 0xFF, 
  0xFF, 0xFF, 0xFF, 0xFF, 0xFF, 0xFF, 0xFF, 0xFF, 0xFF, 0xFF, 0xFF, 0xFF, 
  0xFF, 0xFF, 0xFF, 0xFF, 0xFF, 0xFF, 0xFF, 0xFF, 0xFF, 0xFF, 0xFF, 0xFF, 
  0xFF, 0xFF, 0xFF, 0xFF, 0xFF, 0xFF, 0xFF, 0xFF, 0xFF, 0xFF, 0xFF, 0xFF, 
  0xFF, 0xFF, 0xFF, 0xFF, 0xFF, 0xFF, 0xFF, 0xFF, 0xFF, 0xFF, 0xFF, 0xFF, 
  0xFF, 0xFF, 0xFF, 0xFF, 0xFF, 0xFF, 0xFF, 0xFF, 0xFF, 0xFF, 0xFF, 0xFF, 
  0xFF, 0xFF, 0xFF, 0xFF, 0xFF, 0xFF, 0xFF, 0xFF, 0xFF, 0xFF, 0xFF, 0xFF, 
  0xFF, 0xFF, 0xFF, 0xFF, 0xFF, 0xFF, 0xFF, 0xFF, 0xFF, 0xFF, 0xFF, 0xFF, 
  0xFF, 0xFF, 0xFF, 0xFF, 0xFF, 0xFF, 0xFF, 0xFF, 0xFF, 0xFF, 0xFF, 0xFF, 
  0xFF, 0xFF, 0xFF, 0xFF, 0xFF, 0xFF, 0xFF, 0xFF, 0xFF, 0xFF, 0xFF, 0xFF, 
  0xFF, 0xFF, 0xFF, 0xFF, 0xFF, 0xFF, 0xFF, 0xFF, 0xFF, 0xFF, 0xFF, 0xFF, 
  0xFF, 0xFF, 0xFF, 0xFF, 0xFF, 0xFF, 0xFF, 0xFF, 0xFF, 0xFF, 0xFF, 0xFF, 
  0xFF, 0xFF, 0xFF, 0xFF, 0xFF, 0xFF, 0xFF, 0xFF, 0xFF, 0xFF, 0xFF, 0xFF, 
  0xFF, 0xFF, 0xFF, 0xFF, 0xFF, 0xFF, 0xFF, 0xFF, 0xFF, 0xFF, 0xFF, 0xFF, 
  0xFF, 0xFF, 0xFF, 0xFF, 0xFF, 0xFF, 0xFF, 0xFF, 0xFF, 0xFF, 0xFF, 0xFF, 
  0xFF, 0xFF, 0xFF, 0xFF, 0xFF, 0xFF, 0xFF, 0xFF, 0xFF, 0xFF, 0xFF, 0xFF, 
  0xFF, 0xFF, 0xFF, 0xFF, 0xFF, 0xFF, 0xFF, 0xFF, 0xFF, 0xFF, 0xFF, 0xFF, 
  0xFF, 0xFF, 0xFF, 0xFF, 0xFF, 0xFF, 0xFF, 0xFF, 0xFF, 0xFF, 0xFF, 0xFF, 
  0xFF, 0xFF, 0xFF, 0xFF, 0xFF, 0xFF, 0xFF, 0xFF, 0xFF, 0xFF, 0xFF, 0xFF, 
  0xFF, 0xFF, 0xFF, 0xFF, 0xFF, 0xFF, 0xFF, 0xFF, 0xFF, 0xFF, 0xFF, 0xFF, 
  0xFF, 0xFF, 0xFF, 0xFF, 0xFF, 0xFF, 0xFF, 0xFF, 0xFF, 0xFF, 0xFF, 0xFF, 
  0xFF, 0xFF, 0xFF, 0xFF, 0xFF, 0xFF, 0xFF, 0xFF, 0xFF, 0xFF, 0xFF, 0xFF, 
  0xFF, 0xFF, 0xFF, 0xFF, 0xFF, 0xFF, 0xFF, 0xFF, 0xFF, 0xFF, 0xFF, 0xFF, 
  0xFF, 0xFF, 0xFF, 0xFF, 0xFF, 0xFF, 0xFF, 0xFF, 0xFF, 0xFF, 0xFF, 0xFF, 
  0xFF, 0xFF, 0xFF, 0xFF, 0xFF, 0xFF, 0xFF, 0xFF, 0xFF, 0xFF, 0xFF, 0xFF, 
  0xFF, 0xFF, 0xFF, 0xFF, 0xFF, 0xFF, 0xFF, 0xFF, 0xFF, 0xFF, 0xFF, 0xFF, 
  0xFF, 0xFF, 0xFF, 0xFF, 0xFF, 0xFF, 0xFF, 0xFF, 0xFF, 0xFF, 0xFF, 0xFF, 
  0xFF, 0xFF, 0xFF, 0xFF, 0xFF, 0xFF, 0xFF, 0xFF, 0xFF, 0xFF, 0xFF, 0xFF, 
  0xFF, 0xFF, 0xFF, 0xFF, 0xFF, 0xFF, 0xFF, 0xFF, 0xFF, 0xFF, 0xFF, 0xFF, 
  0xFF, 0xFF, 0xFF, 0xFF, 0xFF, 0xFF, 0xFF, 0xFF, 0xFF, 0xFF, 0xFF, 0xFF, 
  0xFF, 0xFF, 0xFF, 0xFF, 0xFF, 0xFF, 0xFF, 0xFF, 0xFF, 0xFF, 0xFF, 0xFF, 
  0xFF, 0xFF, 0xFF, 0xFF, 0xFF, 0xFF, 0xFF, 0xFF, 0xFF, 0xFF, 0xFF, 0xFF, 
  0xFF, 0xFF, 0xFF, 0xFF, 0xFF, 0xFF, 0xFF, 0xFF, 0xFF, 0xFF, 0xFF, 0xFF, 
  0xFF, 0xFF, 0xFF, 0xFF, 0xFF, 0xFF, 0xFF, 0xFF, 0xFF, 0xFF, 0xFF, 0xFF, 
  0xFF, 0xFF, 0xFF, 0xFF, 0xFF, 0xFF, 0xFF, 0xFF, 0xFF, 0xFF, 0xFF, 0xFF, 
  0xFF, 0xFF, 0xFF, 0xFF, 0xFF, 0xFF, 0xFF, 0xFF, 0xFF, 0xFF, 0xFF, 0xFF, 
  0xFF, 0xFF, 0xFF, 0xFF, 0xFF, 0xFF, 0xFF, 0xFF, 0xFF, 0xFF, 0xFF, 0xFF, 
  0xFF, 0xFF, 0xFF, 0xFF, 0xFF, 0xFF, 0xFF, 0xFF, 0xFF, 0xFF, 0xFF, 0xFF, 
  0xFF, 0xFF, 0xFF, 0xFF, 0xFF, 0xFF, 0xFF, 0xFF, 0xFF, 0xFF, 0xFF, 0xFF, 
  0xFF, 0xFF, 0xFF, 0xFF, 0xFF, 0xFF, 0xFF, 0xFF, 0xFF, 0xFF, 0xFF, 0xFF, 
  0xFF, 0xFF, 0xFF, 0xFF, 0xFF, 0xFF, 0xFF, 0xFF, 0xFF, 0xFF, 0xFF, 0xFF, 
  0xFF, 0xFF, 0xFF, 0xFF, 0xFF, 0xFF, 0xFF, 0xFF, 0xFF, 0xFF, 0xFF, 0xFF, 
  0xFF, 0xFF, 0xFF, 0xFF, 0xFF, 0xFF, 0xFF, 0xFF, 0xFF, 0xFF, 0xFF, 0xFF, 
  0xFF, 0xFF, 0xFF, 0xFF, 0xFF, 0xFF, 0xFF, 0xFF, 0xFF, 0xFF, 0xFF, 0xFF, 
  0xFF, 0xFF, 0xFF, 0xFF, 0xFF, 0xFF, 0xFF, 0xFF, 0xFF, 0xFF, 0xFF, 0xFF, 
  0xFF, 0xFF, 0xFF, 0xFF, 0xFF, 0xFF, 0xFF, 0xFF, 0xFF, 0xFF, 0xFF, 0xFF, 
  0xFF, 0xFF, 0xFF, 0xFF, 0xFF, 0xFF, 0xFF, 0xFF, 0xFF, 0xFF, 0xFF, 0xFF, 
  0xFF, 0xFF, 0xFF, 0xFF, 0xFF, 0xFF, 0xFF, 0xFF, 0xFF, 0xFF, 0xFF, 0xFF, 
  0xFF, 0xFF, 0xFF, 0xFF, 0xFF, 0xFF, 0xFF, 0xFF, 0xFF, 0xFF, 0xFF, 0xFF, 
  0xFF, 0xFF, 0xFF, 0xFF, 0xFF, 0xFF, 0xFF, 0xFF, 0xFF, 0xFF, 0xFF, 0xFF, 
  0xFF, 0xFF, 0xFF, 0xFF, 0xFF, 0xFF, 0xFF, 0xFF, 0xFF, 0xFF, 0xFF, 0xFF, 
  0xFF, 0xFF, 0xFF, 0xFF, 0xFF, 0xFF, 0xFF, 0xFF, 0xFF, 0xFF, 0xFF, 0xFF, 
  0xFF, 0xFF, 0xFF, 0xFF, 0xFF, 0xFF, 0xFF, 0xFF, 0xFF, 0xFF, 0xFF, 0xFF, 
  0xFF, 0xFF, 0xFF, 0xFF, 0xFF, 0xFF, 0xFF, 0xFF, 0xFF, 0xFF, 0xFF, 0xFF, 
  0xFF, 0xFF, 0xFF, 0xFF, 0xFF, 0xFF, 0xFF, 0xFF, 0xFF, 0xFF, 0xFF, 0xFF, 
  0xFF, 0xFF, 0xFF, 0xFF, 0xFF, 0xFF, 0xFF, 0xFF, 0xFF, 0xFF, 0xFF, 0xFF, 
  0xFF, 0xFF, 0xFF, 0xFF, 0xFF, 0xFF, 0xFF, 0xFF, 0xFF, 0xFF, 0xFF, 0xFF, 
  0xFF, 0xFF, 0xFF, 0xFF, 0xFF, 0xFF, 0xFF, 0xFF, 0xFF, 0xFF, 0xFF, 0xFF, 
  0xFF, 0xFF, 0xFF, 0xFF, 0xFF, 0xFF, 0xFF, 0xFF, 0xFF, 0xFF, 0xFF, 0xFF, 
  0xFF, 0xFF, 0xFF, 0xFF, 0xFF, 0xFF, 0xFF, 0xFF, 0xFF, 0xFF, 0xFF, 0xFF, 
  0xFF, 0xFF, 0xFF, 0xFF, 0xFF, 0xFF, 0xFF, 0xFF, 0xFF, 0xFF, 0xFF, 0xFF, 
  0xFF, 0xFF, 0xFF, 0xFF, 0xFF, 0xFF, 0xFF, 0xFF, 0xFF, 0xFF, 0xFF, 0xFF, 
  0xFF, 0xFF, 0xFF, 0xFF, 0xFF, 0xFF, 0xFF, 0xFF, 0xFF, 0xFF, 0xFF, 0xFF, 
  0xFF, 0xFF, 0xFF, 0xFF, 0xFF, 0xFF, 0xFF, 0xFF, 0xFF, 0xFF, 0xFF, 0xFF, 
  0xFF, 0xFF, 0xFF, 0xFF, 0xFF, 0xFF, 0xFF, 0xFF, 0xFF, 0xFF, 0xFF, 0xFF, 
  0xFF, 0xFF, 0xFF, 0xFF, 0xFF, 0xFF, 0xFF, 0xFF, 0xFF, 0xFF, 0xFF, 0xFF, 
  0xFF, 0xFF, 0xFF, 0xFF, 0xFF, 0xFF, 0xFF, 0xFF, 0xFF, 0xFF, 0xFF, 0xFF, 
  0xFF, 0xFF, 0xFF, 0xFF, 0xFF, 0xFF, 0xFF, 0xFF, 0xFF, 0xFF, 0xFF, 0xFF, 
  0xFF, 0xFF, 0xFF, 0xFF, 0xFF, 0xFF, 0xFF, 0xFF, 0xFF, 0xFF, 0xFF, 0xFF, 
  0xFF, 0xFF, 0xFF, 0xFF, 0xFF, 0xFF, 0xFF, 0xFF, 0xFF, 0xFF, 0xFF, 0xFF, 
  0xFF, 0xFF, 0xFF, 0xFF, 0xFF, 0xFF, 0xFF, 0xFF, 0xFF, 0xFF, 0xFF, 0xFF, 
  0xFF, 0xFF, 0xFF, 0xFF, 0xFF, 0xFF, 0xFF, 0xFF, 0xFF, 0xFF, 0xFF, 0xFF, 
  0xFF, 0xFF, 0xFF, 0xFF, 0xFF, 0xFF, 0xFF, 0xFF, 0xFF, 0xFF, 0xFF, 0xFF, 
  0xFF, 0xFF, 0xFF, 0xFF, 0xFF, 0xFF, 0xFF, 0xFF, 0xFF, 0xFF, 0xFF, 0xFF, 
  0xFF, 0xFF, 0xFF, 0xFF, 0xFF, 0xFF, 0xFF, 0xFF, 0xFF, 0xFF, 0xFF, 0xFF, 
  0xFF, 0xFF, 0xFF, 0xFF, 0xFF, 0xFF, 0xFF, 0xFF, 0xFF, 0xFF, 0xFF, 0xFF, 
  0xFF, 0xFF, 0xFF, 0xFF, 0xFF, 0xFF, 0xFF, 0xFF, 0xFF, 0xFF, 0xFF, 0xFF, 
  0xFF, 0xFF, 0xFF, 0xFF, 0xFF, 0xFF, 0xFF, 0xFF, 0xFF, 0xFF, 0xFF, 0xFF, 
  0xFF, 0xFF, 0xFF, 0xFF, 0xFF, 0xFF, 0xFF, 0xFF, 0xFF, 0xFF, 0xFF, 0xFF, 
  0xFF, 0xFF, 0xFF, 0xFF, 0xFF, 0xFF, 0xFF, 0xFF, 0xFF, 0xFF, 0xFF, 0xFF, 
  0xFF, 0xFF, 0xFF, 0xFF, 0xFF, 0xFF, 0xFF, 0xFF, 0xFF, 0xFF, 0xFF, 0xFF, 
  0xFF, 0xFF, 0xFF, 0xFF, 0xFF, 0xFF, 0xFF, 0xFF, 0xFF, 0xFF, 0xFF, 0xFF, 
  0xFF, 0xFF, 0xFF, 0xFF, 0xFF, 0xFF, 0xFF, 0xFF, 0xFF, 0xFF, 0xFF, 0xFF, 
  0xFF, 0xFF, 0xFF, 0xFF, 0xFF, 0xFF, 0xFF, 0xFF, 0xFF, 0xFF, 0xFF, 0xFF, 
  0xFF, 0xFF, 0xFF, 0xFF, 0xFF, 0xFF, 0xFF, 0xFF, 0xFF, 0xFF, 0xFF, 0xFF, 
  0xFF, 0xFF, 0xFF, 0xFF, 0xFF, 0xFF, 0xFF, 0xFF, 0xFF, 0xFF, 0xFF, 0xFF, 
  0xFF, 0xFF, 0xFF, 0xFF, 0xFF, 0xFF, 0xFF, 0xFF, 0xFF, 0xFF, 0xFF, 0xFF, 
  0xFF, 0xFF, 0xFF, 0xFF, 0xFF, 0xFF, 0xFF, 0xFF, 0xFF, 0xFF, 0xFF, 0xFF, 
  0xFF, 0xFF, 0xFF, 0xFF, 0xFF, 0xFF, 0xFF, 0xFF, 0xFF, 0xFF, 0xFF, 0xFF, 
  0xFF, 0xFF, 0xFF, 0xFF, 0xFF, 0xFF, 0xFF, 0xFF, 0xFF, 0xFF, 0xFF, 0xFF, 
  0xFF, 0xFF, 0xFF, 0xFF, 0xFF, 0xFF, 0xFF, 0xFF, 0xFF, 0xFF, 0xFF, 0xFF, 
  0xFF, 0xFF, 0xFF, 0xFF, 0xFF, 0xFF, 0xFF, 0xFF, 0xFF, 0xFF, 0xFF, 0xFF, 
  0xFF, 0xFF, 0xFF, 0xFF, 0xFF, 0xFF, 0xFF, 0xFF, 0xFF, 0xFF, 0xFF, 0xFF, 
  0xFF, 0xFF, 0xFF, 0xFF, 0xFF, 0xFF, 0xFF, 0xFF, 0xFF, 0xFF, 0xFF, 0xFF, 
  0xFF, 0xFF, 0xFF, 0xFF, 0xFF, 0xFF, 0xFF, 0xFF, 0xFF, 0xFF, 0xFF, 0xFF, 
  0xFF, 0xFF, 0xFF, 0xFF, 0xFF, 0xFF, 0xFF, 0xFF, 0xFF, 0xFF, 0xFF, 0xFF, 
  0xFF, 0xFF, 0xFF, 0xFF, 0xFF, 0xFF, 0xFF, 0xFF, 0xFF, 0xFF, 0xFF, 0xFF, 
  0xFF, 0xFF, 0xFF, 0xFF, 0xFF, 0xFF, 0xFF, 0xFF, 0xFF, 0xFF, 0xFF, 0xFF, 
  0xFF, 0xFF, 0xFF, 0xFF, 0xFF, 0xFF, 0xFF, 0xFF, 0xFF, 0xFF, 0xFF, 0xFF, 
  0xFF, 0xFF, 0xFF, 0xFF, 0xFF, 0xFF, 0xFF, 0xFF, 0xFF, 0xFF, 0xFF, 0xFF, 
  0xFF, 0xFF, 0xFF, 0xFF, 0xFF, 0xFF, 0xFF, 0xFF, 0xFF, 0xFF, 0xFF, 0xFF, 
  0xFF, 0xFF, 0xFF, 0xFF, 0xFF, 0xFF, 0xFF, 0xFF, 0xFF, 0xFF, 0xFF, 0xFF, 
  0xFF, 0xFF, 0xFF, 0xFF, 0xFF, 0xFF, 0xFF, 0xFF, 0xFF, 0xFF, 0xFF, 0xFF, 
  0xFF, 0xFF, 0xFF, 0xFF, 0xFF, 0xFF, 0xFF, 0xFF, 0xFF, 0xFF, 0xFF, 0xFF, 
  0xFF, 0xFF, 0xFF, 0xFF, 0xFF, 0xFF, 0xFF, 0xFF, 0xFF, 0xFF, 0xFF, 0xFF, 
  0xFF, 0xFF, 0xFF, 0xFF, 0xFF, 0xFF, 0xFF, 0xFF, 0xFF, 0xFF, 0xFF, 0xFF, 
  0xFF, 0xFF, 0xFF, 0xFF, 0xFF, 0xFF, 0xFF, 0xFF, 0xFF, 0xFF, 0xFF, 0xFF, 
  0xFF, 0xFF, 0xFF, 0xFF, 0xFF, 0xFF, 0xFF, 0xFF, 0xFF, 0xFF, 0xFF, 0xFF, 
  0xFF, 0xFF, 0xFF, 0xFF, 0xFF, 0xFF, 0xFF, 0xFF, 0xFF, 0xFF, 0xFF, 0xFF, 
  0xFF, 0xFF, 0xFF, 0xFF, 0xFF, 0xFF, 0xFF, 0xFF, 0xFF, 0xFF, 0xFF, 0xFF, 
  0xFF, 0xFF, 0xFF, 0xFF, 0xFF, 0xFF, 0xFF, 0xFF, 0xFF, 0xFF, 0xFF, 0xFF, 
  0xFF, 0xFF, 0xFF, 0xFF, 0xFF, 0xFF, 0xFF, 0xFF, 0xFF, 0xFF, 0xFF, 0xFF, 
  0xFF, 0xFF, 0xFF, 0xFF, 0xFF, 0xFF, 0xFF, 0xFF, 0xFF, 0xFF, 0xFF, 0xFF, 
  0xFF, 0xFF, 0xFF, 0xFF, 0xFF, 0xFF, 0xFF, 0xFF, 0xFF, 0xFF, 0xFF, 0xFF, 
  0xFF, 0xFF, 0xFF, 0xFF, 0xFF, 0xFF, 0xFF, 0xFF, 0xFF, 0xFF, 0xFF, 0xFF, 
  0xFF, 0xFF, 0xFF, 0xFF, 0xFF, 0xFF, 0xFF, 0xFF, 0xFF, 0xFF, 0xFF, 0xFF, 
  0xFF, 0xFF, 0xFF, 0xFF, 0xFF, 0xFF, 0xFF, 0xFF, 0xFF, 0xFF, 0xFF, 0xFF, 
  0xFF, 0xFF, 0xFF, 0xFF, 0xFF, 0xFF, 0xFF, 0xFF, 0xFF, 0xFF, 0xFF, 0xFF, 
  0xFF, 0xFF, 0xFF, 0xFF, 0xFF, 0xFF, 0xFF, 0xFF, 0xFF, 0xFF, 0xFF, 0xFF, 
  0xFF, 0xFF, 0xFF, 0xFF, 0xFF, 0xFF, 0xFF, 0xFF, 0xFF, 0xFF, 0xFF, 0xFF, 
  0xFF, 0xFF, 0xFF, 0xFF, 0xFF, 0xFF, 0xFF, 0xFF, 0xFF, 0xFF, 0xFF, 0xFF, 
  0xFF, 0xFF, 0xFF, 0xFF, 0xFF, 0xFF, 0xFF, 0xFF, 0xFF, 0xFF, 0xFF, 0xFF, 
  0xFF, 0xFF, 0xFF, 0xFF, 0xFF, 0xFF, 0xFF, 0xFF, 0xFF, 0xFF, 0xFF, 0xFF, 
  0xFF, 0xFF, 0xFF, 0xFF, 0xFF, 0xFF, 0xFF, 0xFF, 0xFF, 0xFF, 0xFF, 0xFF, 
  0xFF, 0xFF, 0xFF, 0xFF, 0xFF, 0xFF, 0xFF, 0xFF, 0xFF, 0xFF, 0xFF, 0xFF, 
  0xFF, 0xFF, 0xFF, 0xFF, 0xFF, 0xFF, 0xFF, 0xFF, 0xFF, 0xFF, 0xFF, 0xFF, 
  0xFF, 0xFF, 0xFF, 0xFF, 0xFF, 0xFF, 0xFF, 0xFF, 0xFF, 0xFF, 0xFF, 0xFF, 
  0xFF, 0xFF, 0xFF, 0xFF, 0xFF, 0xFF, 0xFF, 0xFF, 0xFF, 0xFF, 0xFF, 0xFF, 
  0xFF, 0xFF, 0xFF, 0xFF, 0xFF, 0xFF, 0xFF, 0xFF, 0xFF, 0xFF, 0xFF, 0xFF, 
  0xFF, 0xFF, 0xFF, 0xFF, 0xFF, 0xFF, 0xFF, 0xFF, 0xFF, 0xFF, 0xFF, 0xFF, 
  0xFF, 0xFF, 0xFF, 0xFF, 0xFF, 0xFF, 0xFF, 0xFF, 0xFF, 0xFF, 0xFF, 0xFF, 
  0xFF, 0xFF, 0xFF, 0xFF, 0xFF, 0xFF, 0xFF, 0xFF, 0xFF, 0xFF, 0xFF, 0xFF, 
  0xFF, 0xFF, 0xFF, 0xFF, 0xFF, 0xFF, 0xFF, 0xFF, 0xFF, 0xFF, 0xFF, 0xFF, 
  0xFF, 0xFF, 0xFF, 0xFF, 0xFF, 0xFF, 0xFF, 0xFF, 0xFF, 0xFF, 0xFF, 0xFF, 
  0xFF, 0xFF, 0xFF, 0xFF, 0xFF, 0xFF, 0xFF, 0xFF, 0xFF, 0xFF, 0xFF, 0xFF, 
  0xFF, 0xFF, 0xFF, 0xFF, 0xFF, 0xFF, 0xFF, 0xFF, 0xFF, 0xFF, 0xFF, 0xFF, 
  0xFF, 0xFF, 0xFF, 0xFF, 0xFF, 0xFF, 0xFF, 0xFF, 0xFF, 0xFF, 0xFF, 0xFF, 
  0xFF, 0xFF, 0xFF, 0xFF, 0xFF, 0xFF, 0xFF, 0xFF, 0xFF, 0xFF, 0xFF, 0xFF, 
  0xFF, 0xFF, 0xFF, 0xFF, 0xFF, 0xFF, 0xFF, 0xFF, 0xFF, 0xFF, 0xFF, 0xFF, 
  0xC3, 0xFF, 0xFF, 0xFF, 0xC3, 0xFF, 0xFF, 0xFF, 0xC1, 0xFF, 0xFF, 0xFF, 
  0xC1, 0xFF, 0xFF, 0xFF, 0xC1, 0xFF, 0xFF, 0xFF, 0xC1, 0xFF, 0xFF, 0xFF, 
  0xC1, 0xFF, 0xFF, 0xFF, 0xC1, 0xFF, 0xFF, 0xFF, 0xC1, 0xFF, 0xFF, 0xFF, 
  0xC1, 0xFF, 0xFF, 0xFF, 0xC1, 0xFF, 0xFF, 0xFF, 0xC1, 0xFF, 0xFF, 0xFF, 
  0xC1, 0xFF, 0xFF, 0xFF, 0xC3, 0xFF, 0xFF, 0xFF, 0xE7, 0xFF, 0xFF, 0xFF, 
  0xFF, 0xFF, 0xFF, 0xFF, 0xC3, 0xFF, 0xFF, 0xFF, 0xC1, 0xFF, 0xFF, 0xFF, 
  0x81, 0xFF, 0xFF, 0xFF, 0xC1, 0xFF, 0xFF, 0xFF, 0xE3, 0xFF, 0xFF, 0xFF, 
  0xFF, 0xFF, 0xFF, 0xFF, 0xFF, 0xFF, 0xFF, 0xFF, 0xFF, 0xFF, 0xFF, 0xFF, 
  0xFF, 0xFF, 0xFF, 0xFF, 0xFF, 0xFF, 0xFF, 0xFF, 0xFF, 0xFF, 0xFF, 0xFF, 
  0xFF, 0xFF, 0xFF, 0xFF, 0xFF, 0xFF, 0xFF, 0xFF, 0xFF, 0xFF, 0xFF, 0xFF, 
  0xFF, 0xFF, 0xFF, 0xFF, 0xFF, 0xFF, 0xFF, 0xFF, 0x11, 0xFF, 0xFF, 0xFF, 
  0x11, 0xFF, 0xFF, 0xFF, 0x11, 0xFF, 0xFF, 0xFF, 0x11, 0xFF, 0xFF, 0xFF, 
  0x11, 0xFF, 0xFF, 0xFF, 0x11, 0xFF, 0xFF, 0xFF, 0x99, 0xFF, 0xFF, 0xFF, 
  0xFF, 0xFF, 0xFF, 0xFF, 0xFF, 0xFF, 0xFF, 0xFF, 0xFF, 0xFF, 0xFF, 0xFF, 
  0xFF, 0xFF, 0xFF, 0xFF, 0xFF, 0xFF, 0xFF, 0xFF, 0xFF, 0xFF, 0xFF, 0xFF, 
  0xFF, 0xFF, 0xFF, 0xFF, 0xFF, 0xFF, 0xFF, 0xFF, 0xFF, 0xFF, 0xFF, 0xFF, 
  0xFF, 0xFF, 0xFF, 0xFF, 0xFF, 0xFF, 0xFF, 0xFF, 0xFF, 0xFF, 0xFF, 0xFF, 
  0xFF, 0xFF, 0xFF, 0xFF, 0xFF, 0xFF, 0xFF, 0xFF, 0xFF, 0xFF, 0xFF, 0xFF, 
  0xFF, 0xFF, 0xFF, 0xFF, 0xFF, 0xFF, 0xFF, 0xFF, 0xFF, 0xFF, 0xFF, 0xFF, 
  0xFF, 0xFF, 0xFF, 0xFF, 0xFF, 0xFF, 0xFF, 0xFF, 0xFF, 0xFF, 0xFF, 0xFF, 
  0xFF, 0xFF, 0xFF, 0xFF, 0xFF, 0xFF, 0xFF, 0xFF, 0xFF, 0xFF, 0xFF, 0xFF, 
  0xFF, 0xFF, 0xFF, 0xFF, 0x3F, 0x1E, 0xFF, 0xFF, 0x1F, 0x0C, 0xFE, 0xFF, 
  0x1F, 0x0C, 0xFE, 0xFF, 0x1F, 0x0C, 0xFE, 0xFF, 0x0F, 0x04, 0xFE, 0xFF, 
  0x01, 0x00, 0xF8, 0xFF, 0x01, 0x00, 0xF8, 0xFF, 0x01, 0x00, 0xF8, 0xFF, 
  0x03, 0x00, 0xFC, 0xFF, 0x0F, 0x06, 0xFF, 0xFF, 0x0F, 0x06, 0xFF, 0xFF, 
  0x07, 0x04, 0xF8, 0xFF, 0x01, 0x00, 0xF8, 0xFF, 0x01, 0x00, 0xF8, 0xFF, 
  0x01, 0x00, 0xF8, 0xFF, 0x0F, 0x06, 0xFF, 0xFF, 0x0F, 0x06, 0xFF, 0xFF, 
  0x0F, 0x06, 0xFF, 0xFF, 0x0F, 0x06, 0xFF, 0xFF, 0x0F, 0x87, 0xFF, 0xFF, 
  0xFF, 0xFF, 0xFF, 0xFF, 0xFF, 0xFF, 0xFF, 0xFF, 0xFF, 0xFF, 0xFF, 0xFF, 
  0xFF, 0xFF, 0xFF, 0xFF, 0xFF, 0xFF, 0xFF, 0xFF, 0xFF, 0xFF, 0xFF, 0xFF, 
  0xFF, 0xFF, 0xFF, 0xFF, 0xFF, 0xFF, 0xFF, 0xFF, 0xFF, 0xFF, 0xFF, 0xFF, 
  0xFF, 0xFF, 0xFF, 0xFF, 0x7F, 0xFC, 0xFF, 0xFF, 0x7F, 0xFC, 0xFF, 0xFF, 
  0x3F, 0xF8, 0xFF, 0xFF, 0x1F, 0xC0, 0xFF, 0xFF, 0x07, 0x80, 0xFF, 0xFF, 
  0x03, 0x80, 0xFF, 0xFF, 0x01, 0x80, 0xFF, 0xFF, 0x01, 0xC0, 0xFF, 0xFF, 
  0x01, 0xE7, 0xFF, 0xFF, 0x81, 0xFF, 0xFF, 0xFF, 0x01, 0xFE, 0xFF, 0xFF, 
  0x01, 0xE0, 0xFF, 0xFF, 0x03, 0xC0, 0xFF, 0xFF, 0x0F, 0x80, 0xFF, 0xFF, 
  0x7F, 0x80, 0xFF, 0xFF, 0xFF, 0x01, 0xFF, 0xFF, 0x81, 0x00, 0xFF, 0xFF, 
  0x01, 0x00, 0xFF, 0xFF, 0x01, 0x80, 0xFF, 0xFF, 0x01, 0x80, 0xFF, 0xFF, 
  0x03, 0xC0, 0xFF, 0xFF, 0x03, 0xE0, 0xFF, 0xFF, 0x0F, 0xFC, 0xFF, 0xFF, 
  0x7F, 0xFC, 0xFF, 0xFF, 0x7F, 0xFC, 0xFF, 0xFF, 0xFF, 0xFE, 0xFF, 0xFF, 
  0xFF, 0xFF, 0xFF, 0xFF, 0xFF, 0xFF, 0xFF, 0xFF, 0xFF, 0xFF, 0xFF, 0xFF, 
  0xFF, 0xFF, 0xFF, 0xFF, 0xFF, 0xFF, 0xFF, 0xFF, 0xFF, 0xFF, 0xFF, 0xFF, 
  0xFF, 0xFF, 0xFF, 0xFF, 0xFF, 0xFF, 0xFF, 0xFF, 0x87, 0x9F, 0xFF, 0xFF, 
  0x03, 0x0F, 0xFF, 0xFF, 0x01, 0x8E, 0xFF, 0xFF, 0x01, 0x86, 0xFF, 0xFF, 
  0x31, 0xC6, 0xFF, 0xFF, 0x01, 0xC2, 0xFF, 0xFF, 0x01, 0xC0, 0xFF, 0xFF, 
  0x03, 0xE1, 0xFF, 0xFF, 0x87, 0xE0, 0xFF, 0xFF, 0xFF, 0xF0, 0xFF, 0xFF, 
  0x7F, 0xF0, 0xFF, 0xFF, 0x7F, 0x18, 0xFE, 0xFF, 0x3F, 0x08, 0xFC, 0xFF, 
  0x3F, 0x04, 0xF8, 0xFF, 0x1F, 0xC4, 0xF8, 0xFF, 0x1F, 0xC6, 0xF8, 0xFF, 
  0x0F, 0xC6, 0xF8, 0xFF, 0x0F, 0x07, 0xF8, 0xFF, 0x0F, 0x0F, 0xFC, 0xFF, 
  0x9F, 0x1F, 0xFE, 0xFF, 0xFF, 0xFF, 0xFF, 0xFF, 0xFF, 0xFF, 0xFF, 0xFF, 
  0xFF, 0xFF, 0xFF, 0xFF, 0xFF, 0xFF, 0xFF, 0xFF, 0xFF, 0xFF, 0xFF, 0xFF, 
  0xFF, 0xFF, 0xFF, 0xFF, 0xFF, 0xFF, 0xFF, 0xFF, 0xFF, 0xFF, 0xFF, 0xFF, 
  0xFF, 0xFF, 0xFF, 0xFF, 0xFF, 0xFF, 0xFF, 0xFF, 0xFF, 0xFF, 0xFF, 0xFF, 
  0xFF, 0xFF, 0xFF, 0xFF, 0x1F, 0xFE, 0xFF, 0xFF, 0x0F, 0xF8, 0xFF, 0xFF, 
  0x07, 0xF0, 0xFF, 0xFF, 0x07, 0xF0, 0xFF, 0xFF, 0x83, 0xF0, 0xFF, 0xFF, 
  0x83, 0xF0, 0xFF, 0xFF, 0x83, 0xF0, 0xFF, 0xFF, 0x07, 0x98, 0xFF, 0xFF, 
  0x07, 0x08, 0xFF, 0xFF, 0x07, 0x04, 0xFF, 0xFF, 0x0F, 0x00, 0xFF, 0xFF, 
  0x07, 0x80, 0xFF, 0xFF, 0x03, 0xC0, 0xFF, 0xFF, 0x03, 0xE0, 0xFF, 0xFF, 
  0x41, 0xC0, 0xFF, 0xFF, 0x41, 0x80, 0xFF, 0xFF, 0x01, 0x00, 0xFE, 0xFF, 
  0x01, 0x00, 0xFE, 0xFF, 0x01, 0x0C, 0xFF, 0xFF, 0x03, 0xFE, 0xFF, 0xFF, 
  0x07, 0xFF, 0xFF, 0xFF, 0xFF, 0xFF, 0xFF, 0xFF, 0xFF, 0xFF, 0xFF, 0xFF, 
  0xFF, 0xFF, 0xFF, 0xFF, 0xFF, 0xFF, 0xFF, 0xFF, 0xFF, 0xFF, 0xFF, 0xFF, 
  0xFF, 0xFF, 0xFF, 0xFF, 0xFF, 0xFF, 0xFF, 0xFF, 0xFF, 0xFF, 0xFF, 0xFF, 
  0xFF, 0xFF, 0xFF, 0xFF, 0xFF, 0xFF, 0xFF, 0xFF, 0xFF, 0xFF, 0xFF, 0xFF, 
  0xF1, 0xFF, 0xFF, 0xFF, 0xF1, 0xFF, 0xFF, 0xFF, 0xF1, 0xFF, 0xFF, 0xFF, 
  0xF1, 0xFF, 0xFF, 0xFF, 0xF1, 0xFF, 0xFF, 0xFF, 0xF1, 0xFF, 0xFF, 0xFF, 
  0xFB, 0xFF, 0xFF, 0xFF, 0xFF, 0xFF, 0xFF, 0xFF, 0xFF, 0xFF, 0xFF, 0xFF, 
  0xFF, 0xFF, 0xFF, 0xFF, 0xFF, 0xFF, 0xFF, 0xFF, 0xFF, 0xFF, 0xFF, 0xFF, 
  0xFF, 0xFF, 0xFF, 0xFF, 0xFF, 0xFF, 0xFF, 0xFF, 0xFF, 0xFF, 0xFF, 0xFF, 
  0xFF, 0xFF, 0xFF, 0xFF, 0xFF, 0xFF, 0xFF, 0xFF, 0xFF, 0xFF, 0xFF, 0xFF, 
  0xFF, 0xFF, 0xFF, 0xFF, 0xFF, 0xFF, 0xFF, 0xFF, 0xFF, 0xFF, 0xFF, 0xFF, 
  0xFF, 0xFF, 0xFF, 0xFF, 0xFF, 0xFF, 0xFF, 0xFF, 0xFF, 0xFF, 0xFF, 0xFF, 
  0xFF, 0xFF, 0xFF, 0xFF, 0xFF, 0xFF, 0xFF, 0xFF, 0xFF, 0xFF, 0xFF, 0xFF, 
  0xFF, 0xFF, 0xFF, 0xFF, 0x8F, 0xFF, 0xFF, 0xFF, 0x07, 0xFF, 0xFF, 0xFF, 
  0x07, 0xFE, 0xFF, 0xFF, 0x03, 0xFF, 0xFF, 0xFF, 0x03, 0xFF, 0xFF, 0xFF, 
  0x83, 0xFF, 0xFF, 0xFF, 0x83, 0xFF, 0xFF, 0xFF, 0x81, 0xFF, 0xFF, 0xFF, 
  0x81, 0xFF, 0xFF, 0xFF, 0xC1, 0xFF, 0xFF, 0xFF, 0xC1, 0xFF, 0xFF, 0xFF, 
  0xC1, 0xFF, 0xFF, 0xFF, 0xC1, 0xFF, 0xFF, 0xFF, 0xC1, 0xFF, 0xFF, 0xFF, 
  0xC1, 0xFF, 0xFF, 0xFF, 0xC1, 0xFF, 0xFF, 0xFF, 0xC1, 0xFF, 0xFF, 0xFF, 
  0xC1, 0xFF, 0xFF, 0xFF, 0xC1, 0xFF, 0xFF, 0xFF, 0x81, 0xFF, 0xFF, 0xFF, 
  0x81, 0xFF, 0xFF, 0xFF, 0x83, 0xFF, 0xFF, 0xFF, 0x83, 0xFF, 0xFF, 0xFF, 
  0x03, 0xFF, 0xFF, 0xFF, 0x03, 0xFF, 0xFF, 0xFF, 0x07, 0xFE, 0xFF, 0xFF, 
  0x07, 0xFF, 0xFF, 0xFF, 0x8F, 0xFF, 0xFF, 0xFF, 0xFF, 0xFF, 0xFF, 0xFF, 
  0xFF, 0xFF, 0xFF, 0xFF, 0xFF, 0xFF, 0xFF, 0xFF, 0xFF, 0xFF, 0xFF, 0xFF, 
  0xE3, 0xFF, 0xFF, 0xFF, 0xC1, 0xFF, 0xFF, 0xFF, 0x81, 0xFF, 0xFF, 0xFF, 
  0x81, 0xFF, 0xFF, 0xFF, 0x83, 0xFF, 0xFF, 0xFF, 0x03, 0xFF, 0xFF, 0xFF, 
  0x03, 0xFF, 0xFF, 0xFF, 0x07, 0xFF, 0xFF, 0xFF, 0x07, 0xFF, 0xFF, 0xFF, 
  0x07, 0xFF, 0xFF, 0xFF, 0x07, 0xFE, 0xFF, 0xFF, 0x07, 0xFE, 0xFF, 0xFF, 
  0x07, 0xFE, 0xFF, 0xFF, 0x0F, 0xFE, 0xFF, 0xFF, 0x0F, 0xFE, 0xFF, 0xFF, 
  0x07, 0xFE, 0xFF, 0xFF, 0x07, 0xFE, 0xFF, 0xFF, 0x07, 0xFE, 0xFF, 0xFF, 
  0x07, 0xFF, 0xFF, 0xFF, 0x07, 0xFF, 0xFF, 0xFF, 0x07, 0xFF, 0xFF, 0xFF, 
  0x03, 0xFF, 0xFF, 0xFF, 0x03, 0xFF, 0xFF, 0xFF, 0x83, 0xFF, 0xFF, 0xFF, 
  0x81, 0xFF, 0xFF, 0xFF, 0x81, 0xFF, 0xFF, 0xFF, 0xC1, 0xFF, 0xFF, 0xFF, 
  0xE3, 0xFF, 0xFF, 0xFF, 0xFF, 0xFF, 0xFF, 0xFF, 0xFF, 0xFF, 0xFF, 0xFF, 
  0xFF, 0xFF, 0xFF, 0xFF, 0xFF, 0xFF, 0xFF, 0xFF, 0xFF, 0xFF, 0xFF, 0xFF, 
  0xFF, 0xFF, 0xFF, 0xFF, 0xFF, 0xFF, 0xFF, 0xFF, 0xFF, 0xFF, 0xFF, 0xFF, 
  0xCF, 0xFF, 0xFF, 0xFF, 0xCF, 0xFF, 0xFF, 0xFF, 0x01, 0xFE, 0xFF, 0xFF, 
  0x01, 0xFE, 0xFF, 0xFF, 0x03, 0xFF, 0xFF, 0xFF, 0x83, 0xFF, 0xFF, 0xFF, 
  0x13, 0xFF, 0xFF, 0xFF, 0x3B, 0xFF, 0xFF, 0xFF, 0xFF, 0xFF, 0xFF, 0xFF, 
  0xFF, 0xFF, 0xFF, 0xFF, 0xFF, 0xFF, 0xFF, 0xFF, 0xFF, 0xFF, 0xFF, 0xFF, 
  0xFF, 0xFF, 0xFF, 0xFF, 0xFF, 0xFF, 0xFF, 0xFF, 0xFF, 0xFF, 0xFF, 0xFF, 
  0xFF, 0xFF, 0xFF, 0xFF, 0xFF, 0xFF, 0xFF, 0xFF, 0xFF, 0xFF, 0xFF, 0xFF, 
  0xFF, 0xFF, 0xFF, 0xFF, 0xFF, 0xFF, 0xFF, 0xFF, 0xFF, 0xFF, 0xFF, 0xFF, 
  0xFF, 0xFF, 0xFF, 0xFF, 0xFF, 0xFF, 0xFF, 0xFF, 0xFF, 0xFF, 0xFF, 0xFF, 
  0xFF, 0xFF, 0xFF, 0xFF, 0xFF, 0xFF, 0xFF, 0xFF, 0xFF, 0xFF, 0xFF, 0xFF, 
  0xFF, 0xFF, 0xFF, 0xFF, 0xFF, 0xFF, 0xFF, 0xFF, 0xFF, 0xFF, 0xFF, 0xFF, 
  0xFF, 0xFF, 0xFF, 0xFF, 0xFF, 0xFF, 0xFF, 0xFF, 0xFF, 0xFF, 0xFF, 0xFF, 
  0xFF, 0xFF, 0xFF, 0xFF, 0xFF, 0xFF, 0xFF, 0xFF, 0xFF, 0xFF, 0xFF, 0xFF, 
  0xFF, 0xFF, 0xFF, 0xFF, 0x0F, 0xFF, 0xFF, 0xFF, 0x0F, 0xFF, 0xFF, 0xFF, 
  0x0F, 0xFF, 0xFF, 0xFF, 0x01, 0xF8, 0xFF, 0xFF, 0x01, 0xF8, 0xFF, 0xFF, 
  0x01, 0xF8, 0xFF, 0xFF, 0x0F, 0xFE, 0xFF, 0xFF, 0x0F, 0xFF, 0xFF, 0xFF, 
  0x0F, 0xFF, 0xFF, 0xFF, 0x1F, 0xFF, 0xFF, 0xFF, 0xFF, 0xFF, 0xFF, 0xFF, 
  0xFF, 0xFF, 0xFF, 0xFF, 0xFF, 0xFF, 0xFF, 0xFF, 0xFF, 0xFF, 0xFF, 0xFF, 
  0xFF, 0xFF, 0xFF, 0xFF, 0xFF, 0xFF, 0xFF, 0xFF, 0xFF, 0xFF, 0xFF, 0xFF, 
  0xFF, 0xFF, 0xFF, 0xFF, 0xFF, 0xFF, 0xFF, 0xFF, 0xFF, 0xFF, 0xFF, 0xFF, 
  0xFF, 0xFF, 0xFF, 0xFF, 0xFF, 0xFF, 0xFF, 0xFF, 0xFF, 0xFF, 0xFF, 0xFF, 
  0xFF, 0xFF, 0xFF, 0xFF, 0xFF, 0xFF, 0xFF, 0xFF, 0xFF, 0xFF, 0xFF, 0xFF, 
  0xFF, 0xFF, 0xFF, 0xFF, 0xFF, 0xFF, 0xFF, 0xFF, 0xFF, 0xFF, 0xFF, 0xFF, 
  0xFF, 0xFF, 0xFF, 0xFF, 0xFF, 0xFF, 0xFF, 0xFF, 0xFF, 0xFF, 0xFF, 0xFF, 
  0xFF, 0xFF, 0xFF, 0xFF, 0xFF, 0xFF, 0xFF, 0xFF, 0xFF, 0xFF, 0xFF, 0xFF, 
  0xFF, 0xFF, 0xFF, 0xFF, 0xFF, 0xFF, 0xFF, 0xFF, 0xFF, 0xFF, 0xFF, 0xFF, 
  0xFF, 0xFF, 0xFF, 0xFF, 0xFF, 0xFF, 0xFF, 0xFF, 0xFF, 0xFF, 0xFF, 0xFF, 
  0xFF, 0xFF, 0xFF, 0xFF, 0xFF, 0xFF, 0xFF, 0xFF, 0xF3, 0xFF, 0xFF, 0xFF, 
  0xE1, 0xFF, 0xFF, 0xFF, 0xC1, 0xFF, 0xFF, 0xFF, 0xC1, 0xFF, 0xFF, 0xFF, 
  0xC7, 0xFF, 0xFF, 0xFF, 0xC7, 0xFF, 0xFF, 0xFF, 0xE3, 0xFF, 0xFF, 0xFF, 
  0xE3, 0xFF, 0xFF, 0xFF, 0xFF, 0xFF, 0xFF, 0xFF, 0xFF, 0xFF, 0xFF, 0xFF, 
  0xFF, 0xFF, 0xFF, 0xFF, 0xFF, 0xFF, 0xFF, 0xFF, 0xFF, 0xFF, 0xFF, 0xFF, 
  0xFF, 0xFF, 0xFF, 0xFF, 0xFF, 0xFF, 0xFF, 0xFF, 0xFF, 0xFF, 0xFF, 0xFF, 
  0xFF, 0xFF, 0xFF, 0xFF, 0xFF, 0xFF, 0xFF, 0xFF, 0xFF, 0xFF, 0xFF, 0xFF, 
  0xFF, 0xFF, 0xFF, 0xFF, 0xFF, 0xFF, 0xFF, 0xFF, 0xFF, 0xFF, 0xFF, 0xFF, 
  0xFF, 0xFF, 0xFF, 0xFF, 0xFF, 0xFF, 0xFF, 0xFF, 0xFF, 0xFF, 0xFF, 0xFF, 
  0xFF, 0xFF, 0xFF, 0xFF, 0x07, 0xFC, 0xFF, 0xFF, 0x01, 0xF8, 0xFF, 0xFF, 
  0x01, 0xF8, 0xFF, 0xFF, 0x01, 0xF8, 0xFF, 0xFF, 0xFF, 0xFF, 0xFF, 0xFF, 
  0xFF, 0xFF, 0xFF, 0xFF, 0xFF, 0xFF, 0xFF, 0xFF, 0xFF, 0xFF, 0xFF, 0xFF, 
  0xFF, 0xFF, 0xFF, 0xFF, 0xFF, 0xFF, 0xFF, 0xFF, 0xFF, 0xFF, 0xFF, 0xFF, 
  0xFF, 0xFF, 0xFF, 0xFF, 0xFF, 0xFF, 0xFF, 0xFF, 0xFF, 0xFF, 0xFF, 0xFF, 
  0xFF, 0xFF, 0xFF, 0xFF, 0xFF, 0xFF, 0xFF, 0xFF, 0xFF, 0xFF, 0xFF, 0xFF, 
  0xFF, 0xFF, 0xFF, 0xFF, 0xFF, 0xFF, 0xFF, 0xFF, 0xFF, 0xFF, 0xFF, 0xFF, 
  0xFF, 0xFF, 0xFF, 0xFF, 0xFF, 0xFF, 0xFF, 0xFF, 0xFF, 0xFF, 0xFF, 0xFF, 
  0xFF, 0xFF, 0xFF, 0xFF, 0xFF, 0xFF, 0xFF, 0xFF, 0xFF, 0xFF, 0xFF, 0xFF, 
  0xFF, 0xFF, 0xFF, 0xFF, 0xFF, 0xFF, 0xFF, 0xFF, 0xFF, 0xFF, 0xFF, 0xFF, 
  0xFF, 0xFF, 0xFF, 0xFF, 0xFF, 0xFF, 0xFF, 0xFF, 0xFF, 0xFF, 0xFF, 0xFF, 
  0xFF, 0xFF, 0xFF, 0xFF, 0xFF, 0xFF, 0xFF, 0xFF, 0xFF, 0xFF, 0xFF, 0xFF, 
  0xFF, 0xFF, 0xFF, 0xFF, 0xFF, 0xFF, 0xFF, 0xFF, 0xFF, 0xFF, 0xFF, 0xFF, 
  0xFF, 0xFF, 0xFF, 0xFF, 0xE1, 0xFF, 0xFF, 0xFF, 0xE1, 0xFF, 0xFF, 0xFF, 
  0xE1, 0xFF, 0xFF, 0xFF, 0xF3, 0xFF, 0xFF, 0xFF, 0xFF, 0xFF, 0xFF, 0xFF, 
  0xFF, 0xFF, 0xFF, 0xFF, 0xFF, 0xFF, 0xFF, 0xFF, 0xFF, 0xFF, 0xFF, 0xFF, 
  0xFF, 0xFF, 0xFF, 0xFF, 0xFF, 0xFF, 0xFF, 0xFF, 0xFF, 0xFF, 0xFF, 0xFF, 
  0xFF, 0xFF, 0xFF, 0xFF, 0xFF, 0xFF, 0xFF, 0xFF, 0xFF, 0xFF, 0xFF, 0xFF, 
  0xFF, 0xFF, 0xFF, 0xFF, 0x3F, 0xFE, 0xFF, 0xFF, 0x3F, 0xFE, 0xFF, 0xFF, 
  0x3F, 0xFE, 0xFF, 0xFF, 0x1F, 0xFE, 0xFF, 0xFF, 0x1F, 0xFF, 0xFF, 0xFF, 
  0x1F, 0xFF, 0xFF, 0xFF, 0x0F, 0xFF, 0xFF, 0xFF, 0x0F, 0xFF, 0xFF, 0xFF, 
  0x8F, 0xFF, 0xFF, 0xFF, 0x87, 0xFF, 0xFF, 0xFF, 0x87, 0xFF, 0xFF, 0xFF, 
  0x87, 0xFF, 0xFF, 0xFF, 0xC7, 0xFF, 0xFF, 0xFF, 0xC3, 0xFF, 0xFF, 0xFF, 
  0xC3, 0xFF, 0xFF, 0xFF, 0xC3, 0xFF, 0xFF, 0xFF, 0xE1, 0xFF, 0xFF, 0xFF, 
  0xE1, 0xFF, 0xFF, 0xFF, 0xE1, 0xFF, 0xFF, 0xFF, 0xF1, 0xFF, 0xFF, 0xFF, 
  0xF1, 0xFF, 0xFF, 0xFF, 0xFF, 0xFF, 0xFF, 0xFF, 0xFF, 0xFF, 0xFF, 0xFF, 
  0xFF, 0xFF, 0xFF, 0xFF, 0xFF, 0xFF, 0xFF, 0xFF, 0xFF, 0xFF, 0xFF, 0xFF, 
  0xFF, 0xFF, 0xFF, 0xFF, 0xFF, 0xFF, 0xFF, 0xFF, 0xFF, 0xFF, 0xFF, 0xFF, 
  0xFF, 0xFF, 0xFF, 0xFF, 0xFF, 0xFF, 0xFF, 0xFF, 0xFF, 0xFF, 0xFF, 0xFF, 
  0x3F, 0xF8, 0xFF, 0xFF, 0x0F, 0xE0, 0xFF, 0xFF, 0x07, 0xC0, 0xFF, 0xFF, 
  0x07, 0xC0, 0xFF, 0xFF, 0x03, 0x80, 0xFF, 0xFF, 0x03, 0x80, 0xFF, 0xFF, 
  0x81, 0x81, 0xFF, 0xFF, 0x81, 0x03, 0xFF, 0xFF, 0xC1, 0x03, 0xFF, 0xFF, 
  0xC1, 0x03, 0xFF, 0xFF, 0xC1, 0x03, 0xFF, 0xFF, 0xC1, 0x03, 0xFF, 0xFF, 
  0x81, 0x03, 0xFF, 0xFF, 0x81, 0x81, 0xFF, 0xFF, 0x01, 0x80, 0xFF, 0xFF, 
  0x03, 0x80, 0xFF, 0xFF, 0x03, 0xC0, 0xFF, 0xFF, 0x07, 0xE0, 0xFF, 0xFF, 
  0x0F, 0xF0, 0xFF, 0xFF, 0x3F, 0xF8, 0xFF, 0xFF, 0xFF, 0xFF, 0xFF, 0xFF, 
  0xFF, 0xFF, 0xFF, 0xFF, 0xFF, 0xFF, 0xFF, 0xFF, 0xFF, 0xFF, 0xFF, 0xFF, 
  0xFF, 0xFF, 0xFF, 0xFF, 0xFF, 0xFF, 0xFF, 0xFF, 0xFF, 0xFF, 0xFF, 0xFF, 
  0xFF, 0xFF, 0xFF, 0xFF, 0xFF, 0xFF, 0xFF, 0xFF, 0xFF, 0xFF, 0xFF, 0xFF, 
  0xFF, 0xFF, 0xFF, 0xFF, 0xFF, 0xFF, 0xFF, 0xFF, 0x0F, 0xFC, 0xFF, 0xFF, 
  0x03, 0xFC, 0xFF, 0xFF, 0x01, 0xFC, 0xFF, 0xFF, 0x01, 0xFC, 0xFF, 0xFF, 
  0x01, 0xFC, 0xFF, 0xFF, 0x1F, 0xF8, 0xFF, 0xFF, 0x1F, 0xF8, 0xFF, 0xFF, 
  0x1F, 0xF8, 0xFF, 0xFF, 0x1F, 0xF8, 0xFF, 0xFF, 0x1F, 0xF8, 0xFF, 0xFF, 
  0x1F, 0xF8, 0xFF, 0xFF, 0x1F, 0xF8, 0xFF, 0xFF, 0x1F, 0xF8, 0xFF, 0xFF, 
  0x1F, 0xF8, 0xFF, 0xFF, 0x1F, 0xF8, 0xFF, 0xFF, 0x1F, 0xF8, 0xFF, 0xFF, 
  0x1F, 0xF8, 0xFF, 0xFF, 0x3F, 0xF8, 0xFF, 0xFF, 0x3F, 0xF8, 0xFF, 0xFF, 
  0x3F, 0xFC, 0xFF, 0xFF, 0xFF, 0xFF, 0xFF, 0xFF, 0xFF, 0xFF, 0xFF, 0xFF, 
  0xFF, 0xFF, 0xFF, 0xFF, 0xFF, 0xFF, 0xFF, 0xFF, 0xFF, 0xFF, 0xFF, 0xFF, 
  0xFF, 0xFF, 0xFF, 0xFF, 0xFF, 0xFF, 0xFF, 0xFF, 0xFF, 0xFF, 0xFF, 0xFF, 
  0xFF, 0xFF, 0xFF, 0xFF, 0xFF, 0xFF, 0xFF, 0xFF, 0xFF, 0xFF, 0xFF, 0xFF, 
  0xFF, 0xFF, 0xFF, 0xFF, 0x1F, 0xFC, 0xFF, 0xFF, 0x07, 0xF8, 0xFF, 0xFF, 
  0x03, 0xF0, 0xFF, 0xFF, 0x01, 0xE0, 0xFF, 0xFF, 0x01, 0xE0, 0xFF, 0xFF, 
  0xC1, 0xE0, 0xFF, 0xFF, 0xE1, 0xE0, 0xFF, 0xFF, 0xF7, 0xE0, 0xFF, 0xFF, 
  0xFF, 0xE0, 0xFF, 0xFF, 0x7F, 0xF0, 0xFF, 0xFF, 0x7F, 0xF0, 0xFF, 0xFF, 
  0x3F, 0xF0, 0xFF, 0xFF, 0x1F, 0xF8, 0xFF, 0xFF, 0x0F, 0xF8, 0xFF, 0xFF, 
  0x07, 0xFC, 0xFF, 0xFF, 0x03, 0xC0, 0xFF, 0xFF, 0x03, 0x80, 0xFF, 0xFF, 
  0x03, 0xC0, 0xFF, 0xFF, 0x03, 0xC0, 0xFF, 0xFF, 0x07, 0xE0, 0xFF, 0xFF, 
  0xFF, 0xFF, 0xFF, 0xFF, 0xFF, 0xFF, 0xFF, 0xFF, 0xFF, 0xFF, 0xFF, 0xFF, 
  0xFF, 0xFF, 0xFF, 0xFF, 0xFF, 0xFF, 0xFF, 0xFF, 0xFF, 0xFF, 0xFF, 0xFF, 
  0xFF, 0xFF, 0xFF, 0xFF, 0xFF, 0xFF, 0xFF, 0xFF, 0xFF, 0xFF, 0xFF, 0xFF, 
  0xFF, 0xFF, 0xFF, 0xFF, 0xFF, 0xFF, 0xFF, 0xFF, 0xFF, 0xFF, 0xFF, 0xFF, 
  0x07, 0xFC, 0xFF, 0xFF, 0x03, 0xF0, 0xFF, 0xFF, 0x01, 0xE0, 0xFF, 0xFF, 
  0x01, 0xE0, 0xFF, 0xFF, 0x03, 0xE0, 0xFF, 0xFF, 0x7F, 0xE0, 0xFF, 0xFF, 
  0x7F, 0xF0, 0xFF, 0xFF, 0x0F, 0xF8, 0xFF, 0xFF, 0x07, 0xF0, 0xFF, 0xFF, 
  0x07, 0xE0, 0xFF, 0xFF, 0x0F, 0xC0, 0xFF, 0xFF, 0xFF, 0x80, 0xFF, 0xFF, 
  0xFF, 0x81, 0xFF, 0xFF, 0xFF, 0x81, 0xFF, 0xFF, 0x03, 0x80, 0xFF, 0xFF, 
  0x01, 0xC0, 0xFF, 0xFF, 0x01, 0xC0, 0xFF, 0xFF, 0x01, 0xE0, 0xFF, 0xFF, 
  0x03, 0xF0, 0xFF, 0xFF, 0x07, 0xFE, 0xFF, 0xFF, 0xFF, 0xFF, 0xFF, 0xFF, 
  0xFF, 0xFF, 0xFF, 0xFF, 0xFF, 0xFF, 0xFF, 0xFF, 0xFF, 0xFF, 0xFF, 0xFF, 
  0xFF, 0xFF, 0xFF, 0xFF, 0xFF, 0xFF, 0xFF, 0xFF, 0xFF, 0xFF, 0xFF, 0xFF, 
  0xFF, 0xFF, 0xFF, 0xFF, 0xFF, 0xFF, 0xFF, 0xFF, 0xFF, 0xFF, 0xFF, 0xFF, 
  0xFF, 0xFF, 0xFF, 0xFF, 0xFF, 0xFF, 0xFF, 0xFF, 0xFF, 0xE1, 0xFF, 0xFF, 
  0x7F, 0xE0, 0xFF, 0xFF, 0x3F, 0xE0, 0xFF, 0xFF, 0x1F, 0xE0, 0xFF, 0xFF, 
  0x0F, 0xE0, 0xFF, 0xFF, 0x07, 0xE0, 0xFF, 0xFF, 0x07, 0xE1, 0xFF, 0xFF, 
  0x83, 0xE1, 0xFF, 0xFF, 0x81, 0xE1, 0xFF, 0xFF, 0xC1, 0xE0, 0xFF, 0xFF, 
  0x01, 0x80, 0xFF, 0xFF, 0x01, 0x80, 0xFF, 0xFF, 0x01, 0x80, 0xFF, 0xFF, 
  0x03, 0x80, 0xFF, 0xFF, 0xFF, 0xC0, 0xFF, 0xFF, 0xFF, 0xE0, 0xFF, 0xFF, 
  0xFF, 0xE0, 0xFF, 0xFF, 0xFF, 0xE0, 0xFF, 0xFF, 0xFF, 0xE0, 0xFF, 0xFF, 
  0xFF, 0xE1, 0xFF, 0xFF, 0xFF, 0xFF, 0xFF, 0xFF, 0xFF, 0xFF, 0xFF, 0xFF, 
  0xFF, 0xFF, 0xFF, 0xFF, 0xFF, 0xFF, 0xFF, 0xFF, 0xFF, 0xFF, 0xFF, 0xFF, 
  0xFF, 0xFF, 0xFF, 0xFF, 0xFF, 0xFF, 0xFF, 0xFF, 0xFF, 0xFF, 0xFF, 0xFF, 
  0xFF, 0xFF, 0xFF, 0xFF, 0xFF, 0xFF, 0xFF, 0xFF, 0xFF, 0xFF, 0xFF, 0xFF, 
  0xFF, 0xFF, 0xFF, 0xFF, 0x0F, 0xF8, 0xFF, 0xFF, 0x03, 0xF0, 0xFF, 0xFF, 
  0x03, 0xE0, 0xFF, 0xFF, 0x01, 0xE0, 0xFF, 0xFF, 0x01, 0xE0, 0xFF, 0xFF, 
  0xC1, 0xF3, 0xFF, 0xFF, 0xC1, 0xFF, 0xFF, 0xFF, 0x81, 0xFF, 0xFF, 0xFF, 
  0x01, 0xF8, 0xFF, 0xFF, 0x03, 0xF0, 0xFF, 0xFF, 0x03, 0xE0, 0xFF, 0xFF, 
  0x7F, 0xE0, 0xFF, 0xFF, 0xFF, 0xE1, 0xFF, 0xFF, 0xFF, 0xE1, 0xFF, 0xFF, 
  0xC3, 0xE0, 0xFF, 0xFF, 0x01, 0xE0, 0xFF, 0xFF, 0x01, 0xE0, 0xFF, 0xFF, 
  0x01, 0xF0, 0xFF, 0xFF, 0x01, 0xF0, 0xFF, 0xFF, 0x03, 0xF8, 0xFF, 0xFF, 
  0x07, 0xFE, 0xFF, 0xFF, 0xFF, 0xFF, 0xFF, 0xFF, 0xFF, 0xFF, 0xFF, 0xFF, 
  0xFF, 0xFF, 0xFF, 0xFF, 0xFF, 0xFF, 0xFF, 0xFF, 0xFF, 0xFF, 0xFF, 0xFF, 
  0xFF, 0xFF, 0xFF, 0xFF, 0xFF, 0xFF, 0xFF, 0xFF, 0xFF, 0xFF, 0xFF, 0xFF, 
  0xFF, 0xFF, 0xFF, 0xFF, 0xFF, 0xFF, 0xFF, 0xFF, 0xFF, 0xFF, 0xFF, 0xFF, 
  0xFF, 0xF0, 0xFF, 0xFF, 0x3F, 0xF0, 0xFF, 0xFF, 0x0F, 0xF0, 0xFF, 0xFF, 
  0x0F, 0xF0, 0xFF, 0xFF, 0x07, 0xF8, 0xFF, 0xFF, 0x83, 0xFF, 0xFF, 0xFF, 
  0xC3, 0xFF, 0xFF, 0xFF, 0xC1, 0xFF, 0xFF, 0xFF, 0x01, 0xF0, 0xFF, 0xFF, 
  0x01, 0xE0, 0xFF, 0xFF, 0x01, 0xC0, 0xFF, 0xFF, 0x01, 0xC0, 0xFF, 0xFF, 
  0xE1, 0xC1, 0xFF, 0xFF, 0xC1, 0xC3, 0xFF, 0xFF, 0x81, 0xC1, 0xFF, 0xFF, 
  0x01, 0xC0, 0xFF, 0xFF, 0x03, 0xC0, 0xFF, 0xFF, 0x07, 0xE0, 0xFF, 0xFF, 
  0x0F, 0xF0, 0xFF, 0xFF, 0x1F, 0xFC, 0xFF, 0xFF, 0xFF, 0xFF, 0xFF, 0xFF, 
  0xFF, 0xFF, 0xFF, 0xFF, 0xFF, 0xFF, 0xFF, 0xFF, 0xFF, 0xFF, 0xFF, 0xFF, 
  0xFF, 0xFF, 0xFF, 0xFF, 0xFF, 0xFF, 0xFF, 0xFF, 0xFF, 0xFF, 0xFF, 0xFF, 
  0xFF, 0xFF, 0xFF, 0xFF, 0xFF, 0xFF, 0xFF, 0xFF, 0xFF, 0xFF, 0xFF, 0xFF, 
  0xFF, 0xFF, 0xFF, 0xFF, 0xFF, 0xFF, 0xFF, 0xFF, 0x07, 0xF0, 0xFF, 0xFF, 
  0x01, 0xE0, 0xFF, 0xFF, 0x01, 0xE0, 0xFF, 0xFF, 0x01, 0xE0, 0xFF, 0xFF, 
  0x01, 0xE0, 0xFF, 0xFF, 0x7F, 0xE0, 0xFF, 0xFF, 0x7F, 0xE0, 0xFF, 0xFF, 
  0x7F, 0xF0, 0xFF, 0xFF, 0x7F, 0xF0, 0xFF, 0xFF, 0x3F, 0xF0, 0xFF, 0xFF, 
  0x3F, 0xF0, 0xFF, 0xFF, 0x3F, 0xF8, 0xFF, 0xFF, 0x1F, 0xF8, 0xFF, 0xFF, 
  0x1F, 0xF8, 0xFF, 0xFF, 0x1F, 0xFC, 0xFF, 0xFF, 0x1F, 0xFC, 0xFF, 0xFF, 
  0x0F, 0xFC, 0xFF, 0xFF, 0x0F, 0xFC, 0xFF, 0xFF, 0x0F, 0xFE, 0xFF, 0xFF, 
  0x0F, 0xFE, 0xFF, 0xFF, 0x1F, 0xFF, 0xFF, 0xFF, 0xFF, 0xFF, 0xFF, 0xFF, 
  0xFF, 0xFF, 0xFF, 0xFF, 0xFF, 0xFF, 0xFF, 0xFF, 0xFF, 0xFF, 0xFF, 0xFF, 
  0xFF, 0xFF, 0xFF, 0xFF, 0xFF, 0xFF, 0xFF, 0xFF, 0xFF, 0xFF, 0xFF, 0xFF, 
  0xFF, 0xFF, 0xFF, 0xFF, 0xFF, 0xFF, 0xFF, 0xFF, 0xFF, 0xFF, 0xFF, 0xFF, 
  0xFF, 0xFF, 0xFF, 0xFF, 0x1F, 0xFC, 0xFF, 0xFF, 0x07, 0xF8, 0xFF, 0xFF, 
  0x03, 0xF0, 0xFF, 0xFF, 0x03, 0xF0, 0xFF, 0xFF, 0xC3, 0xE0, 0xFF, 0xFF, 
  0xC3, 0xE0, 0xFF, 0xFF, 0x83, 0xE0, 0xFF, 0xFF, 0x03, 0xF0, 0xFF, 0xFF, 
  0x07, 0xF0, 0xFF, 0xFF, 0x07, 0xF0, 0xFF, 0xFF, 0x03, 0xE0, 0xFF, 0xFF, 
  0x01, 0xE0, 0xFF, 0xFF, 0x81, 0xC0, 0xFF, 0xFF, 0x81, 0xC1, 0xFF, 0xFF, 
  0x81, 0xC1, 0xFF, 0xFF, 0x01, 0xC0, 0xFF, 0xFF, 0x01, 0xE0, 0xFF, 0xFF, 
  0x03, 0xE0, 0xFF, 0xFF, 0x07, 0xF0, 0xFF, 0xFF, 0x1F, 0xFC, 0xFF, 0xFF, 
  0xFF, 0xFF, 0xFF, 0xFF, 0xFF, 0xFF, 0xFF, 0xFF, 0xFF, 0xFF, 0xFF, 0xFF, 
  0xFF, 0xFF, 0xFF, 0xFF, 0xFF, 0xFF, 0xFF, 0xFF, 0xFF, 0xFF, 0xFF, 0xFF, 
  0xFF, 0xFF, 0xFF, 0xFF, 0xFF, 0xFF, 0xFF, 0xFF, 0xFF, 0xFF, 0xFF, 0xFF, 
  0xFF, 0xFF, 0xFF, 0xFF, 0xFF, 0xFF, 0xFF, 0xFF, 0xFF, 0xFF, 0xFF, 0xFF, 
  0x1F, 0xFC, 0xFF, 0xFF, 0x07, 0xF0, 0xFF, 0xFF, 0x03, 0xF0, 0xFF, 0xFF, 
  0x03, 0xE0, 0xFF, 0xFF, 0x01, 0xC0, 0xFF, 0xFF, 0xC1, 0xC1, 0xFF, 0xFF, 
  0xE1, 0xC3, 0xFF, 0xFF, 0xC1, 0xC1, 0xFF, 0xFF, 0x01, 0x80, 0xFF, 0xFF, 
  0x01, 0x80, 0xFF, 0xFF, 0x03, 0x80, 0xFF, 0xFF, 0x03, 0xC0, 0xFF, 0xFF, 
  0x0F, 0xC2, 0xFF, 0xFF, 0xFF, 0xC3, 0xFF, 0xFF, 0xFF, 0xC1, 0xFF, 0xFF, 
  0xFF, 0xE0, 0xFF, 0xFF, 0x1F, 0xE0, 0xFF, 0xFF, 0x0F, 0xF0, 0xFF, 0xFF, 
  0x0F, 0xF8, 0xFF, 0xFF, 0x0F, 0xFC, 0xFF, 0xFF, 0x1F, 0xFF, 0xFF, 0xFF, 
  0xFF, 0xFF, 0xFF, 0xFF, 0xFF, 0xFF, 0xFF, 0xFF, 0xFF, 0xFF, 0xFF, 0xFF, 
  0xFF, 0xFF, 0xFF, 0xFF, 0xFF, 0xFF, 0xFF, 0xFF, 0xFF, 0xFF, 0xFF, 0xFF, 
  0xFF, 0xFF, 0xFF, 0xFF, 0xFF, 0xFF, 0xFF, 0xFF, 0xFF, 0xFF, 0xFF, 0xFF, 
  0xFF, 0xFF, 0xFF, 0xFF, 0xFF, 0xFF, 0xFF, 0xFF, 0xFF, 0xFF, 0xFF, 0xFF, 
  0xFF, 0xFF, 0xFF, 0xFF, 0xFF, 0xFF, 0xFF, 0xFF, 0xFF, 0xFF, 0xFF, 0xFF, 
  0xF7, 0xFF, 0xFF, 0xFF, 0xC3, 0xFF, 0xFF, 0xFF, 0xC3, 0xFF, 0xFF, 0xFF, 
  0xC3, 0xFF, 0xFF, 0xFF, 0xE3, 0xFF, 0xFF, 0xFF, 0xFF, 0xFF, 0xFF, 0xFF, 
  0xFF, 0xFF, 0xFF, 0xFF, 0xFF, 0xFF, 0xFF, 0xFF, 0xFF, 0xFF, 0xFF, 0xFF, 
  0xFF, 0xFF, 0xFF, 0xFF, 0xFF, 0xFF, 0xFF, 0xFF, 0xFF, 0xFF, 0xFF, 0xFF, 
  0xF7, 0xFF, 0xFF, 0xFF, 0xC3, 0xFF, 0xFF, 0xFF, 0xC3, 0xFF, 0xFF, 0xFF, 
  0xC3, 0xFF, 0xFF, 0xFF, 0xE3, 0xFF, 0xFF, 0xFF, 0xFF, 0xFF, 0xFF, 0xFF, 
  0xFF, 0xFF, 0xFF, 0xFF, 0xFF, 0xFF, 0xFF, 0xFF, 0xFF, 0xFF, 0xFF, 0xFF, 
  0xFF, 0xFF, 0xFF, 0xFF, 0xFF, 0xFF, 0xFF, 0xFF, 0xFF, 0xFF, 0xFF, 0xFF, 
  0xFF, 0xFF, 0xFF, 0xFF, 0xFF, 0xFF, 0xFF, 0xFF, 0xFF, 0xFF, 0xFF, 0xFF, 
  0xFF, 0xFF, 0xFF, 0xFF, 0xFF, 0xFF, 0xFF, 0xFF, 0xFF, 0xFF, 0xFF, 0xFF, 
  0xFF, 0xFF, 0xFF, 0xFF, 0xFF, 0xFF, 0xFF, 0xFF, 0xF7, 0xFF, 0xFF, 0xFF, 
  0xC3, 0xFF, 0xFF, 0xFF, 0xC3, 0xFF, 0xFF, 0xFF, 0xC3, 0xFF, 0xFF, 0xFF, 
  0xE3, 0xFF, 0xFF, 0xFF, 0xFF, 0xFF, 0xFF, 0xFF, 0xFF, 0xFF, 0xFF, 0xFF, 
  0xFF, 0xFF, 0xFF, 0xFF, 0xFF, 0xFF, 0xFF, 0xFF, 0xFF, 0xFF, 0xFF, 0xFF, 
  0xFF, 0xFF, 0xFF, 0xFF, 0xFF, 0xFF, 0xFF, 0xFF, 0xE7, 0xFF, 0xFF, 0xFF, 
  0xC3, 0xFF, 0xFF, 0xFF, 0x83, 0xFF, 0xFF, 0xFF, 0x83, 0xFF, 0xFF, 0xFF, 
  0x87, 0xFF, 0xFF, 0xFF, 0xCF, 0xFF, 0xFF, 0xFF, 0xC7, 0xFF, 0xFF, 0xFF, 
  0xE7, 0xFF, 0xFF, 0xFF, 0xFF, 0xFF, 0xFF, 0xFF, 0xFF, 0xFF, 0xFF, 0xFF, 
  0xFF, 0xFF, 0xFF, 0xFF, 0xFF, 0xFF, 0xFF, 0xFF, 0xFF, 0xFF, 0xFF, 0xFF, 
  0xFF, 0xFF, 0xFF, 0xFF, 0xFF, 0xFF, 0xFF, 0xFF, 0xFF, 0xFF, 0xFF, 0xFF, 
  0xFF, 0xFF, 0xFF, 0xFF, 0xFF, 0xFF, 0xFF, 0xFF, 0xFF, 0xFF, 0xFF, 0xFF, 
  0xFF, 0xFF, 0xFF, 0xFF, 0xFF, 0xFF, 0xFF, 0xFF, 0x7F, 0xFC, 0xFF, 0xFF, 
  0x1F, 0xF8, 0xFF, 0xFF, 0x07, 0xFC, 0xFF, 0xFF, 0x01, 0xFF, 0xFF, 0xFF, 
  0xC1, 0xFF, 0xFF, 0xFF, 0x81, 0xFF, 0xFF, 0xFF, 0x01, 0xFE, 0xFF, 0xFF, 
  0x07, 0xFC, 0xFF, 0xFF, 0x1F, 0xFC, 0xFF, 0xFF, 0xFF, 0xFC, 0xFF, 0xFF, 
  0xFF, 0xFF, 0xFF, 0xFF, 0xFF, 0xFF, 0xFF, 0xFF, 0xFF, 0xFF, 0xFF, 0xFF, 
  0xFF, 0xFF, 0xFF, 0xFF, 0xFF, 0xFF, 0xFF, 0xFF, 0xFF, 0xFF, 0xFF, 0xFF, 
  0xFF, 0xFF, 0xFF, 0xFF, 0xFF, 0xFF, 0xFF, 0xFF, 0xFF, 0xFF, 0xFF, 0xFF, 
  0xFF, 0xFF, 0xFF, 0xFF, 0xFF, 0xFF, 0xFF, 0xFF, 0xFF, 0xFF, 0xFF, 0xFF, 
  0xFF, 0xFF, 0xFF, 0xFF, 0xFF, 0xFF, 0xFF, 0xFF, 0xFF, 0xFF, 0xFF, 0xFF, 
  0xFF, 0xFF, 0xFF, 0xFF, 0xFF, 0xFF, 0xFF, 0xFF, 0xFF, 0xFF, 0xFF, 0xFF, 
  0xFF, 0xFF, 0xFF, 0xFF, 0xFF, 0xFF, 0xFF, 0xFF, 0xFF, 0xFF, 0xFF, 0xFF, 
  0xFF, 0xFF, 0xFF, 0xFF, 0xFF, 0xFF, 0xFF, 0xFF, 0x01, 0xF8, 0xFF, 0xFF, 
  0x01, 0xF8, 0xFF, 0xFF, 0x01, 0xFC, 0xFF, 0xFF, 0xFF, 0xFF, 0xFF, 0xFF, 
  0x01, 0xF8, 0xFF, 0xFF, 0x01, 0xF8, 0xFF, 0xFF, 0x01, 0xFC, 0xFF, 0xFF, 
  0xFF, 0xFF, 0xFF, 0xFF, 0xFF, 0xFF, 0xFF, 0xFF, 0xFF, 0xFF, 0xFF, 0xFF, 
  0xFF, 0xFF, 0xFF, 0xFF, 0xFF, 0xFF, 0xFF, 0xFF, 0xFF, 0xFF, 0xFF, 0xFF, 
  0xFF, 0xFF, 0xFF, 0xFF, 0xFF, 0xFF, 0xFF, 0xFF, 0xFF, 0xFF, 0xFF, 0xFF, 
  0xFF, 0xFF, 0xFF, 0xFF, 0xFF, 0xFF, 0xFF, 0xFF, 0xFF, 0xFF, 0xFF, 0xFF, 
  0xFF, 0xFF, 0xFF, 0xFF, 0xFF, 0xFF, 0xFF, 0xFF, 0xFF, 0xFF, 0xFF, 0xFF, 
  0xFF, 0xFF, 0xFF, 0xFF, 0xFF, 0xFF, 0xFF, 0xFF, 0xFF, 0xFF, 0xFF, 0xFF, 
  0xFF, 0xFF, 0xFF, 0xFF, 0xFF, 0xFF, 0xFF, 0xFF, 0xFF, 0xFF, 0xFF, 0xFF, 
  0xFF, 0xFF, 0xFF, 0xFF, 0xFF, 0xFF, 0xFF, 0xFF, 0xFF, 0xFF, 0xFF, 0xFF, 
  0xE1, 0xFF, 0xFF, 0xFF, 0x81, 0xFF, 0xFF, 0xFF, 0x01, 0xFE, 0xFF, 0xFF, 
  0x07, 0xFC, 0xFF, 0xFF, 0x3F, 0xF8, 0xFF, 0xFF, 0x1F, 0xF8, 0xFF, 0xFF, 
  0x03, 0xFC, 0xFF, 0xFF, 0x01, 0xFF, 0xFF, 0xFF, 0xC1, 0xFF, 0xFF, 0xFF, 
  0xF3, 0xFF, 0xFF, 0xFF, 0xFF, 0xFF, 0xFF, 0xFF, 0xFF, 0xFF, 0xFF, 0xFF, 
  0xFF, 0xFF, 0xFF, 0xFF, 0xFF, 0xFF, 0xFF, 0xFF, 0xFF, 0xFF, 0xFF, 0xFF, 
  0xFF, 0xFF, 0xFF, 0xFF, 0xFF, 0xFF, 0xFF, 0xFF, 0xFF, 0xFF, 0xFF, 0xFF, 
  0xFF, 0xFF, 0xFF, 0xFF, 0xFF, 0xFF, 0xFF, 0xFF, 0xFF, 0xFF, 0xFF, 0xFF, 
  0xFF, 0xFF, 0xFF, 0xFF, 0xFF, 0xFF, 0xFF, 0xFF, 0xFF, 0xFF, 0xFF, 0xFF, 
  0xFF, 0xFF, 0xFF, 0xFF, 0xFF, 0xFF, 0xFF, 0xFF, 0xFF, 0xFF, 0xFF, 0xFF, 
  0x0F, 0xFE, 0xFF, 0xFF, 0x07, 0xF8, 0xFF, 0xFF, 0x03, 0xF0, 0xFF, 0xFF, 
  0x01, 0xF0, 0xFF, 0xFF, 0x01, 0xF0, 0xFF, 0xFF, 0x41, 0xF0, 0xFF, 0xFF, 
  0x61, 0xF0, 0xFF, 0xFF, 0x33, 0xF0, 0xFF, 0xFF, 0x3F, 0xF8, 0xFF, 0xFF, 
  0x1F, 0xFC, 0xFF, 0xFF, 0x0F, 0xFE, 0xFF, 0xFF, 0x0F, 0xFE, 0xFF, 0xFF, 
  0x0F, 0xFF, 0xFF, 0xFF, 0x0F, 0xFF, 0xFF, 0xFF, 0x0F, 0xFF, 0xFF, 0xFF, 
  0xFF, 0xFF, 0xFF, 0xFF, 0x0F, 0xFF, 0xFF, 0xFF, 0x07, 0xFE, 0xFF, 0xFF, 
  0x07, 0xFE, 0xFF, 0xFF, 0x07, 0xFE, 0xFF, 0xFF, 0x0F, 0xFF, 0xFF, 0xFF, 
  0xFF, 0xFF, 0xFF, 0xFF, 0xFF, 0xFF, 0xFF, 0xFF, 0xFF, 0xFF, 0xFF, 0xFF, 
  0xFF, 0xFF, 0xFF, 0xFF, 0xFF, 0xFF, 0xFF, 0xFF, 0xFF, 0xFF, 0xFF, 0xFF, 
  0xFF, 0xFF, 0xFF, 0xFF, 0xFF, 0xFF, 0xFF, 0xFF, 0xFF, 0xFF, 0xFF, 0xFF, 
  0xFF, 0xFF, 0xFF, 0xFF, 0xFF, 0xFF, 0xFF, 0xFF, 0xFF, 0x81, 0xFF, 0xFF, 
  0x7F, 0x00, 0xFE, 0xFF, 0x1F, 0x00, 0xFC, 0xFF, 0x0F, 0x00, 0xF8, 0xFF, 
  0x0F, 0x7E, 0xF0, 0xFF, 0x07, 0xFF, 0xE0, 0xFF, 0x83, 0xFF, 0xE1, 0xFF, 
  0xC3, 0xE1, 0xE1, 0xFF, 0xC3, 0x00, 0xC1, 0xFF, 0xC1, 0x00, 0xC3, 0xFF, 
  0x61, 0x00, 0xC3, 0xFF, 0x61, 0x18, 0xC3, 0xFF, 0x61, 0x18, 0xC3, 0xFF, 
  0x61, 0x00, 0xE1, 0xFF, 0x61, 0x00, 0xE1, 0xFF, 0x41, 0x00, 0xE0, 0xFF, 
  0xC1, 0x00, 0xF0, 0xFF, 0x81, 0x1B, 0xF8, 0xFF, 0x83, 0x3F, 0xFE, 0xFF, 
  0x03, 0xFE, 0xFF, 0xFF, 0x07, 0xC0, 0xFF, 0xFF, 0x0F, 0xC0, 0xFF, 0xFF, 
  0x1F, 0xC0, 0xFF, 0xFF, 0x7F, 0xC0, 0xFF, 0xFF, 0xFF, 0xFF, 0xFF, 0xFF, 
  0xFF, 0xFF, 0xFF, 0xFF, 0xFF, 0xFF, 0xFF, 0xFF, 0xFF, 0xFF, 0xFF, 0xFF, 
  0xFF, 0xFF, 0xFF, 0xFF, 0xFF, 0xFF, 0xFF, 0xFF, 0xFF, 0xFF, 0xFF, 0xFF, 
  0xFF, 0xFF, 0xFF, 0xFF, 0x7F, 0xF8, 0xFF, 0xFF, 0x1F, 0xF0, 0xFF, 0xFF, 
  0x1F, 0xF0, 0xFF, 0xFF, 0x0F, 0xE0, 0xFF, 0xFF, 0x0F, 0xE0, 0xFF, 0xFF, 
  0x07, 0xE0, 0xFF, 0xFF, 0x07, 0xC0, 0xFF, 0xFF, 0x07, 0xC0, 0xFF, 0xFF, 
  0x03, 0xC1, 0xFF, 0xFF, 0x03, 0x81, 0xFF, 0xFF, 0x83, 0x83, 0xFF, 0xFF, 
  0x81, 0x83, 0xFF, 0xFF, 0x01, 0x00, 0xFF, 0xFF, 0x01, 0x00, 0xFF, 0xFF, 
  0x01, 0x00, 0xFF, 0xFF, 0x01, 0x00, 0xFF, 0xFF, 0x80, 0x03, 0xFE, 0xFF, 
  0xC0, 0x07, 0xFE, 0xFF, 0xC0, 0x07, 0xFE, 0xFF, 0xE1, 0x0F, 0xFF, 0xFF, 
  0xFF, 0x8F, 0xFF, 0xFF, 0xFF, 0xFF, 0xFF, 0xFF, 0xFF, 0xFF, 0xFF, 0xFF, 
  0xFF, 0xFF, 0xFF, 0xFF, 0xFF, 0xFF, 0xFF, 0xFF, 0xFF, 0xFF, 0xFF, 0xFF, 
  0xFF, 0xFF, 0xFF, 0xFF, 0xFF, 0xFF, 0xFF, 0xFF, 0xFF, 0xFF, 0xFF, 0xFF, 
  0xFF, 0xFF, 0xFF, 0xFF, 0xFF, 0xFF, 0xFF, 0xFF, 0xFF, 0xFF, 0xFF, 0xFF, 
  0x0F, 0xFC, 0xFF, 0xFF, 0x03, 0xF0, 0xFF, 0xFF, 0x03, 0xF0, 0xFF, 0xFF, 
  0x01, 0xE0, 0xFF, 0xFF, 0x01, 0xE0, 0xFF, 0xFF, 0xC1, 0xE0, 0xFF, 0xFF, 
  0xC1, 0xE0, 0xFF, 0xFF, 0xC1, 0xF0, 0xFF, 0xFF, 0x01, 0xF0, 0xFF, 0xFF, 
  0x01, 0xE0, 0xFF, 0xFF, 0x01, 0x80, 0xFF, 0xFF, 0x01, 0x80, 0xFF, 0xFF, 
  0x81, 0x00, 0xFF, 0xFF, 0x81, 0x01, 0xFF, 0xFF, 0x81, 0x01, 0xFF, 0xFF, 
  0x81, 0x00, 0xFF, 0xFF, 0x03, 0x80, 0xFF, 0xFF, 0x03, 0xC0, 0xFF, 0xFF, 
  0x03, 0xE0, 0xFF, 0xFF, 0x03, 0xF0, 0xFF, 0xFF, 0x07, 0xFE, 0xFF, 0xFF, 
  0xFF, 0xFF, 0xFF, 0xFF, 0xFF, 0xFF, 0xFF, 0xFF, 0xFF, 0xFF, 0xFF, 0xFF, 
  0xFF, 0xFF, 0xFF, 0xFF, 0xFF, 0xFF, 0xFF, 0xFF, 0xFF, 0xFF, 0xFF, 0xFF, 
  0xFF, 0xFF, 0xFF, 0xFF, 0xFF, 0xFF, 0xFF, 0xFF, 0xFF, 0xFF, 0xFF, 0xFF, 
  0xFF, 0xFF, 0xFF, 0xFF, 0xFF, 0xFF, 0xFF, 0xFF, 0x3F, 0xF8, 0xFF, 0xFF, 
  0x0F, 0xE0, 0xFF, 0xFF, 0x07, 0xC0, 0xFF, 0xFF, 0x03, 0xC0, 0xFF, 0xFF, 
  0x03, 0xC0, 0xFF, 0xFF, 0x81, 0xC1, 0xFF, 0xFF, 0xC1, 0xC1, 0xFF, 0xFF, 
  0xC1, 0xFF, 0xFF, 0xFF, 0xC1, 0xFF, 0xFF, 0xFF, 0xC0, 0xFF, 0xFF, 0xFF, 
  0xC0, 0xFF, 0xFF, 0xFF, 0xC1, 0xC3, 0xFF, 0xFF, 0xC1, 0xC3, 0xFF, 0xFF, 
  0x81, 0x81, 0xFF, 0xFF, 0x01, 0x80, 0xFF, 0xFF, 0x03, 0xC0, 0xFF, 0xFF, 
  0x03, 0xC0, 0xFF, 0xFF, 0x07, 0xE0, 0xFF, 0xFF, 0x0F, 0xE0, 0xFF, 0xFF, 
  0x3F, 0xF8, 0xFF, 0xFF, 0xFF, 0xFF, 0xFF, 0xFF, 0xFF, 0xFF, 0xFF, 0xFF, 
  0xFF, 0xFF, 0xFF, 0xFF, 0xFF, 0xFF, 0xFF, 0xFF, 0xFF, 0xFF, 0xFF, 0xFF, 
  0xFF, 0xFF, 0xFF, 0xFF, 0xFF, 0xFF, 0xFF, 0xFF, 0xFF, 0xFF, 0xFF, 0xFF, 
  0xFF, 0xFF, 0xFF, 0xFF, 0xFF, 0xFF, 0xFF, 0xFF, 0xFF, 0xFF, 0xFF, 0xFF, 
  0xFF, 0xFF, 0xFF, 0xFF, 0x07, 0xFF, 0xFF, 0xFF, 0x03, 0xFC, 0xFF, 0xFF, 
  0x03, 0xF0, 0xFF, 0xFF, 0x03, 0xE0, 0xFF, 0xFF, 0x03, 0xE0, 0xFF, 0xFF, 
  0x01, 0xC0, 0xFF, 0xFF, 0x01, 0xC0, 0xFF, 0xFF, 0xC1, 0x80, 0xFF, 0xFF, 
  0xC1, 0x80, 0xFF, 0xFF, 0xC1, 0x80, 0xFF, 0xFF, 0xC1, 0x80, 0xFF, 0xFF, 
  0xC1, 0xC0, 0xFF, 0xFF, 0x41, 0xC0, 0xFF, 0xFF, 0x01, 0xC0, 0xFF, 0xFF, 
  0x01, 0xE0, 0xFF, 0xFF, 0x01, 0xE0, 0xFF, 0xFF, 0x01, 0xF0, 0xFF, 0xFF, 
  0x01, 0xF8, 0xFF, 0xFF, 0x03, 0xFE, 0xFF, 0xFF, 0x83, 0xFF, 0xFF, 0xFF, 
  0xFF, 0xFF, 0xFF, 0xFF, 0xFF, 0xFF, 0xFF, 0xFF, 0xFF, 0xFF, 0xFF, 0xFF, 
  0xFF, 0xFF, 0xFF, 0xFF, 0xFF, 0xFF, 0xFF, 0xFF, 0xFF, 0xFF, 0xFF, 0xFF, 
  0xFF, 0xFF, 0xFF, 0xFF, 0xFF, 0xFF, 0xFF, 0xFF, 0xFF, 0xFF, 0xFF, 0xFF, 
  0xFF, 0xFF, 0xFF, 0xFF, 0xFF, 0xFF, 0xFF, 0xFF, 0xFF, 0xFF, 0xFF, 0xFF, 
  0x0F, 0xF8, 0xFF, 0xFF, 0x03, 0xF0, 0xFF, 0xFF, 0x03, 0xE0, 0xFF, 0xFF, 
  0x01, 0xE0, 0xFF, 0xFF, 0x01, 0xE0, 0xFF, 0xFF, 0xC1, 0xFF, 0xFF, 0xFF, 
  0xC1, 0xFF, 0xFF, 0xFF, 0xC1, 0xFF, 0xFF, 0xFF, 0x01, 0xF8, 0xFF, 0xFF, 
  0x01, 0xF0, 0xFF, 0xFF, 0x01, 0xF0, 0xFF, 0xFF, 0x01, 0xF8, 0xFF, 0xFF, 
  0xC1, 0xFF, 0xFF, 0xFF, 0xC1, 0xFF, 0xFF, 0xFF, 0x01, 0xE0, 0xFF, 0xFF, 
  0x03, 0xC0, 0xFF, 0xFF, 0x03, 0xC0, 0xFF, 0xFF, 0x03, 0xC0, 0xFF, 0xFF, 
  0x07, 0xE0, 0xFF, 0xFF, 0x0F, 0xF0, 0xFF, 0xFF, 0xFF, 0xFF, 0xFF, 0xFF, 
  0xFF, 0xFF, 0xFF, 0xFF, 0xFF, 0xFF, 0xFF, 0xFF, 0xFF, 0xFF, 0xFF, 0xFF, 
  0xFF, 0xFF, 0xFF, 0xFF, 0xFF, 0xFF, 0xFF, 0xFF, 0xFF, 0xFF, 0xFF, 0xFF, 
  0xFF, 0xFF, 0xFF, 0xFF, 0xFF, 0xFF, 0xFF, 0xFF, 0xFF, 0xFF, 0xFF, 0xFF, 
  0xFF, 0xFF, 0xFF, 0xFF, 0xFF, 0xFF, 0xFF, 0xFF, 0x1F, 0xF0, 0xFF, 0xFF, 
  0x07, 0xE0, 0xFF, 0xFF, 0x03, 0xE0, 0xFF, 0xFF, 0x03, 0xE0, 0xFF, 0xFF, 
  0x01, 0xF0, 0xFF, 0xFF, 0x01, 0xFF, 0xFF, 0xFF, 0x81, 0xFF, 0xFF, 0xFF, 
  0x01, 0xF8, 0xFF, 0xFF, 0x01, 0xF8, 0xFF, 0xFF, 0x01, 0xF8, 0xFF, 0xFF, 
  0x01, 0xF8, 0xFF, 0xFF, 0x01, 0xF8, 0xFF, 0xFF, 0x81, 0xFF, 0xFF, 0xFF, 
  0x81, 0xFF, 0xFF, 0xFF, 0x81, 0xFF, 0xFF, 0xFF, 0x81, 0xFF, 0xFF, 0xFF, 
  0x81, 0xFF, 0xFF, 0xFF, 0x83, 0xFF, 0xFF, 0xFF, 0x83, 0xFF, 0xFF, 0xFF, 
  0x83, 0xFF, 0xFF, 0xFF, 0xC7, 0xFF, 0xFF, 0xFF, 0xFF, 0xFF, 0xFF, 0xFF, 
  0xFF, 0xFF, 0xFF, 0xFF, 0xFF, 0xFF, 0xFF, 0xFF, 0xFF, 0xFF, 0xFF, 0xFF, 
  0xFF, 0xFF, 0xFF, 0xFF, 0xFF, 0xFF, 0xFF, 0xFF, 0xFF, 0xFF, 0xFF, 0xFF, 
  0xFF, 0xFF, 0xFF, 0xFF, 0xFF, 0xFF, 0xFF, 0xFF, 0xFF, 0xFF, 0xFF, 0xFF, 
  0xFF, 0xFF, 0xFF, 0xFF, 0x7F, 0xF0, 0xFF, 0xFF, 0x1F, 0xC0, 0xFF, 0xFF, 
  0x0F, 0xC0, 0xFF, 0xFF, 0x07, 0xC0, 0xFF, 0xFF, 0x03, 0xC0, 0xFF, 0xFF, 
  0x83, 0xE3, 0xFF, 0xFF, 0x81, 0xFF, 0xFF, 0xFF, 0xC1, 0xFF, 0xFF, 0xFF, 
  0xC1, 0xC0, 0xFF, 0xFF, 0x41, 0x80, 0xFF, 0xFF, 0x41, 0x80, 0xFF, 0xFF, 
  0xC1, 0x80, 0xFF, 0xFF, 0xC1, 0x81, 0xFF, 0xFF, 0x81, 0x87, 0xFF, 0xFF, 
  0x81, 0x87, 0xFF, 0xFF, 0x01, 0x81, 0xFF, 0xFF, 0x03, 0xC0, 0xFF, 0xFF, 
  0x03, 0xC0, 0xFF, 0xFF, 0x07, 0xE0, 0xFF, 0xFF, 0x0F, 0xF0, 0xFF, 0xFF, 
  0x1F, 0xFC, 0xFF, 0xFF, 0xFF, 0xFF, 0xFF, 0xFF, 0xFF, 0xFF, 0xFF, 0xFF, 
  0xFF, 0xFF, 0xFF, 0xFF, 0xFF, 0xFF, 0xFF, 0xFF, 0xFF, 0xFF, 0xFF, 0xFF, 
  0xFF, 0xFF, 0xFF, 0xFF, 0xFF, 0xFF, 0xFF, 0xFF, 0xFF, 0xFF, 0xFF, 0xFF, 
  0xFF, 0xFF, 0xFF, 0xFF, 0xFF, 0xFF, 0xFF, 0xFF, 0xFF, 0xFF, 0xFF, 0xFF, 
  0xC3, 0xC7, 0xFF, 0xFF, 0x81, 0x83, 0xFF, 0xFF, 0x81, 0x83, 0xFF, 0xFF, 
  0x81, 0x83, 0xFF, 0xFF, 0x81, 0x83, 0xFF, 0xFF, 0x81, 0x83, 0xFF, 0xFF, 
  0x81, 0x83, 0xFF, 0xFF, 0x81, 0x83, 0xFF, 0xFF, 0x81, 0x03, 0xFF, 0xFF, 
  0x01, 0x00, 0xFF, 0xFF, 0x01, 0x00, 0xFF, 0xFF, 0x01, 0x00, 0xFF, 0xFF, 
  0x01, 0x00, 0xFF, 0xFF, 0x01, 0x00, 0xFF, 0xFF, 0x81, 0x03, 0xFF, 0xFF, 
  0x83, 0x03, 0xFF, 0xFF, 0x83, 0x03, 0xFF, 0xFF, 0x83, 0x03, 0xFF, 0xFF, 
  0x83, 0x07, 0xFF, 0xFF, 0x83, 0x07, 0xFF, 0xFF, 0xC7, 0x87, 0xFF, 0xFF, 
  0xFF, 0xFF, 0xFF, 0xFF, 0xFF, 0xFF, 0xFF, 0xFF, 0xFF, 0xFF, 0xFF, 0xFF, 
  0xFF, 0xFF, 0xFF, 0xFF, 0xFF, 0xFF, 0xFF, 0xFF, 0xFF, 0xFF, 0xFF, 0xFF, 
  0xFF, 0xFF, 0xFF, 0xFF, 0xFF, 0xFF, 0xFF, 0xFF, 0xFF, 0xFF, 0xFF, 0xFF, 
  0xFF, 0xFF, 0xFF, 0xFF, 0xFF, 0xFF, 0xFF, 0xFF, 0xC3, 0xFF, 0xFF, 0xFF, 
  0xC1, 0xFF, 0xFF, 0xFF, 0xC1, 0xFF, 0xFF, 0xFF, 0xC1, 0xFF, 0xFF, 0xFF, 
  0xC1, 0xFF, 0xFF, 0xFF, 0x81, 0xFF, 0xFF, 0xFF, 0x81, 0xFF, 0xFF, 0xFF, 
  0x81, 0xFF, 0xFF, 0xFF, 0x81, 0xFF, 0xFF, 0xFF, 0x81, 0xFF, 0xFF, 0xFF, 
  0x81, 0xFF, 0xFF, 0xFF, 0x81, 0xFF, 0xFF, 0xFF, 0x81, 0xFF, 0xFF, 0xFF, 
  0x81, 0xFF, 0xFF, 0xFF, 0x81, 0xFF, 0xFF, 0xFF, 0x81, 0xFF, 0xFF, 0xFF, 
  0x81, 0xFF, 0xFF, 0xFF, 0x83, 0xFF, 0xFF, 0xFF, 0x83, 0xFF, 0xFF, 0xFF, 
  0xC3, 0xFF, 0xFF, 0xFF, 0xFF, 0xFF, 0xFF, 0xFF, 0xFF, 0xFF, 0xFF, 0xFF, 
  0xFF, 0xFF, 0xFF, 0xFF, 0xFF, 0xFF, 0xFF, 0xFF, 0xFF, 0xFF, 0xFF, 0xFF, 
  0xFF, 0xFF, 0xFF, 0xFF, 0xFF, 0xFF, 0xFF, 0xFF, 0xFF, 0xFF, 0xFF, 0xFF, 
  0xFF, 0xFF, 0xFF, 0xFF, 0xFF, 0xFF, 0xFF, 0xFF, 0xFF, 0xFF, 0xFF, 0xFF, 
  0xFF, 0xFF, 0xFF, 0xFF, 0x1F, 0xC0, 0xFF, 0xFF, 0x03, 0xC0, 0xFF, 0xFF, 
  0x03, 0xC0, 0xFF, 0xFF, 0x03, 0xC0, 0xFF, 0xFF, 0x07, 0xC0, 0xFF, 0xFF, 
  0x7F, 0xF0, 0xFF, 0xFF, 0x7F, 0xF0, 0xFF, 0xFF, 0x7F, 0xF0, 0xFF, 0xFF, 
  0x7F, 0xF0, 0xFF, 0xFF, 0x7F, 0xF0, 0xFF, 0xFF, 0x7F, 0xF0, 0xFF, 0xFF, 
  0x73, 0xF0, 0xFF, 0xFF, 0x60, 0xF0, 0xFF, 0xFF, 0x60, 0xF0, 0xFF, 0xFF, 
  0x60, 0xF0, 0xFF, 0xFF, 0x00, 0xF0, 0xFF, 0xFF, 0x01, 0xF8, 0xFF, 0xFF, 
  0x01, 0xF8, 0xFF, 0xFF, 0x03, 0xF8, 0xFF, 0xFF, 0x07, 0xFC, 0xFF, 0xFF, 
  0x0F, 0xFE, 0xFF, 0xFF, 0xFF, 0xFF, 0xFF, 0xFF, 0xFF, 0xFF, 0xFF, 0xFF, 
  0xFF, 0xFF, 0xFF, 0xFF, 0xFF, 0xFF, 0xFF, 0xFF, 0xFF, 0xFF, 0xFF, 0xFF, 
  0xFF, 0xFF, 0xFF, 0xFF, 0xFF, 0xFF, 0xFF, 0xFF, 0xFF, 0xFF, 0xFF, 0xFF, 
  0xFF, 0xFF, 0xFF, 0xFF, 0xFF, 0xFF, 0xFF, 0xFF, 0xFF, 0xFF, 0xFF, 0xFF, 
  0xC3, 0xE7, 0xFF, 0xFF, 0xC3, 0xC1, 0xFF, 0xFF, 0xC1, 0xC0, 0xFF, 0xFF, 
  0xC1, 0xC0, 0xFF, 0xFF, 0x01, 0xE0, 0xFF, 0xFF, 0x01, 0xF0, 0xFF, 0xFF, 
  0x01, 0xF8, 0xFF, 0xFF, 0x01, 0xFC, 0xFF, 0xFF, 0x01, 0xFC, 0xFF, 0xFF, 
  0x01, 0xE0, 0xFF, 0xFF, 0x01, 0xC0, 0xFF, 0xFF, 0x01, 0x80, 0xFF, 0xFF, 
  0x01, 0x80, 0xFF, 0xFF, 0x01, 0x00, 0xFF, 0xFF, 0x81, 0x01, 0xFF, 0xFF, 
  0x83, 0x03, 0xFF, 0xFF, 0x83, 0x07, 0xFF, 0xFF, 0x83, 0x07, 0xFF, 0xFF, 
  0x83, 0xCF, 0xFF, 0xFF, 0x83, 0xFF, 0xFF, 0xFF, 0x87, 0xFF, 0xFF, 0xFF, 
  0xFF, 0xFF, 0xFF, 0xFF, 0xFF, 0xFF, 0xFF, 0xFF, 0xFF, 0xFF, 0xFF, 0xFF, 
  0xFF, 0xFF, 0xFF, 0xFF, 0xFF, 0xFF, 0xFF, 0xFF, 0xFF, 0xFF, 0xFF, 0xFF, 
  0xFF, 0xFF, 0xFF, 0xFF, 0xFF, 0xFF, 0xFF, 0xFF, 0xFF, 0xFF, 0xFF, 0xFF, 
  0xFF, 0xFF, 0xFF, 0xFF, 0xFF, 0xFF, 0xFF, 0xFF, 0x83, 0xFF, 0xFF, 0xFF, 
  0x83, 0xFF, 0xFF, 0xFF, 0x83, 0xFF, 0xFF, 0xFF, 0x83, 0xFF, 0xFF, 0xFF, 
  0x81, 0xFF, 0xFF, 0xFF, 0x81, 0xFF, 0xFF, 0xFF, 0x81, 0xFF, 0xFF, 0xFF, 
  0x81, 0xFF, 0xFF, 0xFF, 0x81, 0xFF, 0xFF, 0xFF, 0x81, 0xFF, 0xFF, 0xFF, 
  0x81, 0xFF, 0xFF, 0xFF, 0x81, 0xFF, 0xFF, 0xFF, 0x81, 0xFF, 0xFF, 0xFF, 
  0x81, 0xFF, 0xFF, 0xFF, 0x81, 0xE1, 0xFF, 0xFF, 0x01, 0xC0, 0xFF, 0xFF, 
  0x01, 0xC0, 0xFF, 0xFF, 0x03, 0xC0, 0xFF, 0xFF, 0x03, 0xE0, 0xFF, 0xFF, 
  0x0F, 0xF8, 0xFF, 0xFF, 0xFF, 0xFF, 0xFF, 0xFF, 0xFF, 0xFF, 0xFF, 0xFF, 
  0xFF, 0xFF, 0xFF, 0xFF, 0xFF, 0xFF, 0xFF, 0xFF, 0xFF, 0xFF, 0xFF, 0xFF, 
  0xFF, 0xFF, 0xFF, 0xFF, 0xFF, 0xFF, 0xFF, 0xFF, 0xFF, 0xFF, 0xFF, 0xFF, 
  0xFF, 0xFF, 0xFF, 0xFF, 0xFF, 0xFF, 0xFF, 0xFF, 0xFF, 0xFF, 0xFF, 0xFF, 
  0xFF, 0xFF, 0xFF, 0xFF, 0x87, 0x3F, 0xFC, 0xFF, 0x83, 0x1F, 0xFC, 0xFF, 
  0x01, 0x1F, 0xFC, 0xFF, 0x01, 0x0F, 0xFC, 0xFF, 0x01, 0x0F, 0xF8, 0xFF, 
  0x01, 0x0E, 0xF8, 0xFF, 0x01, 0x06, 0xF8, 0xFF, 0x01, 0x04, 0xF8, 0xFF, 
  0x01, 0x00, 0xF8, 0xFF, 0x01, 0x00, 0xF8, 0xFF, 0x01, 0x00, 0xF8, 0xFF, 
  0x01, 0x20, 0xF8, 0xFF, 0x41, 0x20, 0xF8, 0xFF, 0x41, 0x20, 0xF8, 0xFF, 
  0xC1, 0x30, 0xF8, 0xFF, 0xC1, 0x31, 0xF8, 0xFF, 0xC1, 0x3F, 0xF8, 0xFF, 
  0xC1, 0x3F, 0xF8, 0xFF, 0xC1, 0x3F, 0xF8, 0xFF, 0xC3, 0x7F, 0xFC, 0xFF, 
  0xFF, 0xFF, 0xFF, 0xFF, 0xFF, 0xFF, 0xFF, 0xFF, 0xFF, 0xFF, 0xFF, 0xFF, 
  0xFF, 0xFF, 0xFF, 0xFF, 0xFF, 0xFF, 0xFF, 0xFF, 0xFF, 0xFF, 0xFF, 0xFF, 
  0xFF, 0xFF, 0xFF, 0xFF, 0xFF, 0xFF, 0xFF, 0xFF, 0xFF, 0xFF, 0xFF, 0xFF, 
  0xFF, 0xFF, 0xFF, 0xFF, 0xFF, 0xFF, 0xFF, 0xFF, 0xFF, 0xFF, 0xFF, 0xFF, 
  0xC7, 0x0F, 0xFF, 0xFF, 0x83, 0x0F, 0xFF, 0xFF, 0x81, 0x0F, 0xFE, 0xFF, 
  0x01, 0x0F, 0xFE, 0xFF, 0x01, 0x07, 0xFE, 0xFF, 0x01, 0x06, 0xFE, 0xFF, 
  0x01, 0x06, 0xFE, 0xFF, 0x01, 0x04, 0xFE, 0xFF, 0x01, 0x00, 0xFE, 0xFF, 
  0x01, 0x00, 0xFE, 0xFF, 0x01, 0x00, 0xFE, 0xFF, 0x01, 0x00, 0xFE, 0xFF, 
  0x81, 0x00, 0xFE, 0xFF, 0x81, 0x00, 0xFE, 0xFF, 0x81, 0x01, 0xFE, 0xFF, 
  0x83, 0x01, 0xFE, 0xFF, 0x83, 0x03, 0xFE, 0xFF, 0x83, 0x07, 0xFE, 0xFF, 
  0x83, 0x07, 0xFF, 0xFF, 0x87, 0x8F, 0xFF, 0xFF, 0xFF, 0xFF, 0xFF, 0xFF, 
  0xFF, 0xFF, 0xFF, 0xFF, 0xFF, 0xFF, 0xFF, 0xFF, 0xFF, 0xFF, 0xFF, 0xFF, 
  0xFF, 0xFF, 0xFF, 0xFF, 0xFF, 0xFF, 0xFF, 0xFF, 0xFF, 0xFF, 0xFF, 0xFF, 
  0xFF, 0xFF, 0xFF, 0xFF, 0xFF, 0xFF, 0xFF, 0xFF, 0xFF, 0xFF, 0xFF, 0xFF, 
  0xFF, 0xFF, 0xFF, 0xFF, 0xFF, 0xFF, 0xFF, 0xFF, 0x3F, 0xF8, 0xFF, 0xFF, 
  0x0F, 0xE0, 0xFF, 0xFF, 0x07, 0xC0, 0xFF, 0xFF, 0x03, 0x80, 0xFF, 0xFF, 
  0x03, 0x80, 0xFF, 0xFF, 0x01, 0x00, 0xFF, 0xFF, 0x81, 0x01, 0xFF, 0xFF, 
  0x81, 0x03, 0xFF, 0xFF, 0xC1, 0x03, 0xFF, 0xFF, 0xC1, 0x03, 0xFF, 0xFF, 
  0xC0, 0x03, 0xFF, 0xFF, 0x81, 0x03, 0xFF, 0xFF, 0x81, 0x03, 0xFF, 0xFF, 
  0x81, 0x01, 0xFF, 0xFF, 0x01, 0x80, 0xFF, 0xFF, 0x03, 0x80, 0xFF, 0xFF, 
  0x03, 0x80, 0xFF, 0xFF, 0x07, 0xC0, 0xFF, 0xFF, 0x0F, 0xE0, 0xFF, 0xFF, 
  0x3F, 0xF8, 0xFF, 0xFF, 0xFF, 0xFF, 0xFF, 0xFF, 0xFF, 0xFF, 0xFF, 0xFF, 
  0xFF, 0xFF, 0xFF, 0xFF, 0xFF, 0xFF, 0xFF, 0xFF, 0xFF, 0xFF, 0xFF, 0xFF, 
  0xFF, 0xFF, 0xFF, 0xFF, 0xFF, 0xFF, 0xFF, 0xFF, 0xFF, 0xFF, 0xFF, 0xFF, 
  0xFF, 0xFF, 0xFF, 0xFF, 0xFF, 0xFF, 0xFF, 0xFF, 0xFF, 0xFF, 0xFF, 0xFF, 
  0xFF, 0xFF, 0xFF, 0xFF, 0x0F, 0xFC, 0xFF, 0xFF, 0x07, 0xF0, 0xFF, 0xFF, 
  0x03, 0xE0, 0xFF, 0xFF, 0x03, 0xE0, 0xFF, 0xFF, 0x03, 0xC0, 0xFF, 0xFF, 
  0x81, 0xC0, 0xFF, 0xFF, 0x81, 0xC1, 0xFF, 0xFF, 0x81, 0xC0, 0xFF, 0xFF, 
  0x81, 0xC0, 0xFF, 0xFF, 0x01, 0xC0, 0xFF, 0xFF, 0x01, 0xE0, 0xFF, 0xFF, 
  0x01, 0xF0, 0xFF, 0xFF, 0x01, 0xF8, 0xFF, 0xFF, 0x01, 0xFF, 0xFF, 0xFF, 
  0x81, 0xFF, 0xFF, 0xFF, 0x81, 0xFF, 0xFF, 0xFF, 0x81, 0xFF, 0xFF, 0xFF, 
  0x81, 0xFF, 0xFF, 0xFF, 0x83, 0xFF, 0xFF, 0xFF, 0x83, 0xFF, 0xFF, 0xFF, 
  0x87, 0xFF, 0xFF, 0xFF, 0xFF, 0xFF, 0xFF, 0xFF, 0xFF, 0xFF, 0xFF, 0xFF, 
  0xFF, 0xFF, 0xFF, 0xFF, 0xFF, 0xFF, 0xFF, 0xFF, 0xFF, 0xFF, 0xFF, 0xFF, 
  0xFF, 0xFF, 0xFF, 0xFF, 0xFF, 0xFF, 0xFF, 0xFF, 0xFF, 0xFF, 0xFF, 0xFF, 
  0xFF, 0xFF, 0xFF, 0xFF, 0xFF, 0xFF, 0xFF, 0xFF, 0xFF, 0xFF, 0xFF, 0xFF, 
  0x1F, 0xF8, 0xFF, 0xFF, 0x0F, 0xF0, 0xFF, 0xFF, 0x07, 0xE0, 0xFF, 0xFF, 
  0x03, 0xC0, 0xFF, 0xFF, 0x01, 0xC0, 0xFF, 0xFF, 0x01, 0x81, 0xFF, 0xFF, 
  0x81, 0x83, 0xFF, 0xFF, 0xC1, 0x83, 0xFF, 0xFF, 0xC0, 0x83, 0xFF, 0xFF, 
  0xC0, 0x83, 0xFF, 0xFF, 0xC0, 0x83, 0xFF, 0xFF, 0xC1, 0x83, 0xFF, 0xFF, 
  0xC1, 0x83, 0xFF, 0xFF, 0x81, 0x81, 0xFF, 0xFF, 0x01, 0xC0, 0xFF, 0xFF, 
  0x03, 0xC0, 0xFF, 0xFF, 0x07, 0xC0, 0xFF, 0xFF, 0x07, 0x80, 0xFF, 0xFF, 
  0x1F, 0x00, 0xFE, 0xFF, 0xFF, 0x0F, 0xFE, 0xFF, 0xFF, 0x1F, 0xFE, 0xFF, 
  0xFF, 0xFF, 0xFF, 0xFF, 0xFF, 0xFF, 0xFF, 0xFF, 0xFF, 0xFF, 0xFF, 0xFF, 
  0xFF, 0xFF, 0xFF, 0xFF, 0xFF, 0xFF, 0xFF, 0xFF, 0xFF, 0xFF, 0xFF, 0xFF, 
  0xFF, 0xFF, 0xFF, 0xFF, 0xFF, 0xFF, 0xFF, 0xFF, 0xFF, 0xFF, 0xFF, 0xFF, 
  0xFF, 0xFF, 0xFF, 0xFF, 0xFF, 0xFF, 0xFF, 0xFF, 0x1F, 0xF8, 0xFF, 0xFF, 
  0x07, 0xF0, 0xFF, 0xFF, 0x03, 0xE0, 0xFF, 0xFF, 0x03, 0xC0, 0xFF, 0xFF, 
  0x03, 0xC0, 0xFF, 0xFF, 0x01, 0x80, 0xFF, 0xFF, 0x81, 0x80, 0xFF, 0xFF, 
  0x81, 0x81, 0xFF, 0xFF, 0x81, 0xC0, 0xFF, 0xFF, 0x81, 0xC0, 0xFF, 0xFF, 
  0x01, 0xE0, 0xFF, 0xFF, 0x01, 0xF0, 0xFF, 0xFF, 0x01, 0xE0, 0xFF, 0xFF, 
  0x01, 0xC0, 0xFF, 0xFF, 0x81, 0x80, 0xFF, 0xFF, 0x81, 0x80, 0xFF, 0xFF, 
  0x81, 0x81, 0xFF, 0xFF, 0x81, 0x81, 0xFF, 0xFF, 0x81, 0x81, 0xFF, 0xFF, 
  0xC3, 0xC3, 0xFF, 0xFF, 0xC3, 0xFF, 0xFF, 0xFF, 0xFF, 0xFF, 0xFF, 0xFF, 
  0xFF, 0xFF, 0xFF, 0xFF, 0xFF, 0xFF, 0xFF, 0xFF, 0xFF, 0xFF, 0xFF, 0xFF, 
  0xFF, 0xFF, 0xFF, 0xFF, 0xFF, 0xFF, 0xFF, 0xFF, 0xFF, 0xFF, 0xFF, 0xFF, 
  0xFF, 0xFF, 0xFF, 0xFF, 0xFF, 0xFF, 0xFF, 0xFF, 0xFF, 0xFF, 0xFF, 0xFF, 
  0xFF, 0xFF, 0xFF, 0xFF, 0x3F, 0xF0, 0xFF, 0xFF, 0x0F, 0xC0, 0xFF, 0xFF, 
  0x07, 0x80, 0xFF, 0xFF, 0x03, 0x80, 0xFF, 0xFF, 0x01, 0x80, 0xFF, 0xFF, 
  0x01, 0xC0, 0xFF, 0xFF, 0x01, 0xFF, 0xFF, 0xFF, 0x81, 0xFF, 0xFF, 0xFF, 
  0x01, 0xFC, 0xFF, 0xFF, 0x03, 0xE0, 0xFF, 0xFF, 0x03, 0xC0, 0xFF, 0xFF, 
  0x0F, 0x80, 0xFF, 0xFF, 0x7F, 0x80, 0xFF, 0xFF, 0xF3, 0x01, 0xFF, 0xFF, 
  0x01, 0x00, 0xFF, 0xFF, 0x01, 0x00, 0xFF, 0xFF, 0x01, 0x80, 0xFF, 0xFF, 
  0x01, 0x80, 0xFF, 0xFF, 0x01, 0xC0, 0xFF, 0xFF, 0x03, 0xE0, 0xFF, 0xFF, 
  0x0F, 0xFC, 0xFF, 0xFF, 0xFF, 0xFF, 0xFF, 0xFF, 0xFF, 0xFF, 0xFF, 0xFF, 
  0xFF, 0xFF, 0xFF, 0xFF, 0xFF, 0xFF, 0xFF, 0xFF, 0xFF, 0xFF, 0xFF, 0xFF, 
  0xFF, 0xFF, 0xFF, 0xFF, 0xFF, 0xFF, 0xFF, 0xFF, 0xFF, 0xFF, 0xFF, 0xFF, 
  0xFF, 0xFF, 0xFF, 0xFF, 0xFF, 0xFF, 0xFF, 0xFF, 0xFF, 0xFF, 0xFF, 0xFF, 
  0x03, 0x00, 0xFF, 0xFF, 0x01, 0x00, 0xFE, 0xFF, 0x01, 0x00, 0xFE, 0xFF, 
  0x01, 0x00, 0xFE, 0xFF, 0x01, 0x00, 0xFE, 0xFF, 0x07, 0xE0, 0xFF, 0xFF, 
  0x7F, 0xF0, 0xFF, 0xFF, 0x7F, 0xF0, 0xFF, 0xFF, 0x7F, 0xF0, 0xFF, 0xFF, 
  0x7F, 0xF0, 0xFF, 0xFF, 0x7F, 0xF0, 0xFF, 0xFF, 0x7F, 0xF0, 0xFF, 0xFF, 
  0x7F, 0xF0, 0xFF, 0xFF, 0x7F, 0xF0, 0xFF, 0xFF, 0x7F, 0xF0, 0xFF, 0xFF, 
  0x7F, 0xF0, 0xFF, 0xFF, 0x7F, 0xF0, 0xFF, 0xFF, 0x7F, 0xF0, 0xFF, 0xFF, 
  0x7F, 0xF0, 0xFF, 0xFF, 0x7F, 0xF0, 0xFF, 0xFF, 0xFF, 0xF8, 0xFF, 0xFF, 
  0xFF, 0xFF, 0xFF, 0xFF, 0xFF, 0xFF, 0xFF, 0xFF, 0xFF, 0xFF, 0xFF, 0xFF, 
  0xFF, 0xFF, 0xFF, 0xFF, 0xFF, 0xFF, 0xFF, 0xFF, 0xFF, 0xFF, 0xFF, 0xFF, 
  0xFF, 0xFF, 0xFF, 0xFF, 0xFF, 0xFF, 0xFF, 0xFF, 0xFF, 0xFF, 0xFF, 0xFF, 
  0xFF, 0xFF, 0xFF, 0xFF, 0xFF, 0xFF, 0xFF, 0xFF, 0xC3, 0xE3, 0xFF, 0xFF, 
  0x83, 0xC1, 0xFF, 0xFF, 0x81, 0xC1, 0xFF, 0xFF, 0x81, 0xC1, 0xFF, 0xFF, 
  0xC1, 0x81, 0xFF, 0xFF, 0xC1, 0x81, 0xFF, 0xFF, 0xC1, 0x81, 0xFF, 0xFF, 
  0xC1, 0x83, 0xFF, 0xFF, 0xC1, 0x83, 0xFF, 0xFF, 0xC1, 0x81, 0xFF, 0xFF, 
  0x81, 0x81, 0xFF, 0xFF, 0x81, 0x81, 0xFF, 0xFF, 0x81, 0x81, 0xFF, 0xFF, 
  0x01, 0x80, 0xFF, 0xFF, 0x03, 0xC0, 0xFF, 0xFF, 0x03, 0xC0, 0xFF, 0xFF, 
  0x03, 0xE0, 0xFF, 0xFF, 0x07, 0xE0, 0xFF, 0xFF, 0x0F, 0xF0, 0xFF, 0xFF, 
  0x1F, 0xFC, 0xFF, 0xFF, 0xFF, 0xFF, 0xFF, 0xFF, 0xFF, 0xFF, 0xFF, 0xFF, 
  0xFF, 0xFF, 0xFF, 0xFF, 0xFF, 0xFF, 0xFF, 0xFF, 0xFF, 0xFF, 0xFF, 0xFF, 
  0xFF, 0xFF, 0xFF, 0xFF, 0xFF, 0xFF, 0xFF, 0xFF, 0xFF, 0xFF, 0xFF, 0xFF, 
  0xFF, 0xFF, 0xFF, 0xFF, 0xFF, 0xFF, 0xFF, 0xFF, 0xFF, 0xFF, 0xFF, 0xFF, 
  0xFF, 0xFF, 0xFF, 0xFF, 0xE3, 0x8F, 0xFF, 0xFF, 0xE0, 0x07, 0xFF, 0xFF, 
  0xC0, 0x07, 0xFE, 0xFF, 0xC0, 0x03, 0xFF, 0xFF, 0xC0, 0x03, 0xFF, 0xFF, 
  0x81, 0x03, 0xFF, 0xFF, 0x81, 0x81, 0xFF, 0xFF, 0x81, 0x81, 0xFF, 0xFF, 
  0x83, 0x81, 0xFF, 0xFF, 0x03, 0xC0, 0xFF, 0xFF, 0x03, 0xC0, 0xFF, 0xFF, 
  0x03, 0xC0, 0xFF, 0xFF, 0x07, 0xE0, 0xFF, 0xFF, 0x07, 0xE0, 0xFF, 0xFF, 
  0x0F, 0xF0, 0xFF, 0xFF, 0x0F, 0xF0, 0xFF, 0xFF, 0x0F, 0xF8, 0xFF, 0xFF, 
  0x1F, 0xF8, 0xFF, 0xFF, 0x1F, 0xFC, 0xFF, 0xFF, 0x3F, 0xFC, 0xFF, 0xFF, 
  0x7F, 0xFE, 0xFF, 0xFF, 0xFF, 0xFF, 0xFF, 0xFF, 0xFF, 0xFF, 0xFF, 0xFF, 
  0xFF, 0xFF, 0xFF, 0xFF, 0xFF, 0xFF, 0xFF, 0xFF, 0xFF, 0xFF, 0xFF, 0xFF, 
  0xFF, 0xFF, 0xFF, 0xFF, 0xFF, 0xFF, 0xFF, 0xFF, 0xFF, 0xFF, 0xFF, 0xFF, 
  0xFF, 0xFF, 0xFF, 0xFF, 0xFF, 0xFF, 0xFF, 0xFF, 0xFF, 0xFF, 0xFF, 0xFF, 
  0xC7, 0xFF, 0xF1, 0xFF, 0x83, 0xFF, 0xE0, 0xFF, 0x81, 0xFF, 0xE0, 0xFF, 
  0x81, 0xE3, 0xC0, 0xFF, 0x81, 0xE1, 0xC0, 0xFF, 0x81, 0xC1, 0xC0, 0xFF, 
  0x81, 0xC0, 0xC0, 0xFF, 0x81, 0xC0, 0xC0, 0xFF, 0xC1, 0xC0, 0xC0, 0xFF, 
  0xC1, 0x80, 0xC0, 0xFF, 0xC1, 0x80, 0xC0, 0xFF, 0x01, 0x00, 0xC0, 0xFF, 
  0x01, 0x00, 0xE0, 0xFF, 0x01, 0x00, 0xE0, 0xFF, 0x01, 0x00, 0xE0, 0xFF, 
  0x03, 0x00, 0xE0, 0xFF, 0x03, 0x08, 0xE0, 0xFF, 0x03, 0x1C, 0xE0, 0xFF, 
  0x07, 0x1C, 0xF0, 0xFF, 0x07, 0x3E, 0xF0, 0xFF, 0x0F, 0x7F, 0xF8, 0xFF, 
  0xFF, 0xFF, 0xFF, 0xFF, 0xFF, 0xFF, 0xFF, 0xFF, 0xFF, 0xFF, 0xFF, 0xFF, 
  0xFF, 0xFF, 0xFF, 0xFF, 0xFF, 0xFF, 0xFF, 0xFF, 0xFF, 0xFF, 0xFF, 0xFF, 
  0xFF, 0xFF, 0xFF, 0xFF, 0xFF, 0xFF, 0xFF, 0xFF, 0xFF, 0xFF, 0xFF, 0xFF, 
  0xFF, 0xFF, 0xFF, 0xFF, 0xFF, 0xFF, 0xFF, 0xFF, 0xE3, 0x8F, 0xFF, 0xFF, 
  0xC1, 0x07, 0xFF, 0xFF, 0xC1, 0x07, 0xFE, 0xFF, 0x81, 0x03, 0xFF, 0xFF, 
  0x01, 0x01, 0xFF, 0xFF, 0x03, 0x80, 0xFF, 0xFF, 0x07, 0xC0, 0xFF, 0xFF, 
  0x07, 0xC0, 0xFF, 0xFF, 0x0F, 0xE0, 0xFF, 0xFF, 0x1F, 0xF0, 0xFF, 0xFF, 
  0x1F, 0xF0, 0xFF, 0xFF, 0x0F, 0xE0, 0xFF, 0xFF, 0x0F, 0xC0, 0xFF, 0xFF, 
  0x07, 0xC0, 0xFF, 0xFF, 0x03, 0x80, 0xFF, 0xFF, 0x03, 0x01, 0xFF, 0xFF, 
  0x81, 0x03, 0xFE, 0xFF, 0x81, 0x03, 0xFE, 0xFF, 0xC1, 0x07, 0xFC, 0xFF, 
  0xC1, 0x0F, 0xFE, 0xFF, 0xE3, 0x1F, 0xFF, 0xFF, 0xFF, 0xFF, 0xFF, 0xFF, 
  0xFF, 0xFF, 0xFF, 0xFF, 0xFF, 0xFF, 0xFF, 0xFF, 0xFF, 0xFF, 0xFF, 0xFF, 
  0xFF, 0xFF, 0xFF, 0xFF, 0xFF, 0xFF, 0xFF, 0xFF, 0xFF, 0xFF, 0xFF, 0xFF, 
  0xFF, 0xFF, 0xFF, 0xFF, 0xFF, 0xFF, 0xFF, 0xFF, 0xFF, 0xFF, 0xFF, 0xFF, 
  0xFF, 0xFF, 0xFF, 0xFF, 0xE7, 0x1F, 0xFF, 0xFF, 0xC1, 0x0F, 0xFE, 0xFF, 
  0xC1, 0x0F, 0xFE, 0xFF, 0x81, 0x07, 0xFE, 0xFF, 0x01, 0x03, 0xFE, 0xFF, 
  0x03, 0x03, 0xFF, 0xFF, 0x07, 0x80, 0xFF, 0xFF, 0x07, 0xC0, 0xFF, 0xFF, 
  0x0F, 0xE0, 0xFF, 0xFF, 0x1F, 0xE0, 0xFF, 0xFF, 0x3F, 0xF0, 0xFF, 0xFF, 
  0x3F, 0xF0, 0xFF, 0xFF, 0x3F, 0xF0, 0xFF, 0xFF, 0x3F, 0xF0, 0xFF, 0xFF, 
  0x3F, 0xF0, 0xFF, 0xFF, 0x3F, 0xF0, 0xFF, 0xFF, 0x7F, 0xF0, 0xFF, 0xFF, 
  0x7F, 0xF0, 0xFF, 0xFF, 0x7F, 0xF0, 0xFF, 0xFF, 0x7F, 0xF0, 0xFF, 0xFF, 
  0xFF, 0xF0, 0xFF, 0xFF, 0xFF, 0xFF, 0xFF, 0xFF, 0xFF, 0xFF, 0xFF, 0xFF, 
  0xFF, 0xFF, 0xFF, 0xFF, 0xFF, 0xFF, 0xFF, 0xFF, 0xFF, 0xFF, 0xFF, 0xFF, 
  0xFF, 0xFF, 0xFF, 0xFF, 0xFF, 0xFF, 0xFF, 0xFF, 0xFF, 0xFF, 0xFF, 0xFF, 
  0xFF, 0xFF, 0xFF, 0xFF, 0xFF, 0xFF, 0xFF, 0xFF, 0xFF, 0xFF, 0xFF, 0xFF, 
  0x03, 0xE0, 0xFF, 0xFF, 0x03, 0xE0, 0xFF, 0xFF, 0x01, 0xC0, 0xFF, 0xFF, 
  0x03, 0xC0, 0xFF, 0xFF, 0x03, 0xC0, 0xFF, 0xFF, 0x47, 0xC0, 0xFF, 0xFF, 
  0x7F, 0xE0, 0xFF, 0xFF, 0x3F, 0xF0, 0xFF, 0xFF, 0x1F, 0xF8, 0xFF, 0xFF, 
  0x1F, 0xFC, 0xFF, 0xFF, 0x0F, 0xFC, 0xFF, 0xFF, 0x07, 0xFE, 0xFF, 0xFF, 
  0x03, 0xFF, 0xFF, 0xFF, 0x01, 0xFF, 0xFF, 0xFF, 0x01, 0xC0, 0xFF, 0xFF, 
  0x00, 0xC0, 0xFF, 0xFF, 0x00, 0xC0, 0xFF, 0xFF, 0x01, 0x80, 0xFF, 0xFF, 
  0x01, 0xC0, 0xFF, 0xFF, 0x03, 0xF8, 0xFF, 0xFF, 0xFF, 0xFF, 0xFF, 0xFF, 
  0xFF, 0xFF, 0xFF, 0xFF, 0xFF, 0xFF, 0xFF, 0xFF, 0xFF, 0xFF, 0xFF, 0xFF, 
  0xFF, 0xFF, 0xFF, 0xFF, 0xFF, 0xFF, 0xFF, 0xFF, 0xFF, 0xFF, 0xFF, 0xFF, 
  0xFF, 0xFF, 0xFF, 0xFF, 0x03, 0xFE, 0xFF, 0xFF, 0x01, 0xFE, 0xFF, 0xFF, 
  0x01, 0xFE, 0xFF, 0xFF, 0x01, 0xFE, 0xFF, 0xFF, 0x01, 0xFE, 0xFF, 0xFF, 
  0xC1, 0xFF, 0xFF, 0xFF, 0xE1, 0xFF, 0xFF, 0xFF, 0xE1, 0xFF, 0xFF, 0xFF, 
  0xE1, 0xFF, 0xFF, 0xFF, 0xE1, 0xFF, 0xFF, 0xFF, 0xE1, 0xFF, 0xFF, 0xFF, 
  0xE1, 0xFF, 0xFF, 0xFF, 0xE1, 0xFF, 0xFF, 0xFF, 0xE1, 0xFF, 0xFF, 0xFF, 
  0xE1, 0xFF, 0xFF, 0xFF, 0xE1, 0xFF, 0xFF, 0xFF, 0xE1, 0xFF, 0xFF, 0xFF, 
  0xE1, 0xFF, 0xFF, 0xFF, 0xE1, 0xFF, 0xFF, 0xFF, 0xE1, 0xFF, 0xFF, 0xFF, 
  0xE1, 0xFF, 0xFF, 0xFF, 0xE1, 0xFF, 0xFF, 0xFF, 0xC1, 0xFF, 0xFF, 0xFF, 
  0x01, 0xFE, 0xFF, 0xFF, 0x01, 0xFE, 0xFF, 0xFF, 0x01, 0xFE, 0xFF, 0xFF, 
  0x01, 0xFE, 0xFF, 0xFF, 0x03, 0xFE, 0xFF, 0xFF, 0xFF, 0xFF, 0xFF, 0xFF, 
  0xFF, 0xFF, 0xFF, 0xFF, 0xFF, 0xFF, 0xFF, 0xFF, 0xFF, 0xFF, 0xFF, 0xFF, 
  0xFF, 0xFF, 0xFF, 0xFF, 0xFF, 0xFF, 0xFF, 0xFF, 0xFF, 0xFF, 0xFF, 0xFF, 
  0xFF, 0xFF, 0xFF, 0xFF, 0xF1, 0xFF, 0xFF, 0xFF, 0xF1, 0xFF, 0xFF, 0xFF, 
  0xF1, 0xFF, 0xFF, 0xFF, 0xE1, 0xFF, 0xFF, 0xFF, 0xE3, 0xFF, 0xFF, 0xFF, 
  0xE3, 0xFF, 0xFF, 0xFF, 0xC3, 0xFF, 0xFF, 0xFF, 0xC3, 0xFF, 0xFF, 0xFF, 
  0xC7, 0xFF, 0xFF, 0xFF, 0x87, 0xFF, 0xFF, 0xFF, 0x87, 0xFF, 0xFF, 0xFF, 
  0x87, 0xFF, 0xFF, 0xFF, 0x8F, 0xFF, 0xFF, 0xFF, 0x0F, 0xFF, 0xFF, 0xFF, 
  0x0F, 0xFF, 0xFF, 0xFF, 0x0F, 0xFF, 0xFF, 0xFF, 0x1F, 0xFE, 0xFF, 0xFF, 
  0x1F, 0xFE, 0xFF, 0xFF, 0x1F, 0xFE, 0xFF, 0xFF, 0x3F, 0xFE, 0xFF, 0xFF, 
  0x3F, 0xFE, 0xFF, 0xFF, 0xFF, 0xFF, 0xFF, 0xFF, 0xFF, 0xFF, 0xFF, 0xFF, 
  0xFF, 0xFF, 0xFF, 0xFF, 0xFF, 0xFF, 0xFF, 0xFF, 0xFF, 0xFF, 0xFF, 0xFF, 
  0xFF, 0xFF, 0xFF, 0xFF, 0xFF, 0xFF, 0xFF, 0xFF, 0x03, 0xFF, 0xFF, 0xFF, 
  0x01, 0xFE, 0xFF, 0xFF, 0x01, 0xFE, 0xFF, 0xFF, 0x01, 0xFE, 0xFF, 0xFF, 
  0x01, 0xFE, 0xFF, 0xFF, 0x0F, 0xFE, 0xFF, 0xFF, 0x1F, 0xFE, 0xFF, 0xFF, 
  0x1F, 0xFE, 0xFF, 0xFF, 0x1F, 0xFE, 0xFF, 0xFF, 0x1F, 0xFE, 0xFF, 0xFF, 
  0x1F, 0xFE, 0xFF, 0xFF, 0x1F, 0xFE, 0xFF, 0xFF, 0x1F, 0xFE, 0xFF, 0xFF, 
  0x1F, 0xFE, 0xFF, 0xFF, 0x1F, 0xFE, 0xFF, 0xFF, 0x1F, 0xFE, 0xFF, 0xFF, 
  0x1F, 0xFE, 0xFF, 0xFF, 0x1F, 0xFE, 0xFF, 0xFF, 0x1F, 0xFE, 0xFF, 0xFF, 
  0x1F, 0xFE, 0xFF, 0xFF, 0x1F, 0xFE, 0xFF, 0xFF, 0x1F, 0xFE, 0xFF, 0xFF, 
  0x0F, 0xFE, 0xFF, 0xFF, 0x01, 0xFE, 0xFF, 0xFF, 0x01, 0xFE, 0xFF, 0xFF, 
  0x01, 0xFE, 0xFF, 0xFF, 0x01, 0xFE, 0xFF, 0xFF, 0x03, 0xFF, 0xFF, 0xFF, 
  0xFF, 0xFF, 0xFF, 0xFF, 0xFF, 0xFF, 0xFF, 0xFF, 0xFF, 0xFF, 0xFF, 0xFF, 
  0xFF, 0xFF, 0xFF, 0xFF, 0xFF, 0xFF, 0xFF, 0xFF, 0xFF, 0xFF, 0xFF, 0xFF, 
  0xFF, 0xFF, 0xFF, 0xFF, 0xFF, 0xFF, 0xFF, 0xFF, 0x87, 0xFF, 0xFF, 0xFF, 
  0x07, 0xFF, 0xFF, 0xFF, 0x03, 0xFF, 0xFF, 0xFF, 0x03, 0xFE, 0xFF, 0xFF, 
  0x01, 0xFE, 0xFF, 0xFF, 0x21, 0xFC, 0xFF, 0xFF, 0x21, 0xFC, 0xFF, 0xFF, 
  0x71, 0xFE, 0xFF, 0xFF, 0xFF, 0xFF, 0xFF, 0xFF, 0xFF, 0xFF, 0xFF, 0xFF, 
  0xFF, 0xFF, 0xFF, 0xFF, 0xFF, 0xFF, 0xFF, 0xFF, 0xFF, 0xFF, 0xFF, 0xFF, 
  0xFF, 0xFF, 0xFF, 0xFF, 0xFF, 0xFF, 0xFF, 0xFF, 0xFF, 0xFF, 0xFF, 0xFF, 
  0xFF, 0xFF, 0xFF, 0xFF, 0xFF, 0xFF, 0xFF, 0xFF, 0xFF, 0xFF, 0xFF, 0xFF, 
  0xFF, 0xFF, 0xFF, 0xFF, 0xFF, 0xFF, 0xFF, 0xFF, 0xFF, 0xFF, 0xFF, 0xFF, 
  0xFF, 0xFF, 0xFF, 0xFF, 0xFF, 0xFF, 0xFF, 0xFF, 0xFF, 0xFF, 0xFF, 0xFF, 
  0xFF, 0xFF, 0xFF, 0xFF, 0xFF, 0xFF, 0xFF, 0xFF, 0xFF, 0xFF, 0xFF, 0xFF, 
  0xFF, 0xFF, 0xFF, 0xFF, 0xFF, 0xFF, 0xFF, 0xFF, 0xFF, 0xFF, 0xFF, 0xFF, 
  0xFF, 0xFF, 0xFF, 0xFF, 0xFF, 0xFF, 0xFF, 0xFF, 0xFF, 0xFF, 0xFF, 0xFF, 
  0xFF, 0xFF, 0xFF, 0xFF, 0xFF, 0xFF, 0xFF, 0xFF, 0xFF, 0xFF, 0xFF, 0xFF, 
  0xFF, 0xFF, 0xFF, 0xFF, 0xFF, 0xFF, 0xFF, 0xFF, 0xFF, 0xFF, 0xFF, 0xFF, 
  0xFF, 0xFF, 0xFF, 0xFF, 0xFF, 0xFF, 0xFF, 0xFF, 0xFF, 0xFF, 0xFF, 0xFF, 
  0xFF, 0xFF, 0xFF, 0xFF, 0xFF, 0xFF, 0xFF, 0xFF, 0xFF, 0xFF, 0xFF, 0xFF, 
  0xFF, 0xFF, 0xFF, 0xFF, 0xFF, 0xFF, 0xFF, 0xFF, 0xFF, 0xFF, 0xFF, 0xFF, 
  0xFF, 0xFF, 0xFF, 0xFF, 0xFF, 0xFF, 0xFF, 0xFF, 0xFF, 0xFF, 0xFF, 0xFF, 
  0x01, 0xF0, 0xFF, 0xFF, 0x01, 0xF0, 0xFF, 0xFF, 0x01, 0xF0, 0xFF, 0xFF, 
  0xFF, 0xFF, 0xFF, 0xFF, 0xFF, 0xFF, 0xFF, 0xFF, 0xFF, 0xFF, 0xFF, 0xFF, 
  0xFF, 0xFF, 0xFF, 0xFF, 0xFF, 0xFF, 0xFF, 0xFF, 0xF1, 0xFF, 0xFF, 0xFF, 
  0xE1, 0xFF, 0xFF, 0xFF, 0xC3, 0xFF, 0xFF, 0xFF, 0x87, 0xFF, 0xFF, 0xFF, 
  0xCF, 0xFF, 0xFF, 0xFF, 0xFF, 0xFF, 0xFF, 0xFF, 0xFF, 0xFF, 0xFF, 0xFF, 
  0xFF, 0xFF, 0xFF, 0xFF, 0xFF, 0xFF, 0xFF, 0xFF, 0xFF, 0xFF, 0xFF, 0xFF, 
  0xFF, 0xFF, 0xFF, 0xFF, 0xFF, 0xFF, 0xFF, 0xFF, 0xFF, 0xFF, 0xFF, 0xFF, 
  0xFF, 0xFF, 0xFF, 0xFF, 0xFF, 0xFF, 0xFF, 0xFF, 0xFF, 0xFF, 0xFF, 0xFF, 
  0xFF, 0xFF, 0xFF, 0xFF, 0xFF, 0xFF, 0xFF, 0xFF, 0xFF, 0xFF, 0xFF, 0xFF, 
  0xFF, 0xFF, 0xFF, 0xFF, 0xFF, 0xFF, 0xFF, 0xFF, 0xFF, 0xFF, 0xFF, 0xFF, 
  0xFF, 0xFF, 0xFF, 0xFF, 0xFF, 0xFF, 0xFF, 0xFF, 0xFF, 0xFF, 0xFF, 0xFF, 
  0xFF, 0xFF, 0xFF, 0xFF, 0xFF, 0xFF, 0xFF, 0xFF, 0xFF, 0xFF, 0xFF, 0xFF, 
  0xFF, 0xFF, 0xFF, 0xFF, 0xFF, 0xFF, 0xFF, 0xFF, 0xFF, 0xFF, 0xFF, 0xFF, 
  0xFF, 0xFF, 0xFF, 0xFF, 0xFF, 0xFF, 0xFF, 0xFF, 0xFF, 0xFF, 0xFF, 0xFF, 
  0xFF, 0xFF, 0xFF, 0xFF, 0xFF, 0xFF, 0xFF, 0xFF, 0xFF, 0xFF, 0xFF, 0xFF, 
  0xFF, 0xFF, 0xFF, 0xFF, 0xFF, 0xFF, 0xFF, 0xFF, 0x1F, 0xF8, 0xFF, 0xFF, 
  0x03, 0xF0, 0xFF, 0xFF, 0x01, 0xE0, 0xFF, 0xFF, 0x01, 0xE0, 0xFF, 0xFF, 
  0x03, 0xC0, 0xFF, 0xFF, 0xC3, 0xC1, 0xFF, 0xFF, 0x0F, 0xC0, 0xFF, 0xFF, 
  0x03, 0xC0, 0xFF, 0xFF, 0x03, 0xC0, 0xFF, 0xFF, 0x81, 0xC1, 0xFF, 0xFF, 
  0xC1, 0xC1, 0xFF, 0xFF, 0xC1, 0xC1, 0xFF, 0xFF, 0x01, 0xC0, 0xFF, 0xFF, 
  0x01, 0xC0, 0xFF, 0xFF, 0x01, 0xC0, 0xFF, 0xFF, 0x03, 0xC0, 0xFF, 0xFF, 
  0x87, 0xE3, 0xFF, 0xFF, 0xFF, 0xFF, 0xFF, 0xFF, 0xFF, 0xFF, 0xFF, 0xFF, 
  0xFF, 0xFF, 0xFF, 0xFF, 0xFF, 0xFF, 0xFF, 0xFF, 0xFF, 0xFF, 0xFF, 0xFF, 
  0xFF, 0xFF, 0xFF, 0xFF, 0xFF, 0xFF, 0xFF, 0xFF, 0xFF, 0xFF, 0xFF, 0xFF, 
  0xFF, 0xFF, 0xFF, 0xFF, 0xFF, 0xFF, 0xFF, 0xFF, 0xFF, 0xFF, 0xFF, 0xFF, 
  0xFF, 0xFF, 0xFF, 0xFF, 0xC7, 0xFF, 0xFF, 0xFF, 0x83, 0xFF, 0xFF, 0xFF, 
  0x83, 0xFF, 0xFF, 0xFF, 0x81, 0xFF, 0xFF, 0xFF, 0xC1, 0xFF, 0xFF, 0xFF, 
  0xC1, 0xFF, 0xFF, 0xFF, 0x01, 0xFC, 0xFF, 0xFF, 0x01, 0xF0, 0xFF, 0xFF, 
  0x01, 0xE0, 0xFF, 0xFF, 0x01, 0xC0, 0xFF, 0xFF, 0x01, 0xC0, 0xFF, 0xFF, 
  0x81, 0xC1, 0xFF, 0xFF, 0x81, 0x81, 0xFF, 0xFF, 0x81, 0x81, 0xFF, 0xFF, 
  0x83, 0x81, 0xFF, 0xFF, 0x03, 0x81, 0xFF, 0xFF, 0x03, 0xC0, 0xFF, 0xFF, 
  0x03, 0xC0, 0xFF, 0xFF, 0x03, 0xE0, 0xFF, 0xFF, 0x07, 0xF0, 0xFF, 0xFF, 
  0x0F, 0xFC, 0xFF, 0xFF, 0xFF, 0xFF, 0xFF, 0xFF, 0xFF, 0xFF, 0xFF, 0xFF, 
  0xFF, 0xFF, 0xFF, 0xFF, 0xFF, 0xFF, 0xFF, 0xFF, 0xFF, 0xFF, 0xFF, 0xFF, 
  0xFF, 0xFF, 0xFF, 0xFF, 0xFF, 0xFF, 0xFF, 0xFF, 0xFF, 0xFF, 0xFF, 0xFF, 
  0xFF, 0xFF, 0xFF, 0xFF, 0xFF, 0xFF, 0xFF, 0xFF, 0xFF, 0xFF, 0xFF, 0xFF, 
  0xFF, 0xFF, 0xFF, 0xFF, 0xFF, 0xFF, 0xFF, 0xFF, 0xFF, 0xFF, 0xFF, 0xFF, 
  0x3F, 0xF8, 0xFF, 0xFF, 0x0F, 0xF0, 0xFF, 0xFF, 0x07, 0xE0, 0xFF, 0xFF, 
  0x07, 0xC0, 0xFF, 0xFF, 0x03, 0xC0, 0xFF, 0xFF, 0x83, 0xC1, 0xFF, 0xFF, 
  0x81, 0xC3, 0xFF, 0xFF, 0xC1, 0xFF, 0xFF, 0xFF, 0xC1, 0xFF, 0xFF, 0xFF, 
  0xC1, 0xFF, 0xFF, 0xFF, 0xC1, 0xE7, 0xFF, 0xFF, 0xC1, 0xC3, 0xFF, 0xFF, 
  0x81, 0xC1, 0xFF, 0xFF, 0x01, 0xC0, 0xFF, 0xFF, 0x03, 0xC0, 0xFF, 0xFF, 
  0x03, 0xE0, 0xFF, 0xFF, 0x07, 0xF0, 0xFF, 0xFF, 0x1F, 0xFC, 0xFF, 0xFF, 
  0xFF, 0xFF, 0xFF, 0xFF, 0xFF, 0xFF, 0xFF, 0xFF, 0xFF, 0xFF, 0xFF, 0xFF, 
  0xFF, 0xFF, 0xFF, 0xFF, 0xFF, 0xFF, 0xFF, 0xFF, 0xFF, 0xFF, 0xFF, 0xFF, 
  0xFF, 0xFF, 0xFF, 0xFF, 0xFF, 0xFF, 0xFF, 0xFF, 0xFF, 0xFF, 0xFF, 0xFF, 
  0xFF, 0xFF, 0xFF, 0xFF, 0xFF, 0xFF, 0xFF, 0xFF, 0xFF, 0xE3, 0xFF, 0xFF, 
  0xFF, 0xC1, 0xFF, 0xFF, 0xFF, 0x81, 0xFF, 0xFF, 0xFF, 0x81, 0xFF, 0xFF, 
  0xFF, 0x81, 0xFF, 0xFF, 0xFF, 0x81, 0xFF, 0xFF, 0x1F, 0x80, 0xFF, 0xFF, 
  0x07, 0x80, 0xFF, 0xFF, 0x03, 0x80, 0xFF, 0xFF, 0x03, 0x80, 0xFF, 0xFF, 
  0x81, 0x81, 0xFF, 0xFF, 0xC1, 0x81, 0xFF, 0xFF, 0xC1, 0x81, 0xFF, 0xFF, 
  0xC1, 0x81, 0xFF, 0xFF, 0x81, 0x81, 0xFF, 0xFF, 0x01, 0x80, 0xFF, 0xFF, 
  0x01, 0x80, 0xFF, 0xFF, 0x01, 0x80, 0xFF, 0xFF, 0x03, 0x80, 0xFF, 0xFF, 
  0x07, 0xC0, 0xFF, 0xFF, 0x0F, 0xC3, 0xFF, 0xFF, 0xFF, 0xFF, 0xFF, 0xFF, 
  0xFF, 0xFF, 0xFF, 0xFF, 0xFF, 0xFF, 0xFF, 0xFF, 0xFF, 0xFF, 0xFF, 0xFF, 
  0xFF, 0xFF, 0xFF, 0xFF, 0xFF, 0xFF, 0xFF, 0xFF, 0xFF, 0xFF, 0xFF, 0xFF, 
  0xFF, 0xFF, 0xFF, 0xFF, 0xFF, 0xFF, 0xFF, 0xFF, 0xFF, 0xFF, 0xFF, 0xFF, 
  0xFF, 0xFF, 0xFF, 0xFF, 0xFF, 0xFF, 0xFF, 0xFF, 0xFF, 0xFF, 0xFF, 0xFF, 
  0xFF, 0xFF, 0xFF, 0xFF, 0x3F, 0xFC, 0xFF, 0xFF, 0x0F, 0xF0, 0xFF, 0xFF, 
  0x07, 0xE0, 0xFF, 0xFF, 0x03, 0xE0, 0xFF, 0xFF, 0x03, 0xC0, 0xFF, 0xFF, 
  0x81, 0xC1, 0xFF, 0xFF, 0xC1, 0xC3, 0xFF, 0xFF, 0x41, 0xC0, 0xFF, 0xFF, 
  0x01, 0xC0, 0xFF, 0xFF, 0x01, 0xE0, 0xFF, 0xFF, 0x01, 0xFC, 0xFF, 0xFF, 
  0x81, 0xCF, 0xFF, 0xFF, 0x81, 0x83, 0xFF, 0xFF, 0x03, 0x80, 0xFF, 0xFF, 
  0x03, 0x80, 0xFF, 0xFF, 0x07, 0x80, 0xFF, 0xFF, 0x0F, 0xE0, 0xFF, 0xFF, 
  0x3F, 0xF8, 0xFF, 0xFF, 0xFF, 0xFF, 0xFF, 0xFF, 0xFF, 0xFF, 0xFF, 0xFF, 
  0xFF, 0xFF, 0xFF, 0xFF, 0xFF, 0xFF, 0xFF, 0xFF, 0xFF, 0xFF, 0xFF, 0xFF, 
  0xFF, 0xFF, 0xFF, 0xFF, 0xFF, 0xFF, 0xFF, 0xFF, 0xFF, 0xFF, 0xFF, 0xFF, 
  0xFF, 0xFF, 0xFF, 0xFF, 0xFF, 0xFF, 0xFF, 0xFF, 0xFF, 0xFF, 0xFF, 0xFF, 
  0x7F, 0xF0, 0xFF, 0xFF, 0x1F, 0xE0, 0xFF, 0xFF, 0x1F, 0xC0, 0xFF, 0xFF, 
  0x0F, 0xC0, 0xFF, 0xFF, 0x0F, 0xC0, 0xFF, 0xFF, 0x0F, 0xC0, 0xFF, 0xFF, 
  0x0F, 0xE6, 0xFF, 0xFF, 0x0F, 0xFE, 0xFF, 0xFF, 0x01, 0xF0, 0xFF, 0xFF, 
  0x00, 0xE0, 0xFF, 0xFF, 0x00, 0xE0, 0xFF, 0xFF, 0x00, 0xE0, 0xFF, 0xFF, 
  0x01, 0xF0, 0xFF, 0xFF, 0x0F, 0xFE, 0xFF, 0xFF, 0x0F, 0xFE, 0xFF, 0xFF, 
  0x0F, 0xFE, 0xFF, 0xFF, 0x0F, 0xFE, 0xFF, 0xFF, 0x0F, 0xFE, 0xFF, 0xFF, 
  0x0F, 0xFC, 0xFF, 0xFF, 0x0F, 0xFC, 0xFF, 0xFF, 0x0F, 0xFC, 0xFF, 0xFF, 
  0x1F, 0xFE, 0xFF, 0xFF, 0xFF, 0xFF, 0xFF, 0xFF, 0xFF, 0xFF, 0xFF, 0xFF, 
  0xFF, 0xFF, 0xFF, 0xFF, 0xFF, 0xFF, 0xFF, 0xFF, 0xFF, 0xFF, 0xFF, 0xFF, 
  0xFF, 0xFF, 0xFF, 0xFF, 0xFF, 0xFF, 0xFF, 0xFF, 0xFF, 0xFF, 0xFF, 0xFF, 
  0xFF, 0xFF, 0xFF, 0xFF, 0xFF, 0xFF, 0xFF, 0xFF, 0xFF, 0xFF, 0xFF, 0xFF, 
  0xFF, 0xFF, 0xFF, 0xFF, 0xFF, 0xFF, 0xFF, 0xFF, 0x0F, 0xE3, 0xFF, 0xFF, 
  0x07, 0xC0, 0xFF, 0xFF, 0x03, 0xC0, 0xFF, 0xFF, 0x01, 0xC0, 0xFF, 0xFF, 
  0x01, 0x80, 0xFF, 0xFF, 0xC1, 0x80, 0xFF, 0xFF, 0xE1, 0x80, 0xFF, 0xFF, 
  0xE1, 0x80, 0xFF, 0xFF, 0x01, 0x80, 0xFF, 0xFF, 0x01, 0x80, 0xFF, 0xFF, 
  0x03, 0x80, 0xFF, 0xFF, 0x03, 0x80, 0xFF, 0xFF, 0x07, 0x83, 0xFF, 0xFF, 
  0xFF, 0x83, 0xFF, 0xFF, 0xEF, 0x83, 0xFF, 0xFF, 0x07, 0x81, 0xFF, 0xFF, 
  0x07, 0xC0, 0xFF, 0xFF, 0x07, 0xC0, 0xFF, 0xFF, 0x07, 0xE0, 0xFF, 0xFF, 
  0x07, 0xF0, 0xFF, 0xFF, 0x3F, 0xF8, 0xFF, 0xFF, 0xFF, 0xFF, 0xFF, 0xFF, 
  0xFF, 0xFF, 0xFF, 0xFF, 0xFF, 0xFF, 0xFF, 0xFF, 0xFF, 0xFF, 0xFF, 0xFF, 
  0xFF, 0xFF, 0xFF, 0xFF, 0xFF, 0xFF, 0xFF, 0xFF, 0xFF, 0xFF, 0xFF, 0xFF, 
  0xFF, 0xFF, 0xFF, 0xFF, 0xC7, 0xFF, 0xFF, 0xFF, 0x83, 0xFF, 0xFF, 0xFF, 
  0x81, 0xFF, 0xFF, 0xFF, 0x81, 0xFF, 0xFF, 0xFF, 0x81, 0xF1, 0xFF, 0xFF, 
  0x01, 0xE0, 0xFF, 0xFF, 0x01, 0xC0, 0xFF, 0xFF, 0x01, 0x80, 0xFF, 0xFF, 
  0x01, 0x80, 0xFF, 0xFF, 0x01, 0x81, 0xFF, 0xFF, 0x81, 0x01, 0xFF, 0xFF, 
  0x81, 0x03, 0xFF, 0xFF, 0x81, 0x03, 0xFF, 0xFF, 0x81, 0x03, 0xFF, 0xFF, 
  0x81, 0x03, 0xFF, 0xFF, 0x81, 0x03, 0xFF, 0xFF, 0x81, 0x03, 0xFF, 0xFF, 
  0x83, 0x03, 0xFF, 0xFF, 0x83, 0x03, 0xFF, 0xFF, 0x83, 0x87, 0xFF, 0xFF, 
  0xC7, 0xFF, 0xFF, 0xFF, 0xFF, 0xFF, 0xFF, 0xFF, 0xFF, 0xFF, 0xFF, 0xFF, 
  0xFF, 0xFF, 0xFF, 0xFF, 0xFF, 0xFF, 0xFF, 0xFF, 0xFF, 0xFF, 0xFF, 0xFF, 
  0xFF, 0xFF, 0xFF, 0xFF, 0xFF, 0xFF, 0xFF, 0xFF, 0xFF, 0xFF, 0xFF, 0xFF, 
  0xFF, 0xFF, 0xFF, 0xFF, 0xFF, 0xFF, 0xFF, 0xFF, 0xFF, 0xFF, 0xFF, 0xFF, 
  0xC3, 0xFF, 0xFF, 0xFF, 0x81, 0xFF, 0xFF, 0xFF, 0x01, 0xFF, 0xFF, 0xFF, 
  0x81, 0xFF, 0xFF, 0xFF, 0xC3, 0xFF, 0xFF, 0xFF, 0xFF, 0xFF, 0xFF, 0xFF, 
  0xE7, 0xFF, 0xFF, 0xFF, 0xC3, 0xFF, 0xFF, 0xFF, 0xC1, 0xFF, 0xFF, 0xFF, 
  0xC1, 0xFF, 0xFF, 0xFF, 0xC1, 0xFF, 0xFF, 0xFF, 0xC1, 0xFF, 0xFF, 0xFF, 
  0xC1, 0xFF, 0xFF, 0xFF, 0xC1, 0xFF, 0xFF, 0xFF, 0x81, 0xFF, 0xFF, 0xFF, 
  0x81, 0xFF, 0xFF, 0xFF, 0x81, 0xFF, 0xFF, 0xFF, 0x83, 0xFF, 0xFF, 0xFF, 
  0x83, 0xFF, 0xFF, 0xFF, 0x83, 0xFF, 0xFF, 0xFF, 0xC7, 0xFF, 0xFF, 0xFF, 
  0xFF, 0xFF, 0xFF, 0xFF, 0xFF, 0xFF, 0xFF, 0xFF, 0xFF, 0xFF, 0xFF, 0xFF, 
  0xFF, 0xFF, 0xFF, 0xFF, 0xFF, 0xFF, 0xFF, 0xFF, 0xFF, 0xFF, 0xFF, 0xFF, 
  0xFF, 0xFF, 0xFF, 0xFF, 0xFF, 0xFF, 0xFF, 0xFF, 0xFF, 0xFF, 0xFF, 0xFF, 
  0xFF, 0xFF, 0xFF, 0xFF, 0xFF, 0xFF, 0xFF, 0xFF, 0x3F, 0xFC, 0xFF, 0xFF, 
  0x1F, 0xF8, 0xFF, 0xFF, 0x1F, 0xF0, 0xFF, 0xFF, 0x1F, 0xF8, 0xFF, 0xFF, 
  0x3F, 0xFC, 0xFF, 0xFF, 0xFF, 0xFF, 0xFF, 0xFF, 0x3F, 0xFC, 0xFF, 0xFF, 
  0x1F, 0xF8, 0xFF, 0xFF, 0x1F, 0xF8, 0xFF, 0xFF, 0x1F, 0xF8, 0xFF, 0xFF, 
  0x1F, 0xF8, 0xFF, 0xFF, 0x3F, 0xF8, 0xFF, 0xFF, 0x3F, 0xF8, 0xFF, 0xFF, 
  0x3F, 0xF8, 0xFF, 0xFF, 0x3F, 0xF8, 0xFF, 0xFF, 0x31, 0xF8, 0xFF, 0xFF, 
  0x20, 0xF8, 0xFF, 0xFF, 0x20, 0xF8, 0xFF, 0xFF, 0x20, 0xF8, 0xFF, 0xFF, 
  0x01, 0xFC, 0xFF, 0xFF, 0x03, 0xFC, 0xFF, 0xFF, 0x03, 0xFE, 0xFF, 0xFF, 
  0x0F, 0xFF, 0xFF, 0xFF, 0xFF, 0xFF, 0xFF, 0xFF, 0xFF, 0xFF, 0xFF, 0xFF, 
  0xFF, 0xFF, 0xFF, 0xFF, 0xFF, 0xFF, 0xFF, 0xFF, 0xFF, 0xFF, 0xFF, 0xFF, 
  0xFF, 0xFF, 0xFF, 0xFF, 0xFF, 0xFF, 0xFF, 0xFF, 0xFF, 0xFF, 0xFF, 0xFF, 
  0xFF, 0xFF, 0xFF, 0xFF, 0xC7, 0xFF, 0xFF, 0xFF, 0x83, 0xFF, 0xFF, 0xFF, 
  0x83, 0xF3, 0xFF, 0xFF, 0x81, 0xE1, 0xFF, 0xFF, 0x81, 0xC1, 0xFF, 0xFF, 
  0x81, 0xC0, 0xFF, 0xFF, 0x01, 0xE0, 0xFF, 0xFF, 0x01, 0xE0, 0xFF, 0xFF, 
  0x01, 0xF0, 0xFF, 0xFF, 0x01, 0xF8, 0xFF, 0xFF, 0x01, 0xFC, 0xFF, 0xFF, 
  0x01, 0xF8, 0xFF, 0xFF, 0x01, 0xE0, 0xFF, 0xFF, 0x01, 0xC0, 0xFF, 0xFF, 
  0x81, 0x80, 0xFF, 0xFF, 0x83, 0x81, 0xFF, 0xFF, 0x83, 0x83, 0xFF, 0xFF, 
  0x83, 0xC7, 0xFF, 0xFF, 0x83, 0xEF, 0xFF, 0xFF, 0xC3, 0xFF, 0xFF, 0xFF, 
  0xFF, 0xFF, 0xFF, 0xFF, 0xFF, 0xFF, 0xFF, 0xFF, 0xFF, 0xFF, 0xFF, 0xFF, 
  0xFF, 0xFF, 0xFF, 0xFF, 0xFF, 0xFF, 0xFF, 0xFF, 0xFF, 0xFF, 0xFF, 0xFF, 
  0xFF, 0xFF, 0xFF, 0xFF, 0xFF, 0xFF, 0xFF, 0xFF, 0xFF, 0xFF, 0xFF, 0xFF, 
  0xFF, 0xFF, 0xFF, 0xFF, 0xFF, 0xFF, 0xFF, 0xFF, 0xFF, 0xFF, 0xFF, 0xFF, 
  0xC3, 0xFF, 0xFF, 0xFF, 0x81, 0xFF, 0xFF, 0xFF, 0x81, 0xFF, 0xFF, 0xFF, 
  0x81, 0xFF, 0xFF, 0xFF, 0x81, 0xFF, 0xFF, 0xFF, 0x81, 0xFF, 0xFF, 0xFF, 
  0x81, 0xFF, 0xFF, 0xFF, 0x81, 0xFF, 0xFF, 0xFF, 0x81, 0xFF, 0xFF, 0xFF, 
  0x81, 0xFF, 0xFF, 0xFF, 0x81, 0xFF, 0xFF, 0xFF, 0x81, 0xFF, 0xFF, 0xFF, 
  0x81, 0xFF, 0xFF, 0xFF, 0x83, 0xFF, 0xFF, 0xFF, 0x03, 0xFD, 0xFF, 0xFF, 
  0x03, 0xF8, 0xFF, 0xFF, 0x07, 0xF0, 0xFF, 0xFF, 0x07, 0xF0, 0xFF, 0xFF, 
  0x0F, 0xF8, 0xFF, 0xFF, 0x1F, 0xFC, 0xFF, 0xFF, 0xFF, 0xFF, 0xFF, 0xFF, 
  0xFF, 0xFF, 0xFF, 0xFF, 0xFF, 0xFF, 0xFF, 0xFF, 0xFF, 0xFF, 0xFF, 0xFF, 
  0xFF, 0xFF, 0xFF, 0xFF, 0xFF, 0xFF, 0xFF, 0xFF, 0xFF, 0xFF, 0xFF, 0xFF, 
  0xFF, 0xFF, 0xFF, 0xFF, 0xFF, 0xFF, 0xFF, 0xFF, 0xFF, 0xFF, 0xFF, 0xFF, 
  0xFF, 0xFF, 0xFF, 0xFF, 0xFF, 0xFF, 0xFF, 0xFF, 0xFF, 0xFF, 0xFF, 0xFF, 
  0xFF, 0xFF, 0xFF, 0xFF, 0xFF, 0xFF, 0xFF, 0xFF, 0xC3, 0xFF, 0xF8, 0xFF, 
  0xC3, 0x78, 0xE0, 0xFF, 0x03, 0x30, 0xE0, 0xFF, 0x01, 0x00, 0xC0, 0xFF, 
  0x01, 0x00, 0xC0, 0xFF, 0x01, 0x00, 0xC0, 0xFF, 0x01, 0x03, 0x81, 0xFF, 
  0x01, 0x83, 0x83, 0xFF, 0x81, 0x83, 0x83, 0xFF, 0x81, 0x83, 0x83, 0xFF, 
  0x81, 0x83, 0x83, 0xFF, 0x81, 0x83, 0x83, 0xFF, 0x81, 0x83, 0x83, 0xFF, 
  0x81, 0x83, 0x83, 0xFF, 0x81, 0x83, 0x83, 0xFF, 0x83, 0xFF, 0x83, 0xFF, 
  0xC3, 0xFF, 0xC3, 0xFF, 0xFF, 0xFF, 0xC3, 0xFF, 0xFF, 0xFF, 0xFF, 0xFF, 
  0xFF, 0xFF, 0xFF, 0xFF, 0xFF, 0xFF, 0xFF, 0xFF, 0xFF, 0xFF, 0xFF, 0xFF, 
  0xFF, 0xFF, 0xFF, 0xFF, 0xFF, 0xFF, 0xFF, 0xFF, 0xFF, 0xFF, 0xFF, 0xFF, 
  0xFF, 0xFF, 0xFF, 0xFF, 0xFF, 0xFF, 0xFF, 0xFF, 0xFF, 0xFF, 0xFF, 0xFF, 
  0xFF, 0xFF, 0xFF, 0xFF, 0xFF, 0xFF, 0xFF, 0xFF, 0xFF, 0xFF, 0xFF, 0xFF, 
  0xFF, 0xFF, 0xFF, 0xFF, 0xC7, 0xFF, 0xFF, 0xFF, 0x83, 0xE1, 0xFF, 0xFF, 
  0x03, 0x80, 0xFF, 0xFF, 0x03, 0x80, 0xFF, 0xFF, 0x01, 0x00, 0xFF, 0xFF, 
  0x01, 0x00, 0xFF, 0xFF, 0x01, 0x06, 0xFE, 0xFF, 0x01, 0x07, 0xFE, 0xFF, 
  0x01, 0x07, 0xFE, 0xFF, 0x81, 0x07, 0xFE, 0xFF, 0x81, 0x07, 0xFE, 0xFF, 
  0x81, 0x07, 0xFC, 0xFF, 0x81, 0x07, 0xFC, 0xFF, 0x81, 0x07, 0xFC, 0xFF, 
  0x83, 0x07, 0xFC, 0xFF, 0x83, 0x07, 0xFE, 0xFF, 0x83, 0x0F, 0xFE, 0xFF, 
  0xC3, 0xFF, 0xFF, 0xFF, 0xFF, 0xFF, 0xFF, 0xFF, 0xFF, 0xFF, 0xFF, 0xFF, 
  0xFF, 0xFF, 0xFF, 0xFF, 0xFF, 0xFF, 0xFF, 0xFF, 0xFF, 0xFF, 0xFF, 0xFF, 
  0xFF, 0xFF, 0xFF, 0xFF, 0xFF, 0xFF, 0xFF, 0xFF, 0xFF, 0xFF, 0xFF, 0xFF, 
  0xFF, 0xFF, 0xFF, 0xFF, 0xFF, 0xFF, 0xFF, 0xFF, 0xFF, 0xFF, 0xFF, 0xFF, 
  0xFF, 0xFF, 0xFF, 0xFF, 0xFF, 0xFF, 0xFF, 0xFF, 0xFF, 0xFF, 0xFF, 0xFF, 
  0x1F, 0xF8, 0xFF, 0xFF, 0x07, 0xF0, 0xFF, 0xFF, 0x03, 0xE0, 0xFF, 0xFF, 
  0x03, 0xC0, 0xFF, 0xFF, 0x01, 0x80, 0xFF, 0xFF, 0x81, 0x81, 0xFF, 0xFF, 
  0xC1, 0x81, 0xFF, 0xFF, 0xC1, 0x03, 0xFF, 0xFF, 0xC1, 0x03, 0xFF, 0xFF, 
  0xC1, 0x03, 0xFF, 0xFF, 0x81, 0x81, 0xFF, 0xFF, 0x01, 0x81, 0xFF, 0xFF, 
  0x03, 0x80, 0xFF, 0xFF, 0x03, 0xC0, 0xFF, 0xFF, 0x07, 0xC0, 0xFF, 0xFF, 
  0x0F, 0xE0, 0xFF, 0xFF, 0x3F, 0xF8, 0xFF, 0xFF, 0xFF, 0xFF, 0xFF, 0xFF, 
  0xFF, 0xFF, 0xFF, 0xFF, 0xFF, 0xFF, 0xFF, 0xFF, 0xFF, 0xFF, 0xFF, 0xFF, 
  0xFF, 0xFF, 0xFF, 0xFF, 0xFF, 0xFF, 0xFF, 0xFF, 0xFF, 0xFF, 0xFF, 0xFF, 
  0xFF, 0xFF, 0xFF, 0xFF, 0xFF, 0xFF, 0xFF, 0xFF, 0xFF, 0xFF, 0xFF, 0xFF, 
  0xFF, 0xFF, 0xFF, 0xFF, 0xFF, 0xFF, 0xFF, 0xFF, 0xFF, 0xFF, 0xFF, 0xFF, 
  0xFF, 0xFF, 0xFF, 0xFF, 0xFF, 0xFF, 0xFF, 0xFF, 0x0F, 0xFC, 0xFF, 0xFF, 
  0x07, 0xF0, 0xFF, 0xFF, 0x03, 0xE0, 0xFF, 0xFF, 0x03, 0xC0, 0xFF, 0xFF, 
  0x03, 0xC0, 0xFF, 0xFF, 0x03, 0x81, 0xFF, 0xFF, 0x03, 0x81, 0xFF, 0xFF, 
  0x81, 0x81, 0xFF, 0xFF, 0x81, 0x81, 0xFF, 0xFF, 0x81, 0x81, 0xFF, 0xFF, 
  0x01, 0xC0, 0xFF, 0xFF, 0x01, 0xC0, 0xFF, 0xFF, 0x01, 0xE0, 0xFF, 0xFF, 
  0x01, 0xF0, 0xFF, 0xFF, 0x01, 0xF8, 0xFF, 0xFF, 0xC1, 0xFF, 0xFF, 0xFF, 
  0xC1, 0xFF, 0xFF, 0xFF, 0x81, 0xFF, 0xFF, 0xFF, 0x83, 0xFF, 0xFF, 0xFF, 
  0x83, 0xFF, 0xFF, 0xFF, 0xC7, 0xFF, 0xFF, 0xFF, 0xFF, 0xFF, 0xFF, 0xFF, 
  0xFF, 0xFF, 0xFF, 0xFF, 0xFF, 0xFF, 0xFF, 0xFF, 0xFF, 0xFF, 0xFF, 0xFF, 
  0xFF, 0xFF, 0xFF, 0xFF, 0xFF, 0xFF, 0xFF, 0xFF, 0xFF, 0xFF, 0xFF, 0xFF, 
  0xFF, 0xFF, 0xFF, 0xFF, 0xFF, 0xFF, 0xFF, 0xFF, 0xFF, 0xFF, 0xFF, 0xFF, 
  0xFF, 0xFF, 0xFF, 0xFF, 0x0F, 0xE3, 0xFF, 0xFF, 0x03, 0xC0, 0xFF, 0xFF, 
  0x03, 0xC0, 0xFF, 0xFF, 0x01, 0xC0, 0xFF, 0xFF, 0x81, 0xC1, 0xFF, 0xFF, 
  0xC1, 0xC1, 0xFF, 0xFF, 0xC1, 0xC1, 0xFF, 0xFF, 0xC1, 0xC1, 0xFF, 0xFF, 
  0xC1, 0x81, 0xFF, 0xFF, 0x81, 0x81, 0xFF, 0xFF, 0x01, 0x80, 0xFF, 0xFF, 
  0x03, 0x80, 0xFF, 0xFF, 0x03, 0x80, 0xFF, 0xFF, 0x07, 0x80, 0xFF, 0xFF, 
  0x1F, 0x80, 0xFF, 0xFF, 0xFF, 0x81, 0xFF, 0xFF, 0xFF, 0x81, 0xFF, 0xFF, 
  0xFF, 0x81, 0xFF, 0xFF, 0xFF, 0xC1, 0xFF, 0xFF, 0xFF, 0xC1, 0xFF, 0xFF, 
  0xFF, 0xE3, 0xFF, 0xFF, 0xFF, 0xFF, 0xFF, 0xFF, 0xFF, 0xFF, 0xFF, 0xFF, 
  0xFF, 0xFF, 0xFF, 0xFF, 0xFF, 0xFF, 0xFF, 0xFF, 0xFF, 0xFF, 0xFF, 0xFF, 
  0xFF, 0xFF, 0xFF, 0xFF, 0xFF, 0xFF, 0xFF, 0xFF, 0xFF, 0xFF, 0xFF, 0xFF, 
  0xFF, 0xFF, 0xFF, 0xFF, 0xFF, 0xFF, 0xFF, 0xFF, 0xFF, 0xFF, 0xFF, 0xFF, 
  0x83, 0xE1, 0xFF, 0xFF, 0x03, 0x80, 0xFF, 0xFF, 0x03, 0x80, 0xFF, 0xFF, 
  0x03, 0x00, 0xFF, 0xFF, 0x01, 0x00, 0xFF, 0xFF, 0x01, 0x06, 0xFE, 0xFF, 
  0x01, 0x07, 0xFE, 0xFF, 0x01, 0x8F, 0xFF, 0xFF, 0x81, 0xFF, 0xFF, 0xFF, 
  0x81, 0xFF, 0xFF, 0xFF, 0x81, 0xFF, 0xFF, 0xFF, 0x81, 0xFF, 0xFF, 0xFF, 
  0x81, 0xFF, 0xFF, 0xFF, 0x81, 0xFF, 0xFF, 0xFF, 0x83, 0xFF, 0xFF, 0xFF, 
  0x83, 0xFF, 0xFF, 0xFF, 0x83, 0xFF, 0xFF, 0xFF, 0xC3, 0xFF, 0xFF, 0xFF, 
  0xFF, 0xFF, 0xFF, 0xFF, 0xFF, 0xFF, 0xFF, 0xFF, 0xFF, 0xFF, 0xFF, 0xFF, 
  0xFF, 0xFF, 0xFF, 0xFF, 0xFF, 0xFF, 0xFF, 0xFF, 0xFF, 0xFF, 0xFF, 0xFF, 
  0xFF, 0xFF, 0xFF, 0xFF, 0xFF, 0xFF, 0xFF, 0xFF, 0xFF, 0xFF, 0xFF, 0xFF, 
  0xFF, 0xFF, 0xFF, 0xFF, 0xFF, 0xFF, 0xFF, 0xFF, 0xFF, 0xFF, 0xFF, 0xFF, 
  0xFF, 0xFF, 0xFF, 0xFF, 0xFF, 0xFF, 0xFF, 0xFF, 0x3F, 0xE0, 0xFF, 0xFF, 
  0x07, 0xC0, 0xFF, 0xFF, 0x03, 0x80, 0xFF, 0xFF, 0x01, 0x80, 0xFF, 0xFF, 
  0x01, 0x80, 0xFF, 0xFF, 0xC1, 0xC3, 0xFF, 0xFF, 0x01, 0xFE, 0xFF, 0xFF, 
  0x01, 0xE0, 0xFF, 0xFF, 0x03, 0xC0, 0xFF, 0xFF, 0x07, 0x80, 0xFF, 0xFF, 
  0x1F, 0x00, 0xFF, 0xFF, 0xFF, 0x01, 0xFF, 0xFF, 0x03, 0x01, 0xFF, 0xFF, 
  0x01, 0x00, 0xFF, 0xFF, 0x01, 0x80, 0xFF, 0xFF, 0x01, 0x80, 0xFF, 0xFF, 
  0x03, 0xC0, 0xFF, 0xFF, 0x0F, 0xF8, 0xFF, 0xFF, 0xFF, 0xFF, 0xFF, 0xFF, 
  0xFF, 0xFF, 0xFF, 0xFF, 0xFF, 0xFF, 0xFF, 0xFF, 0xFF, 0xFF, 0xFF, 0xFF, 
  0xFF, 0xFF, 0xFF, 0xFF, 0xFF, 0xFF, 0xFF, 0xFF, 0xFF, 0xFF, 0xFF, 0xFF, 
  0xFF, 0xFF, 0xFF, 0xFF, 0xFF, 0xFF, 0xFF, 0xFF, 0xFF, 0xFF, 0xFF, 0xFF, 
  0xFF, 0xFF, 0xFF, 0xFF, 0x1F, 0xFE, 0xFF, 0xFF, 0x0F, 0xFE, 0xFF, 0xFF, 
  0x0F, 0xFE, 0xFF, 0xFF, 0x0F, 0xFE, 0xFF, 0xFF, 0x0F, 0xFE, 0xFF, 0xFF, 
  0x03, 0xF8, 0xFF, 0xFF, 0x00, 0xE0, 0xFF, 0xFF, 0x00, 0xE0, 0xFF, 0xFF, 
  0x00, 0xE0, 0xFF, 0xFF, 0x01, 0xF0, 0xFF, 0xFF, 0x0F, 0xFE, 0xFF, 0xFF, 
  0x0F, 0xFE, 0xFF, 0xFF, 0x0F, 0xFE, 0xFF, 0xFF, 0x0F, 0xFE, 0xFF, 0xFF, 
  0x0F, 0xFE, 0xFF, 0xFF, 0x0F, 0xF0, 0xFF, 0xFF, 0x0F, 0xF0, 0xFF, 0xFF, 
  0x0F, 0xE0, 0xFF, 0xFF, 0x1F, 0xE0, 0xFF, 0xFF, 0x1F, 0xF0, 0xFF, 0xFF, 
  0x7F, 0xF8, 0xFF, 0xFF, 0xFF, 0xFF, 0xFF, 0xFF, 0xFF, 0xFF, 0xFF, 0xFF, 
  0xFF, 0xFF, 0xFF, 0xFF, 0xFF, 0xFF, 0xFF, 0xFF, 0xFF, 0xFF, 0xFF, 0xFF, 
  0xFF, 0xFF, 0xFF, 0xFF, 0xFF, 0xFF, 0xFF, 0xFF, 0xFF, 0xFF, 0xFF, 0xFF, 
  0xFF, 0xFF, 0xFF, 0xFF, 0xFF, 0xFF, 0xFF, 0xFF, 0xFF, 0xFF, 0xFF, 0xFF, 
  0xFF, 0xFF, 0xFF, 0xFF, 0xFF, 0xFF, 0xFF, 0xFF, 0xFF, 0xFF, 0xFF, 0xFF, 
  0xC7, 0xE3, 0xFF, 0xFF, 0x83, 0xC3, 0xFF, 0xFF, 0x83, 0x83, 0xFF, 0xFF, 
  0x81, 0x81, 0xFF, 0xFF, 0x81, 0x83, 0xFF, 0xFF, 0x81, 0x83, 0xFF, 0xFF, 
  0x81, 0x83, 0xFF, 0xFF, 0x81, 0x83, 0xFF, 0xFF, 0x81, 0x83, 0xFF, 0xFF, 
  0x81, 0x83, 0xFF, 0xFF, 0x81, 0x81, 0xFF, 0xFF, 0x01, 0x80, 0xFF, 0xFF, 
  0x01, 0x80, 0xFF, 0xFF, 0x03, 0x80, 0xFF, 0xFF, 0x03, 0x80, 0xFF, 0xFF, 
  0x07, 0x80, 0xFF, 0xFF, 0x07, 0xC0, 0xFF, 0xFF, 0x0F, 0xE3, 0xFF, 0xFF, 
  0xFF, 0xFF, 0xFF, 0xFF, 0xFF, 0xFF, 0xFF, 0xFF, 0xFF, 0xFF, 0xFF, 0xFF, 
  0xFF, 0xFF, 0xFF, 0xFF, 0xFF, 0xFF, 0xFF, 0xFF, 0xFF, 0xFF, 0xFF, 0xFF, 
  0xFF, 0xFF, 0xFF, 0xFF, 0xFF, 0xFF, 0xFF, 0xFF, 0xFF, 0xFF, 0xFF, 0xFF, 
  0xFF, 0xFF, 0xFF, 0xFF, 0xFF, 0xFF, 0xFF, 0xFF, 0xFF, 0xFF, 0xFF, 0xFF, 
  0xFF, 0xFF, 0xFF, 0xFF, 0xFF, 0xFF, 0xFF, 0xFF, 0xE1, 0xC7, 0xFF, 0xFF, 
  0xE0, 0x83, 0xFF, 0xFF, 0xE0, 0x83, 0xFF, 0xFF, 0xC0, 0x83, 0xFF, 0xFF, 
  0xC1, 0x81, 0xFF, 0xFF, 0xC1, 0xC1, 0xFF, 0xFF, 0xC1, 0xC1, 0xFF, 0xFF, 
  0x81, 0xC1, 0xFF, 0xFF, 0x83, 0xC0, 0xFF, 0xFF, 0x83, 0xE0, 0xFF, 0xFF, 
  0x03, 0xE0, 0xFF, 0xFF, 0x07, 0xE0, 0xFF, 0xFF, 0x07, 0xF0, 0xFF, 0xFF, 
  0x07, 0xF0, 0xFF, 0xFF, 0x0F, 0xF8, 0xFF, 0xFF, 0x0F, 0xF8, 0xFF, 0xFF, 
  0x1F, 0xFC, 0xFF, 0xFF, 0x3F, 0xFE, 0xFF, 0xFF, 0xFF, 0xFF, 0xFF, 0xFF, 
  0xFF, 0xFF, 0xFF, 0xFF, 0xFF, 0xFF, 0xFF, 0xFF, 0xFF, 0xFF, 0xFF, 0xFF, 
  0xFF, 0xFF, 0xFF, 0xFF, 0xFF, 0xFF, 0xFF, 0xFF, 0xFF, 0xFF, 0xFF, 0xFF, 
  0xFF, 0xFF, 0xFF, 0xFF, 0xFF, 0xFF, 0xFF, 0xFF, 0xFF, 0xFF, 0xFF, 0xFF, 
  0xFF, 0xFF, 0xFF, 0xFF, 0xFF, 0xFF, 0xFF, 0xFF, 0xFF, 0xFF, 0xFF, 0xFF, 
  0xFF, 0xFF, 0xFF, 0xFF, 0xC3, 0xFF, 0xF1, 0xFF, 0x83, 0xFF, 0xE0, 0xFF, 
  0x81, 0xFF, 0xE0, 0xFF, 0x81, 0xE1, 0xC0, 0xFF, 0x81, 0xC1, 0xC0, 0xFF, 
  0x81, 0xC0, 0xC0, 0xFF, 0x81, 0xC0, 0xC0, 0xFF, 0x81, 0xC0, 0xC0, 0xFF, 
  0xC1, 0x80, 0xC0, 0xFF, 0xC1, 0x80, 0xC0, 0xFF, 0x01, 0x00, 0xC0, 0xFF, 
  0x01, 0x00, 0xE0, 0xFF, 0x01, 0x00, 0xE0, 0xFF, 0x03, 0x08, 0xE0, 0xFF, 
  0x03, 0x0C, 0xE0, 0xFF, 0x03, 0x1C, 0xF0, 0xFF, 0x07, 0x3E, 0xF0, 0xFF, 
  0x0F, 0x7F, 0xF8, 0xFF, 0xFF, 0xFF, 0xFF, 0xFF, 0xFF, 0xFF, 0xFF, 0xFF, 
  0xFF, 0xFF, 0xFF, 0xFF, 0xFF, 0xFF, 0xFF, 0xFF, 0xFF, 0xFF, 0xFF, 0xFF, 
  0xFF, 0xFF, 0xFF, 0xFF, 0xFF, 0xFF, 0xFF, 0xFF, 0xFF, 0xFF, 0xFF, 0xFF, 
  0xFF, 0xFF, 0xFF, 0xFF, 0xFF, 0xFF, 0xFF, 0xFF, 0xFF, 0xFF, 0xFF, 0xFF, 
  0xFF, 0xFF, 0xFF, 0xFF, 0xFF, 0xFF, 0xFF, 0xFF, 0xFF, 0xFF, 0xFF, 0xFF, 
  0xE7, 0x8F, 0xFF, 0xFF, 0xC1, 0x07, 0xFF, 0xFF, 0x81, 0x07, 0xFE, 0xFF, 
  0x01, 0x03, 0xFF, 0xFF, 0x01, 0x00, 0xFF, 0xFF, 0x03, 0x80, 0xFF, 0xFF, 
  0x07, 0xC0, 0xFF, 0xFF, 0x0F, 0xE0, 0xFF, 0xFF, 0x1F, 0xE0, 0xFF, 0xFF, 
  0x1F, 0xE0, 0xFF, 0xFF, 0x0F, 0xC0, 0xFF, 0xFF, 0x07, 0x80, 0xFF, 0xFF, 
  0x03, 0x00, 0xFF, 0xFF, 0x01, 0x03, 0xFE, 0xFF, 0x81, 0x03, 0xFC, 0xFF, 
  0x80, 0x07, 0xFC, 0xFF, 0xC1, 0x0F, 0xFE, 0xFF, 0xE3, 0x1F, 0xFF, 0xFF, 
  0xFF, 0xFF, 0xFF, 0xFF, 0xFF, 0xFF, 0xFF, 0xFF, 0xFF, 0xFF, 0xFF, 0xFF, 
  0xFF, 0xFF, 0xFF, 0xFF, 0xFF, 0xFF, 0xFF, 0xFF, 0xFF, 0xFF, 0xFF, 0xFF, 
  0xFF, 0xFF, 0xFF, 0xFF, 0xFF, 0xFF, 0xFF, 0xFF, 0xFF, 0xFF, 0xFF, 0xFF, 
  0xFF, 0xFF, 0xFF, 0xFF, 0xFF, 0xFF, 0xFF, 0xFF, 0xFF, 0xFF, 0xFF, 0xFF, 
  0xFF, 0xFF, 0xFF, 0xFF, 0xFF, 0xFF, 0xFF, 0xFF, 0xE1, 0xE1, 0xFF, 0xFF, 
  0xC1, 0xC1, 0xFF, 0xFF, 0xC0, 0xC1, 0xFF, 0xFF, 0xC1, 0xC1, 0xFF, 0xFF, 
  0xC1, 0x81, 0xFF, 0xFF, 0xC1, 0x81, 0xFF, 0xFF, 0xC1, 0x80, 0xFF, 0xFF, 
  0x01, 0x80, 0xFF, 0xFF, 0x03, 0x80, 0xFF, 0xFF, 0x03, 0x80, 0xFF, 0xFF, 
  0x07, 0x81, 0xFF, 0xFF, 0xFF, 0x81, 0xFF, 0xFF, 0xFF, 0x81, 0xFF, 0xFF, 
  0xC7, 0xC0, 0xFF, 0xFF, 0x07, 0xC0, 0xFF, 0xFF, 0x03, 0xE0, 0xFF, 0xFF, 
  0x03, 0xE0, 0xFF, 0xFF, 0x07, 0xF0, 0xFF, 0xFF, 0x0F, 0xFC, 0xFF, 0xFF, 
  0xFF, 0xFF, 0xFF, 0xFF, 0xFF, 0xFF, 0xFF, 0xFF, 0xFF, 0xFF, 0xFF, 0xFF, 
  0xFF, 0xFF, 0xFF, 0xFF, 0xFF, 0xFF, 0xFF, 0xFF, 0xFF, 0xFF, 0xFF, 0xFF, 
  0xFF, 0xFF, 0xFF, 0xFF, 0xFF, 0xFF, 0xFF, 0xFF, 0xFF, 0xFF, 0xFF, 0xFF, 
  0xFF, 0xFF, 0xFF, 0xFF, 0xFF, 0xFF, 0xFF, 0xFF, 0xFF, 0xFF, 0xFF, 0xFF, 
  0xFF, 0xFF, 0xFF, 0xFF, 0x03, 0xF8, 0xFF, 0xFF, 0x01, 0xE0, 0xFF, 0xFF, 
  0x00, 0xC0, 0xFF, 0xFF, 0x01, 0xC0, 0xFF, 0xFF, 0x01, 0xE0, 0xFF, 0xFF, 
  0x7F, 0xE0, 0xFF, 0xFF, 0x7F, 0xE0, 0xFF, 0xFF, 0x3F, 0xF0, 0xFF, 0xFF, 
  0x1F, 0xF8, 0xFF, 0xFF, 0x0F, 0xFC, 0xFF, 0xFF, 0x07, 0xFC, 0xFF, 0xFF, 
  0x03, 0xFE, 0xFF, 0xFF, 0x01, 0xFF, 0xFF, 0xFF, 0x01, 0xE0, 0xFF, 0xFF, 
  0x01, 0xC0, 0xFF, 0xFF, 0x01, 0xC0, 0xFF, 0xFF, 0x01, 0xE0, 0xFF, 0xFF, 
  0x07, 0xE0, 0xFF, 0xFF, 0xFF, 0xFF, 0xFF, 0xFF, 0xFF, 0xFF, 0xFF, 0xFF, 
  0xFF, 0xFF, 0xFF, 0xFF, 0xFF, 0xFF, 0xFF, 0xFF, 0xFF, 0xFF, 0xFF, 0xFF, 
  0xFF, 0xFF, 0xFF, 0xFF, 0xFF, 0xFF, 0xFF, 0xFF, 0x3F, 0xF8, 0xFF, 0xFF, 
  0x0F, 0xF0, 0xFF, 0xFF, 0x0F, 0xF0, 0xFF, 0xFF, 0x0F, 0xF0, 0xFF, 0xFF, 
  0x0F, 0xF8, 0xFF, 0xFF, 0x0F, 0xFE, 0xFF, 0xFF, 0x0F, 0xFF, 0xFF, 0xFF, 
  0x0F, 0xFF, 0xFF, 0xFF, 0x0F, 0xFF, 0xFF, 0xFF, 0x0F, 0xFF, 0xFF, 0xFF, 
  0x07, 0xFE, 0xFF, 0xFF, 0x03, 0xFE, 0xFF, 0xFF, 0x01, 0xFF, 0xFF, 0xFF, 
  0x01, 0xFF, 0xFF, 0xFF, 0x01, 0xFF, 0xFF, 0xFF, 0x03, 0xFF, 0xFF, 0xFF, 
  0x07, 0xFE, 0xFF, 0xFF, 0x0F, 0xFE, 0xFF, 0xFF, 0x0F, 0xFE, 0xFF, 0xFF, 
  0x0F, 0xFE, 0xFF, 0xFF, 0x0F, 0xFE, 0xFF, 0xFF, 0x0F, 0xFE, 0xFF, 0xFF, 
  0x0F, 0xFE, 0xFF, 0xFF, 0x0F, 0xF8, 0xFF, 0xFF, 0x0F, 0xF0, 0xFF, 0xFF, 
  0x0F, 0xE0, 0xFF, 0xFF, 0x0F, 0xF0, 0xFF, 0xFF, 0x1F, 0xF0, 0xFF, 0xFF, 
  0xFF, 0xFF, 0xFF, 0xFF, 0xFF, 0xFF, 0xFF, 0xFF, 0xFF, 0xFF, 0xFF, 0xFF, 
  0xFF, 0xFF, 0xFF, 0xFF, 0x7F, 0xF8, 0xFF, 0xFF, 0x7F, 0xF8, 0xFF, 0xFF, 
  0x7F, 0xF8, 0xFF, 0xFF, 0x7F, 0xF8, 0xFF, 0xFF, 0x7F, 0xF8, 0xFF, 0xFF, 
  0x7F, 0xF8, 0xFF, 0xFF, 0x7F, 0xF8, 0xFF, 0xFF, 0x7F, 0xF8, 0xFF, 0xFF, 
  0x7F, 0xF8, 0xFF, 0xFF, 0x7F, 0xF8, 0xFF, 0xFF, 0x7F, 0xF8, 0xFF, 0xFF, 
  0x7F, 0xF8, 0xFF, 0xFF, 0x7F, 0xF8, 0xFF, 0xFF, 0x7F, 0xF8, 0xFF, 0xFF, 
  0x7F, 0xF8, 0xFF, 0xFF, 0x7F, 0xF8, 0xFF, 0xFF, 0x7F, 0xF8, 0xFF, 0xFF, 
  0x7F, 0xF8, 0xFF, 0xFF, 0x7F, 0xF8, 0xFF, 0xFF, 0x7F, 0xF8, 0xFF, 0xFF, 
  0x7F, 0xF8, 0xFF, 0xFF, 0x7F, 0xF8, 0xFF, 0xFF, 0x7F, 0xF8, 0xFF, 0xFF, 
  0x7F, 0xF8, 0xFF, 0xFF, 0x7F, 0xF8, 0xFF, 0xFF, 0x7F, 0xF8, 0xFF, 0xFF, 
  0x7F, 0xF8, 0xFF, 0xFF, 0xFF, 0xF8, 0xFF, 0xFF, 0xFF, 0xFF, 0xFF, 0xFF, 
  0xFF, 0xFF, 0xFF, 0xFF, 0xFF, 0xFF, 0xFF, 0xFF, 0xFF, 0xFF, 0xFF, 0xFF, 
  0x03, 0xFF, 0xFF, 0xFF, 0x03, 0xFE, 0xFF, 0xFF, 0x01, 0xFE, 0xFF, 0xFF, 
  0x03, 0xFE, 0xFF, 0xFF, 0x03, 0xFC, 0xFF, 0xFF, 0x1F, 0xFE, 0xFF, 0xFF, 
  0x1F, 0xFE, 0xFF, 0xFF, 0x1F, 0xFE, 0xFF, 0xFF, 0x1F, 0xFE, 0xFF, 0xFF, 
  0x1F, 0xFE, 0xFF, 0xFF, 0x1F, 0xFC, 0xFF, 0xFF, 0x1F, 0xF0, 0xFF, 0xFF, 
  0x1F, 0xF0, 0xFF, 0xFF, 0x3F, 0xE0, 0xFF, 0xFF, 0x3F, 0xF0, 0xFF, 0xFF, 
  0x1F, 0xF0, 0xFF, 0xFF, 0x1F, 0xF8, 0xFF, 0xFF, 0x0F, 0xFC, 0xFF, 0xFF, 
  0x0F, 0xFC, 0xFF, 0xFF, 0x0F, 0xFC, 0xFF, 0xFF, 0x1F, 0xFC, 0xFF, 0xFF, 
  0x1F, 0xFC, 0xFF, 0xFF, 0x1F, 0xFC, 0xFF, 0xFF, 0x03, 0xFC, 0xFF, 0xFF, 
  0x01, 0xFC, 0xFF, 0xFF, 0x01, 0xFC, 0xFF, 0xFF, 0x01, 0xFE, 0xFF, 0xFF, 
  0x03, 0xFF, 0xFF, 0xFF, 0xFF, 0xFF, 0xFF, 0xFF, 0xFF, 0xFF, 0xFF, 0xFF, 
  0xFF, 0xFF, 0xFF, 0xFF, 0xFF, 0xFF, 0xFF, 0xFF, 0xFF, 0xFF, 0xFF, 0xFF, 
  0xFF, 0xFF, 0xFF, 0xFF, 0xFF, 0xFF, 0xFF, 0xFF, 0xFF, 0xFF, 0xFF, 0xFF, 
  0xFF, 0xFF, 0xFF, 0xFF, 0xFF, 0xFF, 0xFF, 0xFF, 0xFF, 0xFF, 0xFF, 0xFF, 
  0xFF, 0xFF, 0xFF, 0xFF, 0xFF, 0xFF, 0xFF, 0xFF, 0xFF, 0xFF, 0xFF, 0xFF, 
  0xFF, 0xFF, 0xFF, 0xFF, 0xFF, 0xFF, 0xFF, 0xFF, 0xC7, 0xF3, 0xFF, 0xFF, 
  0x03, 0xF0, 0xFF, 0xFF, 0x01, 0xF0, 0xFF, 0xFF, 0x01, 0xF0, 0xFF, 0xFF, 
  0x79, 0xFC, 0xFF, 0xFF, 0xFF, 0xFF, 0xFF, 0xFF, 0xFF, 0xFF, 0xFF, 0xFF, 
  0xFF, 0xFF, 0xFF, 0xFF, 0xFF, 0xFF, 0xFF, 0xFF, 0xFF, 0xFF, 0xFF, 0xFF, 
  0xFF, 0xFF, 0xFF, 0xFF, 0xFF, 0xFF, 0xFF, 0xFF, 0xFF, 0xFF, 0xFF, 0xFF, 
  0xFF, 0xFF, 0xFF, 0xFF, 0xFF, 0xFF, 0xFF, 0xFF, 0xFF, 0xFF, 0xFF, 0xFF, 
  0xFF, 0xFF, 0xFF, 0xFF, 0xFF, 0xFF, 0xFF, 0xFF, 0xFF, 0xFF, 0xFF, 0xFF, 
  0xFF, 0xFF, 0xFF, 0xFF, 0xFF, 0xFF, 0xFF, 0xFF, 0xFF, 0xFF, 0xFF, 0xFF, 
  0xFF, 0xFF, 0xFF, 0xFF, 0xFF, 0xFF, 0xFF, 0xFF, 0xFF, 0xFF, 0xFF, 0xFF, 
  0xFF, 0xFF, 0xFF, 0xFF, 0xFF, 0xFF, 0xFF, 0xFF, 0xFF, 0xFF, 0xFF, 0xFF, 
  0xFF, 0xFF, 0xFF, 0xFF, 0xFF, 0xFF, 0xFF, 0xFF, 0xFF, 0xFF, 0xFF, 0xFF, 
  0xFF, 0xFF, 0xFF, 0xFF, 0xFF, 0xFF, 0xFF, 0xFF, 0xFF, 0xFF, 0xFF, 0xFF, 
  0xFF, 0xFF, 0xFF, 0xFF, 0xFF, 0xFF, 0xFF, 0xFF, 0xFF, 0xFF, 0xFF, 0xFF, 
  0xFF, 0xFF, 0xFF, 0xFF, 0xFF, 0xFF, 0xFF, 0xFF, 0xFF, 0xFF, 0xFF, 0xFF, 
  0xFF, 0xFF, 0xFF, 0xFF, 0xFF, 0xFF, 0xFF, 0xFF, 0xFF, 0xFF, 0xFF, 0xFF, 
  0xFF, 0xFF, 0xFF, 0xFF, 0xFF, 0xFF, 0xFF, 0xFF, 0xFF, 0xFF, 0xFF, 0xFF, 
  0xFF, 0xFF, 0xFF, 0xFF, 0xFF, 0xFF, 0xFF, 0xFF, 0xFF, 0xFF, 0xFF, 0xFF, 
  0xFF, 0xFF, 0xFF, 0xFF, };
